;FLAVOR:Marlin
;TIME:13024
;Filament used: 8.26754m
;Layer height: 0.2
;MINX:113.7
;MINY:117.7
;MINZ:0.15
;MAXX:186.3
;MAXY:182.3
;MAXZ:34.95
;Generated with Cura_SteamEngine 4.4.1
M140 S60
M105
M190 S60
M104 S220
M105
M109 S220
M82 ;absolute extrusion mode
G21 ;metric values
 G90 ;absolute positioning
 M82 ;set extruder to absolute mode
 M107 ;start with the fan off
 G28 X0 Y0 ;move X/Y to min endstops
 G28 Z0 ;move Z to min endstops
 G1 Z15.0 F120 ;move the platform down 15mm
 G92 E0 ;zero the extruded length
 G1 F200 E6 ;extrude 6 mm of feed stock
 G92 E0 ;zero the extruded length again
 G1 F120 
 ;Put printing message on LCD screen
 M117 Printing...
G92 E0
G92 E0
G1 F1500 E-6.5
;LAYER_COUNT:175
;LAYER:0
M107
;MESH:TrapazHolder.stl
G0 F3600 X117.549 Y132.769 Z0.15
;TYPE:WALL-INNER
G1 F1500 E0
G1 F900 X117.191 Y133.288 E0.01573
G1 X116.968 Y133.877 E0.03144
G1 X116.893 Y134.5 E0.04709
G1 X116.968 Y135.123 E0.06274
G1 X117.191 Y135.712 E0.07845
G1 X117.547 Y136.229 E0.09411
G1 X118.021 Y136.647 E0.10988
G1 X118.576 Y136.938 E0.12551
G1 X119.185 Y137.088 E0.14116
G1 X119.815 Y137.088 E0.15687
G1 X120.424 Y136.938 E0.17252
G1 X120.979 Y136.647 E0.18815
G1 X121.453 Y136.229 E0.20391
G1 X121.809 Y135.712 E0.21957
G1 X122.032 Y135.123 E0.23528
G1 X122.107 Y134.5 E0.25094
G1 X122.032 Y133.877 E0.26659
G1 X121.809 Y133.288 E0.2823
G1 X121.453 Y132.771 E0.29796
G1 X120.979 Y132.353 E0.31372
G1 X120.424 Y132.062 E0.32935
G1 X119.815 Y131.912 E0.345
G1 X119.185 Y131.912 E0.36072
G1 X118.578 Y132.062 E0.37631
G1 X118.027 Y132.349 E0.39181
G1 X117.549 Y132.769 E0.40768
G0 F3600 X117.256 Y134.5
G0 X123.097 Y152.19
G1 F900 X123.704 Y154.339 E0.46339
G1 X124.693 Y156.34 E0.51907
G1 X126.032 Y158.127 E0.57477
G1 X127.68 Y159.636 E0.63051
G1 X129.575 Y160.817 E0.68621
G1 X131.654 Y161.629 E0.74188
G1 X133.85 Y162.046 E0.79764
G1 X136.082 Y162.053 E0.85332
G1 X138.279 Y161.65 E0.90904
G1 X140.363 Y160.848 E0.96474
G1 X142.265 Y159.678 E1.02044
G1 X143.919 Y158.178 E1.07614
G1 X145.269 Y156.399 E1.13185
G1 X146.27 Y154.403 E1.18755
G1 X146.889 Y152.258 E1.24324
G1 X147.101 Y150.035 E1.29895
G1 X146.903 Y147.81 E1.35467
G1 X146.296 Y145.661 E1.41038
G1 X145.307 Y143.66 E1.46605
G1 X143.968 Y141.873 E1.52176
G1 X142.32 Y140.364 E1.5775
G1 X140.425 Y139.183 E1.6332
G1 X138.346 Y138.371 E1.68887
G1 X136.15 Y137.954 E1.74463
G1 X133.918 Y137.947 E1.80031
G1 X131.721 Y138.35 E1.85603
G1 X129.637 Y139.152 E1.91173
G1 X127.735 Y140.322 E1.96743
G1 X126.081 Y141.822 E2.02313
G1 X124.731 Y143.601 E2.07884
G1 X123.73 Y145.597 E2.13454
G1 X123.111 Y147.742 E2.19023
G1 X122.899 Y149.965 E2.24594
G1 X123.097 Y152.19 E2.30166
G0 F3600 X117.549 Y163.769
G1 F900 X117.191 Y164.288 E2.31739
G1 X116.968 Y164.877 E2.3331
G1 X116.893 Y165.5 E2.34875
G1 X116.968 Y166.123 E2.3644
G1 X117.191 Y166.712 E2.38011
G1 X117.547 Y167.229 E2.39577
G1 X118.021 Y167.647 E2.41154
G1 X118.576 Y167.938 E2.42717
G1 X119.185 Y168.088 E2.44281
G1 X119.815 Y168.088 E2.45853
G1 X120.424 Y167.938 E2.47418
G1 X120.979 Y167.647 E2.48981
G1 X121.453 Y167.229 E2.50557
G1 X121.809 Y166.712 E2.52123
G1 X122.032 Y166.123 E2.53694
G1 X122.107 Y165.5 E2.55259
G1 X122.032 Y164.877 E2.56825
G1 X121.809 Y164.288 E2.58396
G1 X121.453 Y163.771 E2.59962
G1 X120.979 Y163.353 E2.61538
G1 X120.424 Y163.062 E2.63101
G1 X119.815 Y162.912 E2.64666
G1 X119.185 Y162.912 E2.66237
G1 X118.578 Y163.062 E2.67797
G1 X118.027 Y163.349 E2.69347
G1 X117.549 Y163.769 E2.70934
G0 F3600 X119.23 Y163.273
G0 X148.549 Y163.769
G1 F900 X148.191 Y164.288 E2.72507
G1 X147.968 Y164.877 E2.74078
G1 X147.893 Y165.5 E2.75643
G1 X147.968 Y166.123 E2.77209
G1 X148.191 Y166.712 E2.7878
G1 X148.547 Y167.229 E2.80345
G1 X149.021 Y167.647 E2.81922
G1 X149.576 Y167.938 E2.83485
G1 X150.185 Y168.088 E2.8505
G1 X150.815 Y168.088 E2.86621
G1 X151.424 Y167.938 E2.88186
G1 X151.979 Y167.647 E2.89749
G1 X152.453 Y167.229 E2.91326
G1 X152.809 Y166.712 E2.92891
G1 X153.032 Y166.123 E2.94462
G1 X153.107 Y165.5 E2.96028
G1 X153.032 Y164.877 E2.97593
G1 X152.809 Y164.288 E2.99164
G1 X152.453 Y163.771 E3.0073
G1 X151.979 Y163.353 E3.02306
G1 X151.424 Y163.062 E3.0387
G1 X150.815 Y162.912 E3.05434
G1 X150.185 Y162.912 E3.07006
G1 X149.578 Y163.062 E3.08565
G1 X149.027 Y163.349 E3.10115
G1 X148.549 Y163.769 E3.11702
G0 F3600 X148.256 Y134.5
G0 X148.549 Y132.769
G1 F900 X148.191 Y133.288 E3.13275
G1 X147.968 Y133.877 E3.14846
G1 X147.893 Y134.5 E3.16412
G1 X147.968 Y135.123 E3.17977
G1 X148.191 Y135.712 E3.19548
G1 X148.547 Y136.229 E3.21114
G1 X149.021 Y136.647 E3.2269
G1 X149.576 Y136.938 E3.24253
G1 X150.185 Y137.088 E3.25818
G1 X150.815 Y137.088 E3.2739
G1 X151.424 Y136.938 E3.28954
G1 X151.979 Y136.647 E3.30517
G1 X152.453 Y136.229 E3.32094
G1 X152.809 Y135.712 E3.3366
G1 X153.032 Y135.123 E3.35231
G1 X153.107 Y134.5 E3.36796
G1 X153.032 Y133.877 E3.38361
G1 X152.809 Y133.288 E3.39932
G1 X152.453 Y132.771 E3.41498
G1 X151.979 Y132.353 E3.43075
G1 X151.424 Y132.062 E3.44638
G1 X150.815 Y131.912 E3.46202
G1 X150.185 Y131.912 E3.47774
G1 X149.578 Y132.062 E3.49334
G1 X149.027 Y132.349 E3.50883
G1 X148.549 Y132.769 E3.52471
G0 F3600 X167.506 Y125.96
G1 F900 X167.857 Y126.895 E3.54962
G1 X168.418 Y127.711 E3.57432
G1 X169.155 Y128.37 E3.59898
G1 X170.03 Y128.833 E3.62368
G1 X170.989 Y129.073 E3.64834
G1 X171.977 Y129.077 E3.67298
G1 X172.94 Y128.846 E3.69769
G1 X173.82 Y128.387 E3.72245
G1 X174.562 Y127.734 E3.7471
G1 X175.128 Y126.923 E3.77177
G1 X175.482 Y125.998 E3.79648
G1 X175.598 Y125.075 E3.81968
G1 X175.6 Y118.5 E3.9837
G1 X185.5 Y118.5 E4.23065
G1 X185.5 Y181.5 E5.8022
G1 X175.6 Y181.5 E6.04915
G1 X175.6 Y174.94 E6.21279
G1 X175.49 Y174.032 E6.23561
G1 X175.143 Y173.105 E6.2603
G1 X174.582 Y172.289 E6.285
G1 X173.845 Y171.63 E6.30966
G1 X172.97 Y171.167 E6.33436
G1 X172.011 Y170.927 E6.35902
G1 X171.023 Y170.923 E6.38366
G1 X170.06 Y171.154 E6.40837
G1 X169.18 Y171.613 E6.43313
G1 X168.438 Y172.266 E6.45778
G1 X167.872 Y173.077 E6.48245
G1 X167.518 Y174.002 E6.50716
G1 X167.402 Y174.925 E6.53036
G1 X167.4 Y181.5 E6.69438
G1 X114.5 Y181.5 E8.01397
G1 X114.5 Y118.5 E9.58552
G1 X167.4 Y118.5 E10.90511
G1 X167.4 Y124.939 E11.06573
G1 X167.506 Y125.96 E11.09134
G0 F3600 X167.899 Y125.868
G1 F900 X168.214 Y126.709 E11.11374
G1 X168.72 Y127.445 E11.13602
G1 X169.385 Y128.039 E11.15826
G1 X170.174 Y128.457 E11.18054
G1 X171.039 Y128.673 E11.20278
G1 X171.931 Y128.677 E11.22503
G1 X172.799 Y128.469 E11.24729
G1 X173.592 Y128.055 E11.26961
G1 X174.262 Y127.466 E11.29186
G1 X174.772 Y126.734 E11.31412
G1 X175.091 Y125.9 E11.33639
G1 X175.198 Y125.05 E11.35776
G1 X175.2 Y118.1 E11.53113
G1 X185.9 Y118.1 E11.79804
G1 X185.9 Y181.9 E13.38954
G1 X175.2 Y181.9 E13.65645
G1 X175.2 Y174.964 E13.82947
G1 X175.099 Y174.127 E13.8505
G1 X174.786 Y173.291 E13.87277
G1 X174.28 Y172.555 E13.89505
G1 X173.615 Y171.961 E13.91729
G1 X172.826 Y171.543 E13.93956
G1 X171.961 Y171.327 E13.9618
G1 X171.069 Y171.323 E13.98406
G1 X170.201 Y171.531 E14.00632
G1 X169.408 Y171.945 E14.02864
G1 X168.738 Y172.534 E14.05089
G1 X168.228 Y173.266 E14.07314
G1 X167.909 Y174.1 E14.09542
G1 X167.802 Y174.95 E14.11679
G1 X167.8 Y181.9 E14.29016
G1 X114.1 Y181.9 E15.62971
G1 X114.1 Y118.1 E17.22121
G1 X167.8 Y118.1 E18.56076
G1 X167.8 Y124.918 E18.73083
G1 X167.899 Y125.868 E18.75466
G0 F3600 X167.802 Y125.89
G0 X149.706 Y132.402
G0 X148.776 Y132.971
G0 X148.85 Y133.037
G1 F900 X148.548 Y133.475 E18.76793
G1 X148.359 Y133.973 E18.78122
G1 X148.296 Y134.5 E18.79446
G1 X148.359 Y135.027 E18.8077
G1 X148.548 Y135.525 E18.82099
G1 X148.849 Y135.962 E18.83422
G1 X149.249 Y136.315 E18.84753
G1 X149.719 Y136.561 E18.86076
G1 X150.234 Y136.688 E18.874
G1 X150.766 Y136.688 E18.88727
G1 X151.281 Y136.561 E18.9005
G1 X151.751 Y136.315 E18.91373
G1 X152.151 Y135.962 E18.92704
G1 X152.452 Y135.525 E18.94027
G1 X152.641 Y135.027 E18.95356
G1 X152.704 Y134.5 E18.9668
G1 X152.641 Y133.973 E18.98004
G1 X152.452 Y133.475 E18.99333
G1 X152.151 Y133.038 E19.00657
G1 X151.751 Y132.685 E19.01987
G1 X151.281 Y132.439 E19.03311
G1 X150.766 Y132.312 E19.04634
G1 X150.234 Y132.312 E19.05961
G1 X149.72 Y132.439 E19.07282
G1 X149.255 Y132.681 E19.08589
G1 X148.85 Y133.037 E19.09934
G0 F3600 X148.776 Y132.971
G0 X148.321 Y133.964
G0 X148.776 Y163.971
G0 X148.85 Y164.037
G1 F900 X148.548 Y164.475 E19.11261
G1 X148.359 Y164.973 E19.1259
G1 X148.296 Y165.5 E19.13914
G1 X148.359 Y166.027 E19.15238
G1 X148.548 Y166.525 E19.16567
G1 X148.849 Y166.962 E19.17891
G1 X149.249 Y167.315 E19.19221
G1 X149.719 Y167.561 E19.20545
G1 X150.234 Y167.688 E19.21868
G1 X150.766 Y167.688 E19.23195
G1 X151.281 Y167.561 E19.24518
G1 X151.751 Y167.315 E19.25841
G1 X152.151 Y166.962 E19.27172
G1 X152.452 Y166.525 E19.28496
G1 X152.641 Y166.027 E19.29824
G1 X152.704 Y165.5 E19.31148
G1 X152.641 Y164.973 E19.32472
G1 X152.452 Y164.475 E19.33801
G1 X152.151 Y164.038 E19.35125
G1 X151.751 Y163.685 E19.36456
G1 X151.281 Y163.439 E19.37779
G1 X150.766 Y163.312 E19.39102
G1 X150.234 Y163.312 E19.40429
G1 X149.72 Y163.439 E19.4175
G1 X149.255 Y163.681 E19.43058
G1 X148.85 Y164.037 E19.44403
G0 F3600 X148.776 Y163.971
G0 X133.885 Y161.685
G0 X131.754 Y161.281
G0 X129.738 Y160.493
G0 X127.899 Y159.347
G0 X126.301 Y157.883
G0 X125.001 Y156.15
G0 X124.138 Y154.404
G0 X123.394 Y152.135
G0 X123.492 Y152.117
G1 F900 X124.079 Y154.195 E19.49789
G1 X125.035 Y156.13 E19.55173
G1 X126.33 Y157.857 E19.60558
G1 X127.923 Y159.316 E19.65946
G1 X129.755 Y160.458 E19.71331
G1 X131.765 Y161.243 E19.76714
G1 X133.888 Y161.646 E19.82104
G1 X136.046 Y161.653 E19.87488
G1 X138.17 Y161.263 E19.92875
G1 X140.185 Y160.488 E19.9826
G1 X142.024 Y159.357 E20.03645
G1 X143.623 Y157.907 E20.0903
G1 X144.928 Y156.187 E20.14416
G1 X145.896 Y154.257 E20.19802
G1 X146.494 Y152.183 E20.25186
G1 X146.699 Y150.034 E20.30571
G1 X146.508 Y147.883 E20.35958
G1 X145.921 Y145.805 E20.41344
G1 X144.965 Y143.87 E20.46728
G1 X143.67 Y142.143 E20.52113
G1 X142.077 Y140.684 E20.57501
G1 X140.245 Y139.542 E20.62887
G1 X138.235 Y138.757 E20.68269
G1 X136.112 Y138.354 E20.7366
G1 X133.954 Y138.347 E20.79043
G1 X131.83 Y138.737 E20.8443
G1 X129.815 Y139.512 E20.89815
G1 X127.976 Y140.643 E20.95201
G1 X126.377 Y142.093 E21.00585
G1 X125.072 Y143.813 E21.05971
G1 X124.104 Y145.743 E21.11357
G1 X123.506 Y147.817 E21.16741
G1 X123.301 Y149.966 E21.22126
G1 X123.492 Y152.117 E21.27513
G0 F3600 X123.394 Y152.135
G0 X117.776 Y163.971
G0 X117.85 Y164.037
G1 F900 X117.548 Y164.475 E21.2884
G1 X117.359 Y164.973 E21.30169
G1 X117.296 Y165.5 E21.31493
G1 X117.359 Y166.027 E21.32817
G1 X117.548 Y166.525 E21.34146
G1 X117.849 Y166.962 E21.35469
G1 X118.249 Y167.315 E21.368
G1 X118.719 Y167.561 E21.38124
G1 X119.234 Y167.688 E21.39447
G1 X119.766 Y167.688 E21.40774
G1 X120.281 Y167.561 E21.42097
G1 X120.751 Y167.315 E21.4342
G1 X121.151 Y166.962 E21.44751
G1 X121.452 Y166.525 E21.46075
G1 X121.641 Y166.027 E21.47403
G1 X121.704 Y165.5 E21.48727
G1 X121.641 Y164.973 E21.50051
G1 X121.452 Y164.475 E21.5138
G1 X121.151 Y164.038 E21.52704
G1 X120.751 Y163.685 E21.54035
G1 X120.281 Y163.439 E21.55358
G1 X119.766 Y163.312 E21.56681
G1 X119.234 Y163.312 E21.58008
G1 X118.72 Y163.439 E21.59329
G1 X118.255 Y163.681 E21.60636
G1 X117.85 Y164.037 E21.61982
G0 F3600 X117.776 Y163.971
G0 X117.256 Y134.5
G0 X117.776 Y132.971
G0 X117.85 Y133.037
G1 F900 X117.548 Y133.475 E21.63309
G1 X117.359 Y133.973 E21.64637
G1 X117.296 Y134.5 E21.65961
G1 X117.359 Y135.027 E21.67285
G1 X117.548 Y135.525 E21.68614
G1 X117.849 Y135.962 E21.69938
G1 X118.249 Y136.315 E21.71268
G1 X118.719 Y136.561 E21.72592
G1 X119.234 Y136.688 E21.73915
G1 X119.766 Y136.688 E21.75242
G1 X120.281 Y136.561 E21.76565
G1 X120.751 Y136.315 E21.77888
G1 X121.151 Y135.962 E21.79219
G1 X121.452 Y135.525 E21.80543
G1 X121.641 Y135.027 E21.81872
G1 X121.704 Y134.5 E21.83196
G1 X121.641 Y133.973 E21.8452
G1 X121.452 Y133.475 E21.85848
G1 X121.151 Y133.038 E21.87172
G1 X120.751 Y132.685 E21.88503
G1 X120.281 Y132.439 E21.89826
G1 X119.766 Y132.312 E21.91149
G1 X119.234 Y132.312 E21.92476
G1 X118.72 Y132.439 E21.93797
G1 X118.255 Y132.681 E21.95105
G1 X117.85 Y133.037 E21.9645
G0 F3600 X117.776 Y132.971
G0 X117.255 Y134.01
G0 X117.75 Y134.069
;TYPE:WALL-OUTER
G1 F900 X117.699 Y134.5 E21.97532
G1 X117.75 Y134.931 E21.98615
G1 X117.905 Y135.338 E21.99701
G1 X118.151 Y135.695 E22.00783
G1 X118.477 Y135.983 E22.01868
G1 X118.862 Y136.184 E22.02951
G1 X119.283 Y136.288 E22.04033
G1 X119.717 Y136.288 E22.05116
G1 X120.138 Y136.184 E22.06198
G1 X120.523 Y135.983 E22.07281
G1 X120.849 Y135.695 E22.08366
G1 X121.095 Y135.338 E22.09448
G1 X121.25 Y134.931 E22.10534
G1 X121.301 Y134.5 E22.11617
G1 X121.25 Y134.069 E22.12699
G1 X121.095 Y133.662 E22.13786
G1 X120.849 Y133.305 E22.14867
G1 X120.523 Y133.017 E22.15952
G1 X120.138 Y132.816 E22.17036
G1 X119.717 Y132.712 E22.18117
G1 X119.283 Y132.712 E22.192
G1 X118.862 Y132.816 E22.20282
G1 X118.483 Y133.013 E22.21347
G1 X118.151 Y133.305 E22.2245
G1 X117.905 Y133.662 E22.23532
G1 X117.75 Y134.069 E22.24618
G0 F3600 X117.727 Y134.267
G0 X117.231 Y134.208
G0 X123.406 Y152.179
G0 X123.887 Y152.044
G1 F900 X124.454 Y154.051 E22.29821
G1 X125.377 Y155.92 E22.3502
G1 X126.628 Y157.587 E22.40219
G1 X128.166 Y158.996 E22.45422
G1 X129.935 Y160.099 E22.50623
G1 X131.876 Y160.857 E22.55821
G1 X133.926 Y161.246 E22.61026
G1 X136.01 Y161.253 E22.66224
G1 X138.061 Y160.876 E22.71426
G1 X140.007 Y160.128 E22.76627
G1 X141.783 Y159.036 E22.81828
G1 X143.327 Y157.636 E22.87027
G1 X144.587 Y155.975 E22.92227
G1 X145.522 Y154.111 E22.97429
G1 X146.099 Y152.108 E23.02629
G1 X146.297 Y150.033 E23.07829
G1 X146.113 Y147.956 E23.1303
G1 X145.546 Y145.949 E23.18232
G1 X144.623 Y144.08 E23.23432
G1 X143.372 Y142.413 E23.28631
G1 X141.834 Y141.004 E23.33834
G1 X140.065 Y139.901 E23.39035
G1 X138.124 Y139.143 E23.44233
G1 X136.074 Y138.754 E23.49438
G1 X133.99 Y138.747 E23.54636
G1 X131.939 Y139.124 E23.59838
G1 X129.993 Y139.872 E23.65039
G1 X128.217 Y140.964 E23.70239
G1 X126.673 Y142.364 E23.75438
G1 X125.413 Y144.025 E23.80639
G1 X124.478 Y145.889 E23.85841
G1 X123.901 Y147.892 E23.91041
G1 X123.703 Y149.967 E23.9624
G1 X123.887 Y152.044 E24.01442
G0 F3600 X123.941 Y152.236
G0 X123.46 Y152.371
G0 X117.255 Y165.01
G0 X117.75 Y165.069
G1 F900 X117.699 Y165.5 E24.02524
G1 X117.75 Y165.931 E24.03607
G1 X117.905 Y166.338 E24.04693
G1 X118.151 Y166.695 E24.05775
G1 X118.477 Y166.983 E24.0686
G1 X118.862 Y167.184 E24.07943
G1 X119.283 Y167.288 E24.09025
G1 X119.717 Y167.288 E24.10108
G1 X120.138 Y167.184 E24.1119
G1 X120.523 Y166.983 E24.12273
G1 X120.849 Y166.695 E24.13358
G1 X121.095 Y166.338 E24.1444
G1 X121.25 Y165.931 E24.15526
G1 X121.301 Y165.5 E24.16609
G1 X121.25 Y165.069 E24.17691
G1 X121.095 Y164.662 E24.18778
G1 X120.849 Y164.305 E24.19859
G1 X120.523 Y164.017 E24.20944
G1 X120.138 Y163.816 E24.22028
G1 X119.717 Y163.712 E24.23109
G1 X119.283 Y163.712 E24.24192
G1 X118.862 Y163.816 E24.25274
G1 X118.483 Y164.013 E24.26339
G1 X118.151 Y164.305 E24.27442
G1 X117.905 Y164.662 E24.28524
G1 X117.75 Y165.069 E24.2961
G0 F3600 X117.727 Y165.267
G0 X117.231 Y165.208
G0 X117.513 Y164.457
G0 X118.233 Y163.648
G0 X119.23 Y163.273
G0 X148.255 Y165.01
G0 X148.75 Y165.069
G1 F900 X148.699 Y165.5 E24.30693
G1 X148.75 Y165.931 E24.31775
G1 X148.905 Y166.338 E24.32862
G1 X149.151 Y166.695 E24.33943
G1 X149.477 Y166.983 E24.35028
G1 X149.862 Y167.184 E24.36112
G1 X150.283 Y167.288 E24.37193
G1 X150.717 Y167.288 E24.38276
G1 X151.138 Y167.184 E24.39358
G1 X151.523 Y166.983 E24.40441
G1 X151.849 Y166.695 E24.41526
G1 X152.095 Y166.338 E24.42608
G1 X152.25 Y165.931 E24.43694
G1 X152.301 Y165.5 E24.44777
G1 X152.25 Y165.069 E24.45859
G1 X152.095 Y164.662 E24.46946
G1 X151.849 Y164.305 E24.48027
G1 X151.523 Y164.017 E24.49112
G1 X151.138 Y163.816 E24.50196
G1 X150.717 Y163.712 E24.51278
G1 X150.283 Y163.712 E24.5236
G1 X149.862 Y163.816 E24.53442
G1 X149.483 Y164.013 E24.54508
G1 X149.151 Y164.305 E24.5561
G1 X148.905 Y164.662 E24.56692
G1 X148.75 Y165.069 E24.57778
G0 F3600 X148.727 Y165.267
G0 X148.231 Y165.208
G0 X148.255 Y134.01
