;FLAVOR:Marlin
;TIME:17410
;Filament used: 15.3236m
;Layer height: 0.2
;MINX:83.749
;MINY:53.486
;MINZ:0.24
;MAXX:210.199
;MAXY:166.514
;MAXZ:25.29
;Generated with Cura_SteamEngine 4.4.1
M82 ;absolute extrusion mode
M201 X500.00 Y500.00 Z100.00 E5000.00 ;Setup machine max acceleration
M203 X500.00 Y500.00 Z10.00 E50.00 ;Setup machine max feedrate
M204 P500.00 R1000.00 T500.00 ;Setup Print/Retract/Travel acceleration
M205 X8.00 Y8.00 Z0.40 E5.00 ;Setup Jerk
M220 S100 ;Reset Feedrate
M221 S100 ;Reset Flowrate

G28 ;Home

G92 E0 ;Reset Extruder
M117 Getting the bed & Extruder up to temp!
M140 S60   ; Set Heat Bed temperature
M104 S220.0 ; Set Extruder temperature
M190 S60 ; Wait for Heat Bed temperature
M109 S220.0 ; Wait for Extruder temperature
M117 Bed & Extruder up to temp!

G1 Z2.0 F3000 ;Move Z Axis up
G1 X10.1 Y20 Z0.28 F5000.0 ;Move to start position
G1 X10.1 Y200.0 Z0.28 F1500.0 E15 ;Draw the first line
G1 X10.4 Y200.0 Z0.28 F5000.0 ;Move to side a little
G1 X10.4 Y20 Z0.28 F1500.0 E30 ;Draw the second line
G92 E0 ;Reset Extruder
G1 Z2.0 F3000 ;Move Z Axis up
G92 E0
G92 E0
G1 F1500 E-6.5
;LAYER_COUNT:121
;LAYER:-6
M107
G0 F9000 X91.274 Y55.914 Z0.24
;TYPE:SUPPORT-INTERFACE
G1 F1500 E0
G1 F1125 X91.308 Y55.863 E0.00489
G1 X91.523 Y55.577 E0.03345
G1 X91.708 Y55.377 E0.0552
G1 X91.836 Y55.259 E0.0691
G1 X91.946 Y55.165 E0.08065
G1 X92.292 Y54.921 E0.11444
G1 X92.676 Y54.734 E0.14854
G1 X93.032 Y54.625 E0.17826
G1 X93.104 Y54.61 E0.18413
G1 X93.45 Y54.561 E0.21202
G1 X93.541 Y54.555 E0.2193
G1 X93.702 Y54.55 E0.23216
G1 X206.261 Y54.55 E9.21711
G1 X206.48 Y54.559 E9.2346
G1 X206.624 Y54.571 E9.24614
G1 X207.044 Y54.645 E9.28018
G1 X207.39 Y54.761 E9.30931
G1 X207.439 Y54.783 E9.3136
G1 X207.771 Y54.959 E9.34359
G1 X207.822 Y54.993 E9.34849
G1 X208.108 Y55.208 E9.37705
G1 X208.308 Y55.393 E9.3988
G1 X208.426 Y55.521 E9.41269
G1 X208.52 Y55.631 E9.42424
G1 X208.764 Y55.977 E9.45804
G1 X208.951 Y56.361 E9.49213
G1 X209.06 Y56.716 E9.52178
G1 X209.075 Y56.789 E9.52772
G1 X209.124 Y57.135 E9.55562
G1 X209.135 Y57.375 E9.5748
G1 X209.135 Y162.576 E17.9724
G1 X209.127 Y162.787 E17.98925
G1 X209.114 Y162.939 E18.00143
G1 X209.043 Y163.352 E18.03488
G1 X208.924 Y163.705 E18.06462
G1 X208.902 Y163.754 E18.0689
G1 X208.726 Y164.086 E18.0989
G1 X208.692 Y164.137 E18.10379
G1 X208.482 Y164.417 E18.13173
G1 X208.296 Y164.619 E18.15365
G1 X208.177 Y164.729 E18.16658
G1 X208.047 Y164.84 E18.18023
G1 X207.708 Y165.079 E18.21334
G1 X207.324 Y165.266 E18.24743
G1 X206.968 Y165.375 E18.27715
G1 X206.896 Y165.39 E18.28302
G1 X206.55 Y165.439 E18.31092
G1 X206.459 Y165.445 E18.3182
G1 X206.298 Y165.45 E18.33106
G1 X93.739 Y165.45 E27.316
G1 X93.376 Y165.429 E27.34503
G1 X92.956 Y165.355 E27.37907
G1 X92.61 Y165.239 E27.4082
G1 X92.561 Y165.217 E27.41249
G1 X92.229 Y165.041 E27.44248
G1 X92.178 Y165.007 E27.44738
G1 X91.892 Y164.792 E27.47594
G1 X91.692 Y164.607 E27.49768
G1 X91.574 Y164.479 E27.51158
G1 X91.476 Y164.364 E27.52364
G1 X91.236 Y164.023 E27.55693
G1 X91.049 Y163.639 E27.59102
G1 X90.94 Y163.283 E27.62074
G1 X90.924 Y163.21 E27.62671
G1 X90.876 Y162.864 E27.65459
G1 X90.865 Y162.625 E27.67369
G1 X90.865 Y123.394 E30.80528
G1 X90.823 Y122.726 E30.8587
G1 X90.694 Y122.055 E30.91325
G1 X90.481 Y121.406 E30.96777
G1 X90.189 Y120.789 E31.02226
G1 X89.821 Y120.214 E31.07676
G1 X89.383 Y119.69 E31.13127
G1 X88.883 Y119.226 E31.18572
G1 X88.332 Y118.83 E31.23989
G1 X87.983 Y118.63 E31.27199
G1 X87.572 Y118.414 E31.30906
G1 X87.481 Y118.358 E31.31759
G1 X87.309 Y118.242 E31.33415
G1 X86.387 Y117.572 E31.42512
G1 X86.253 Y117.465 E31.43881
G1 X86.128 Y117.358 E31.45195
G1 X85.826 Y117.046 E31.48661
G1 X85.606 Y116.731 E31.51728
G1 X85.423 Y116.348 E31.55116
G1 X85.358 Y116.178 E31.56569
G1 X85.297 Y115.989 E31.58154
G1 X84.935 Y114.681 E31.68988
G1 X84.893 Y114.499 E31.70479
G1 X84.865 Y114.354 E31.71658
G1 X84.825 Y113.97 E31.7474
G1 X84.82 Y113.826 E31.7589
G1 X84.823 Y113.635 E31.77415
G1 X84.882 Y112.604 E31.85658
G1 X84.878 Y111.939 E31.90966
G1 X84.827 Y111.469 E31.9474
G1 X84.84 Y110.465 E32.02755
G1 X84.832 Y110.465 E32.02819
G1 X84.834 Y110.329 E32.03905
G1 X84.827 Y110.234 E32.04665
G1 X84.84 Y109.226 E32.12712
G1 X84.827 Y109.226 E32.12816
G1 X84.837 Y108.712 E32.1692
G1 X84.852 Y108.221 E32.20841
G1 X84.872 Y108.219 E32.21001
G1 X84.828 Y107.577 E32.26138
G1 X84.841 Y106.562 E32.34241
G1 X84.836 Y106.562 E32.34281
G1 X84.838 Y106.392 E32.35638
G1 X84.827 Y106.242 E32.36838
G1 X84.836 Y105.826 E32.4016
G1 X84.846 Y104.977 E32.46937
G1 X84.828 Y104.716 E32.49026
G1 X84.841 Y103.702 E32.57121
G1 X84.831 Y103.702 E32.572
G1 X84.832 Y103.593 E32.58071
G1 X84.827 Y103.527 E32.58599
G1 X84.84 Y102.327 E32.68178
G1 X84.828 Y102.15 E32.69595
G1 X84.841 Y101.135 E32.77697
G1 X84.828 Y101.135 E32.77801
G1 X84.836 Y100.432 E32.83413
G1 X84.813 Y99.844 E32.8811
G1 X84.813 Y98.789 E32.96532
G1 X84.821 Y98.579 E32.98209
G1 X84.835 Y98.41 E32.99563
G1 X84.891 Y98.064 E33.02361
G1 X84.924 Y97.931 E33.03455
G1 X84.975 Y97.751 E33.04948
G1 X85.324 Y96.678 E33.13955
G1 X85.388 Y96.502 E33.1545
G1 X85.453 Y96.347 E33.16792
G1 X85.654 Y95.967 E33.20223
G1 X85.867 Y95.682 E33.23063
G1 X85.922 Y95.619 E33.23731
G1 X86.168 Y95.38 E33.26469
G1 X86.233 Y95.325 E33.27148
G1 X86.403 Y95.192 E33.28871
G1 X87.302 Y94.538 E33.37746
G1 X87.473 Y94.424 E33.39386
G1 X87.601 Y94.346 E33.40583
G1 X87.891 Y94.201 E33.43171
G1 X88.47 Y93.864 E33.48518
G1 X89.012 Y93.449 E33.53967
G1 X89.498 Y92.969 E33.5942
G1 X89.92 Y92.432 E33.64872
G1 X90.269 Y91.845 E33.70323
G1 X90.542 Y91.219 E33.75775
G1 X90.734 Y90.564 E33.81223
G1 X90.84 Y89.893 E33.86646
G1 X90.865 Y89.387 E33.9069
G1 X90.865 Y57.424 E36.45832
G1 X90.873 Y57.213 E36.47518
G1 X90.886 Y57.061 E36.48736
G1 X90.96 Y56.641 E36.5214
G1 X91.076 Y56.295 E36.55053
G1 X91.098 Y56.246 E36.55482
G1 X91.274 Y55.914 E36.58481
G0 F9000 X91.2 Y56.053
G1 F1125 X91.2 Y163.949 E45.19754
G0 F9000 X92.8 Y165.302
G1 F1125 X92.8 Y54.696 E54.02659
G0 F9000 X94.4 Y54.55
G1 F1125 X94.4 Y165.45 E62.8791
G0 F9000 X96 Y165.45
G1 F1125 X96 Y54.55 E71.73162
G0 F9000 X97.6 Y54.55
G1 F1125 X97.6 Y165.45 E80.58414
G0 F9000 X99.2 Y165.45
G1 F1125 X99.2 Y54.55 E89.43666
G0 F9000 X100.8 Y54.55
G1 F1125 X100.8 Y165.45 E98.28917
G0 F9000 X102.4 Y165.45
G1 F1125 X102.4 Y54.55 E107.14169
G0 F9000 X104 Y54.55
G1 F1125 X104 Y165.45 E115.99421
G0 F9000 X105.6 Y165.45
G1 F1125 X105.6 Y54.55 E124.84673
G0 F9000 X107.2 Y54.55
G1 F1125 X107.2 Y165.45 E133.69924
G0 F9000 X108.8 Y165.45
G1 F1125 X108.8 Y54.55 E142.55176
G0 F9000 X110.4 Y54.55
G1 F1125 X110.4 Y165.45 E151.40428
G0 F9000 X112 Y165.45
G1 F1125 X112 Y54.55 E160.2568
G0 F9000 X113.6 Y54.55
G1 F1125 X113.6 Y165.45 E169.10931
G0 F9000 X115.2 Y165.45
G1 F1125 X115.2 Y54.55 E177.96183
G0 F9000 X116.8 Y54.55
G1 F1125 X116.8 Y165.45 E186.81435
G0 F9000 X118.4 Y165.45
G1 F1125 X118.4 Y54.55 E195.66687
G0 F9000 X120 Y54.55
G1 F1125 X120 Y165.45 E204.51938
G0 F9000 X121.6 Y165.45
G1 F1125 X121.6 Y54.55 E213.3719
G0 F9000 X123.2 Y54.55
G1 F1125 X123.2 Y165.45 E222.22442
G0 F9000 X124.8 Y165.45
G1 F1125 X124.8 Y54.55 E231.07694
G0 F9000 X126.4 Y54.55
G1 F1125 X126.4 Y165.45 E239.92945
G0 F9000 X128 Y165.45
G1 F1125 X128 Y54.55 E248.78197
G0 F9000 X129.6 Y54.55
G1 F1125 X129.6 Y165.45 E257.63449
G0 F9000 X131.2 Y165.45
G1 F1125 X131.2 Y54.55 E266.48701
G0 F9000 X132.8 Y54.55
G1 F1125 X132.8 Y165.45 E275.33952
G0 F9000 X134.4 Y165.45
G1 F1125 X134.4 Y54.55 E284.19204
G0 F9000 X136 Y54.55
G1 F1125 X136 Y165.45 E293.04456
G0 F9000 X137.6 Y165.45
G1 F1125 X137.6 Y54.55 E301.89708
G0 F9000 X139.2 Y54.55
G1 F1125 X139.2 Y165.45 E310.74959
G0 F9000 X140.8 Y165.45
G1 F1125 X140.8 Y54.55 E319.60211
G0 F9000 X142.4 Y54.55
G1 F1125 X142.4 Y165.45 E328.45463
G0 F9000 X144 Y165.45
G1 F1125 X144 Y54.55 E337.30715
G0 F9000 X145.6 Y54.55
G1 F1125 X145.6 Y165.45 E346.15966
G0 F9000 X147.2 Y165.45
G1 F1125 X147.2 Y54.55 E355.01218
G0 F9000 X148.8 Y54.55
G1 F1125 X148.8 Y165.45 E363.8647
G0 F9000 X150.4 Y165.45
G1 F1125 X150.4 Y54.55 E372.71722
G0 F9000 X152 Y54.55
G1 F1125 X152 Y165.45 E381.56974
G0 F9000 X153.6 Y165.45
G1 F1125 X153.6 Y54.55 E390.42225
G0 F9000 X155.2 Y54.55
G1 F1125 X155.2 Y165.45 E399.27477
G0 F9000 X156.8 Y165.45
G1 F1125 X156.8 Y54.55 E408.12729
G0 F9000 X158.4 Y54.55
G1 F1125 X158.4 Y165.45 E416.97981
G0 F9000 X160 Y165.45
G1 F1125 X160 Y54.55 E425.83232
G0 F9000 X161.6 Y54.55
G1 F1125 X161.6 Y165.45 E434.68484
G0 F9000 X163.2 Y165.45
G1 F1125 X163.2 Y54.55 E443.53736
G0 F9000 X164.8 Y54.55
G1 F1125 X164.8 Y165.45 E452.38988
G0 F9000 X166.4 Y165.45
G1 F1125 X166.4 Y54.55 E461.24239
G0 F9000 X168 Y54.55
G1 F1125 X168 Y165.45 E470.09491
G0 F9000 X169.6 Y165.45
G1 F1125 X169.6 Y54.55 E478.94743
G0 F9000 X171.2 Y54.55
G1 F1125 X171.2 Y165.45 E487.79995
G0 F9000 X172.8 Y165.45
G1 F1125 X172.8 Y54.55 E496.65246
G0 F9000 X174.4 Y54.55
G1 F1125 X174.4 Y165.45 E505.50498
G0 F9000 X176 Y165.45
G1 F1125 X176 Y54.55 E514.3575
G0 F9000 X177.6 Y54.55
G1 F1125 X177.6 Y165.45 E523.21002
G0 F9000 X179.2 Y165.45
G1 F1125 X179.2 Y54.55 E532.06253
G0 F9000 X180.8 Y54.55
G1 F1125 X180.8 Y165.45 E540.91505
G0 F9000 X182.4 Y165.45
G1 F1125 X182.4 Y54.55 E549.76757
G0 F9000 X184 Y54.55
G1 F1125 X184 Y165.45 E558.62009
G0 F9000 X185.6 Y165.45
G1 F1125 X185.6 Y54.55 E567.4726
G0 F9000 X187.2 Y54.55
G1 F1125 X187.2 Y165.45 E576.32512
G0 F9000 X188.8 Y165.45
G1 F1125 X188.8 Y54.55 E585.17764
G0 F9000 X190.4 Y54.55
G1 F1125 X190.4 Y165.45 E594.03016
G0 F9000 X192 Y165.45
G1 F1125 X192 Y54.55 E602.88267
G0 F9000 X193.6 Y54.55
G1 F1125 X193.6 Y165.45 E611.73519
G0 F9000 X195.2 Y165.45
G1 F1125 X195.2 Y54.55 E620.58771
G0 F9000 X196.8 Y54.55
G1 F1125 X196.8 Y165.45 E629.44023
G0 F9000 X198.4 Y165.45
G1 F1125 X198.4 Y54.55 E638.29274
G0 F9000 X200 Y54.55
G1 F1125 X200 Y165.45 E647.14526
G0 F9000 X201.6 Y165.45
G1 F1125 X201.6 Y54.55 E655.99778
G0 F9000 X203.2 Y54.55
G1 F1125 X203.2 Y165.45 E664.8503
G0 F9000 X204.8 Y165.45
G1 F1125 X204.8 Y54.55 E673.70281
G0 F9000 X206.4 Y54.556
G1 F1125 X206.4 Y165.447 E682.55461
G0 F9000 X208 Y164.874
G1 F1125 X208 Y55.127 E691.31509
G1 F1500 E684.81509
G0 F9000 X208.315 Y54.043
G0 X207.343 Y53.622
G0 X206.289 Y53.486
G0 X93.34 Y53.502
G0 X92.328 Y53.728
G0 X91.678 Y54.049
G0 X90.813 Y54.773
G0 X90.358 Y55.37
G0 X89.937 Y56.342
G0 X89.828 Y57.195
G0 X89.041 Y91.827
G0 X89.6 Y92.839
G1 F1500 E691.31509
G1 F1125 X89.6 Y119.949 E693.47913
G0 F9000 X88 Y118.639
G1 F1125 X88 Y94.137 E695.43499
G0 F9000 X86.4 Y95.194
M104 S220
G1 F1125 X86.4 Y117.581 E697.22201
G0 F300 X86.4 Y117.581 Z0.54
G0 F9000 X88.03 Y118.542
;TIME_ELAPSED:481.501321
;LAYER:-5
M140 S60
;TYPE:SUPPORT
G1 F1125 X88.386 Y118.745 E697.27313
G1 X88.945 Y119.147 E697.35901
G1 X89.455 Y119.62 E697.44576
G1 X89.901 Y120.154 E697.53254
G1 X90.275 Y120.739 E697.61914
G1 X90.35 Y120.897 E697.64096
G1 X134.802 Y165.349 E705.48178
G1 X133.105 Y165.349 E705.69344
G1 X90.952 Y123.196 E713.12874
G1 X90.965 Y123.39 E713.15299
G1 X90.965 Y124.906 E713.34208
G1 X131.408 Y165.349 E720.47576
G1 X129.71 Y165.349 E720.68754
G1 X90.965 Y126.603 E727.5218
G1 X90.965 Y128.3 E727.73346
G1 X128.013 Y165.349 E734.26839
G1 X126.316 Y165.349 E734.48005
G1 X90.965 Y129.997 E740.71565
G1 X90.965 Y131.694 E740.92731
G1 X124.619 Y165.349 E746.86357
G1 X122.922 Y165.349 E747.07523
G1 X90.965 Y133.391 E752.71217
G1 X90.965 Y135.088 E752.92383
G1 X121.225 Y165.349 E758.26143
G1 X119.528 Y165.349 E758.47309
G1 X90.965 Y136.785 E763.51136
G1 X90.965 Y138.482 E763.72302
G1 X117.831 Y165.349 E768.46196
G1 X116.134 Y165.349 E768.67362
G1 X90.965 Y140.179 E773.11323
G1 X90.965 Y141.876 E773.32489
G1 X114.437 Y165.349 E777.46517
G1 X112.74 Y165.349 E777.67683
G1 X90.965 Y143.573 E781.51778
G1 X90.965 Y145.27 E781.72944
G1 X111.043 Y165.349 E785.27105
G1 X109.346 Y165.349 E785.48271
G1 X90.965 Y146.967 E788.725
G1 X90.965 Y148.664 E788.93666
G1 X107.649 Y165.349 E791.87961
G1 X105.952 Y165.349 E792.09127
G1 X90.965 Y150.362 E794.73481
G1 X90.965 Y152.059 E794.94647
G1 X104.255 Y165.349 E797.29067
G1 X102.558 Y165.349 E797.50233
G1 X90.965 Y153.756 E799.5472
G1 X90.965 Y155.453 E799.75886
G1 X100.861 Y165.349 E801.5044
G1 X99.163 Y165.349 E801.71618
G1 X90.965 Y157.15 E803.1623
G1 X90.965 Y158.847 E803.37396
G1 X97.466 Y165.349 E804.52075
G1 X95.769 Y165.349 E804.73241
G1 X90.965 Y160.544 E805.57987
G1 X90.965 Y162.241 E805.79153
G1 X94.072 Y165.349 E806.33966
G1 X93.743 Y165.349 E806.38069
G1 X93.387 Y165.33 E806.42516
G1 X93.036 Y165.272 E806.46953
G1 X92.985 Y165.258 E806.47613
G1 X92.616 Y165.131 E806.5248
G1 X92.237 Y164.924 E806.57866
G1 X91.953 Y164.713 E806.62279
G1 X91.762 Y164.535 E806.65535
G1 X91.648 Y164.41 E806.67645
G1 X91.546 Y164.291 E806.696
G1 X91.322 Y163.97 E806.74482
G1 X91.143 Y163.6 E806.79609
G1 X91.037 Y163.256 E806.84099
G1 X91.022 Y163.188 E806.84967
G1 X90.975 Y162.857 E806.89137
G1 X90.965 Y162.624 E806.92046
G1 F1500 E800.42046
G0 F9000 X89.8 Y162.624
G0 X84.445 Y116.771
G0 X85.392 Y115.959
G1 F1500 E806.92046
G1 F1125 X85.453 Y116.15 E806.94547
G1 X85.513 Y116.308 E806.96655
G1 X85.688 Y116.671 E807.01681
G1 X85.909 Y116.987 E807.0649
G1 X86.194 Y117.283 E807.11615
G1 X86.304 Y117.376 E807.13412
G1 X86.462 Y117.502 E807.15932
G1 X87.365 Y118.158 E807.29853
G1 X87.536 Y118.274 E807.32431
G1 X87.619 Y118.326 E807.33652
G1 X87.955 Y118.502 E807.38383
G1 X85.384 Y115.931 E807.83733
G1 X85.031 Y114.654 E808.00257
G1 X84.992 Y114.489 E808.02372
G1 X84.963 Y114.334 E808.04339
G1 X84.925 Y113.969 E808.08916
G1 X84.919 Y113.805 E808.10963
G1 X84.92 Y113.77 E808.114
G1 X136.499 Y165.349 E817.21194
G1 X138.196 Y165.349 E817.4236
G1 X84.978 Y112.131 E826.81064
G1 X84.977 Y111.932 E826.83546
G1 X84.927 Y111.461 E826.89454
G1 X84.941 Y110.397 E827.02726
G1 X139.893 Y165.349 E836.72016
G1 X141.59 Y165.349 E836.93182
G1 X84.939 Y108.697 E846.92449
G1 X84.95 Y108.31 E846.97278
G1 X84.978 Y108.307 E846.97629
G1 X84.927 Y107.57 E847.06843
G1 X84.934 Y106.996 E847.14003
G1 X143.287 Y165.349 E857.43283
G1 X144.984 Y165.349 E857.64449
G1 X84.941 Y105.306 E868.23538
G1 X84.946 Y104.972 E868.27705
G1 X84.928 Y104.71 E868.3098
G1 X84.941 Y103.608 E868.44726
G1 X146.681 Y165.349 E879.33757
G1 X148.378 Y165.349 E879.54923
G1 X84.93 Y101.901 E890.74073
G1 X84.941 Y101.034 E890.84888
G1 X84.929 Y101.034 E890.85037
G1 X84.936 Y100.428 E890.92596
G1 X84.927 Y100.2 E890.95442
G1 X150.075 Y165.349 E902.44587
G1 X151.772 Y165.349 E902.65753
G1 X84.926 Y98.502 E914.44848
G1 X84.933 Y98.433 E914.45713
G1 X84.988 Y98.081 E914.50157
G1 X85.019 Y97.956 E914.51763
G1 X85.07 Y97.777 E914.54084
G1 X85.274 Y97.153 E914.62273
G1 X153.469 Y165.349 E926.65163
G1 X155.166 Y165.349 E926.86329
G1 X85.779 Y95.962 E939.10236
G1 X85.946 Y95.742 E939.13681
G1 X85.996 Y95.685 E939.14626
G1 X86.225 Y95.462 E939.18613
G1 X86.308 Y95.392 E939.19967
G1 X86.465 Y95.269 E939.22455
G1 X86.65 Y95.135 E939.25304
G1 X156.863 Y165.349 E951.63789
G1 X158.56 Y165.349 E951.84955
G1 X87.648 Y94.436 E964.3577
G1 X87.657 Y94.429 E964.35913
G1 X87.938 Y94.288 E964.39834
G1 X88.525 Y93.946 E964.48307
G1 X88.712 Y93.804 E964.51236
G1 X160.257 Y165.349 E977.13207
G1 X161.955 Y165.349 E977.34386
G1 X89.602 Y92.996 E990.10609
G1 X90.001 Y92.486 E990.18686
G1 X90.296 Y91.993 E990.25852
G1 X163.652 Y165.349 E1003.19767
G1 X165.349 Y165.349 E1003.40933
G1 X90.774 Y90.774 E1016.5635
G1 X90.83 Y90.586 E1016.58797
G1 X90.939 Y89.902 E1016.67436
G1 X90.964 Y89.388 E1016.73854
G1 X90.964 Y89.267 E1016.75363
G1 X167.046 Y165.349 E1030.17362
G1 X168.743 Y165.349 E1030.38528
G1 X90.964 Y87.57 E1044.1046
G1 X90.964 Y85.873 E1044.31626
G1 X170.44 Y165.349 E1058.33492
G1 X172.137 Y165.349 E1058.54658
G1 X90.964 Y84.176 E1072.86456
G1 X90.964 Y82.479 E1073.07622
G1 X173.834 Y165.349 E1087.69353
G1 X175.531 Y165.349 E1087.90519
G1 X90.964 Y80.782 E1102.82184
G1 X90.964 Y79.084 E1103.03362
G1 X177.228 Y165.349 E1118.24969
G1 X178.925 Y165.349 E1118.46135
G1 X90.964 Y77.387 E1133.97675
G1 X90.964 Y75.69 E1134.18841
G1 X180.622 Y165.349 E1150.00313
G1 X182.319 Y165.349 E1150.21479
