;FLAVOR:Marlin
;TIME:2290
;Filament used: 1.80979m
;Layer height: 0.2
;MINX:131.61
;MINY:91.609
;MINZ:0.24
;MAXX:168.721
;MAXY:128.759
;MAXZ:46.09
;Generated with Cura_SteamEngine 4.4.1
M82 ;absolute extrusion mode
M201 X500.00 Y500.00 Z100.00 E5000.00 ;Setup machine max acceleration
M203 X500.00 Y500.00 Z10.00 E50.00 ;Setup machine max feedrate
M204 P500.00 R1000.00 T500.00 ;Setup Print/Retract/Travel acceleration
M205 X8.00 Y8.00 Z0.40 E5.00 ;Setup Jerk
M220 S100 ;Reset Feedrate
M221 S100 ;Reset Flowrate

G28 ;Home

G92 E0 ;Reset Extruder
M117 Getting the bed & Extruder up to temp!
M140 S60   ; Set Heat Bed temperature
M104 S220.0 ; Set Extruder temperature
M190 S60 ; Wait for Heat Bed temperature
M109 S220.0 ; Wait for Extruder temperature
M117 Bed & Extruder up to temp!

G1 Z2.0 F3000 ;Move Z Axis up
G1 X10.1 Y20 Z0.28 F5000.0 ;Move to start position
G1 X10.1 Y200.0 Z0.28 F1500.0 E15 ;Draw the first line
G1 X10.4 Y200.0 Z0.28 F5000.0 ;Move to side a little
G1 X10.4 Y20 Z0.28 F1500.0 E30 ;Draw the second line
G92 E0 ;Reset Extruder
G1 Z2.0 F3000 ;Move Z Axis up
G92 E0
G92 E0
G1 F2700 E-5
;LAYER_COUNT:225
;LAYER:-6
M107
G0 F9000 X136.12 Y99.019 Z0.24
;TYPE:SUPPORT-INTERFACE
G1 F2700 E0
G1 F1125 X136.239 Y98.864 E0.0156
G1 X136.665 Y98.358 E0.0684
G1 X136.775 Y98.238 E0.08139
G1 X138.24 Y96.776 E0.24661
G1 X138.364 Y96.662 E0.26005
G1 X138.865 Y96.243 E0.31219
G1 X139.03 Y96.117 E0.32876
G1 X140.696 Y94.951 E0.49108
G1 X140.858 Y94.848 E0.5064
G1 X141.406 Y94.53 E0.55698
G1 X141.582 Y94.439 E0.5728
G1 X143.441 Y93.57 E0.7366
G1 X143.607 Y93.5 E0.75098
G1 X144.165 Y93.294 E0.79846
G1 X144.478 Y93.199 E0.82457
G1 X146.371 Y92.69 E0.98105
G1 X146.581 Y92.643 E0.99823
G1 X147.103 Y92.546 E1.04061
G1 X147.404 Y92.506 E1.06485
G1 X149.577 Y92.318 E1.23895
G1 X150.236 Y92.308 E1.29156
G1 X150.539 Y92.328 E1.3158
G1 X152.672 Y92.52 E1.48676
G1 X153.307 Y92.624 E1.53812
G1 X153.553 Y92.683 E1.55831
G1 X155.644 Y93.245 E1.73115
G1 X156.164 Y93.42 E1.77495
G1 X156.492 Y93.561 E1.80344
G1 X158.452 Y94.477 E1.97614
G1 X158.929 Y94.737 E2.01951
G1 X159.272 Y94.959 E2.05212
G1 X160.992 Y96.165 E2.21981
G1 X161.326 Y96.421 E2.2534
G1 X161.728 Y96.788 E2.29685
G1 X163.224 Y98.284 E2.46573
G1 X163.464 Y98.542 E2.49386
G1 X163.538 Y98.631 E2.5031
G1 X163.847 Y99.034 E2.54363
G1 X165.058 Y100.763 E2.71214
G1 X165.211 Y100.998 E2.73452
G1 X165.29 Y101.136 E2.74721
G1 X165.541 Y101.613 E2.79024
G1 X166.41 Y103.483 E2.95484
G1 X166.499 Y103.698 E2.97342
G1 X166.704 Y104.263 E3.02139
G1 X166.766 Y104.459 E3.0378
G1 X167.299 Y106.461 E3.20318
G1 X167.333 Y106.616 E3.21585
G1 X167.447 Y107.268 E3.26868
G1 X167.471 Y107.444 E3.28286
G1 X167.649 Y109.476 E3.44568
G1 X167.657 Y109.676 E3.46166
G1 X167.659 Y110.295 E3.51107
G1 X167.641 Y110.609 E3.53618
G1 X167.472 Y112.543 E3.69115
G1 X167.446 Y112.748 E3.70764
G1 X167.346 Y113.335 E3.75518
G1 X167.294 Y113.57 E3.77439
G1 X166.767 Y115.543 E3.9374
G1 X166.711 Y115.723 E3.95245
G1 X166.52 Y116.265 E3.99832
G1 X166.416 Y116.513 E4.01979
G1 X165.476 Y118.52 E4.1967
G1 X165.147 Y119.104 E4.2502
G1 X165.04 Y119.263 E4.2655
G1 X163.87 Y120.935 E4.4284
G1 X163.754 Y121.091 E4.44392
G1 X163.384 Y121.546 E4.49073
G1 X163.193 Y121.747 E4.51286
G1 X161.634 Y123.304 E4.68875
G1 X161.222 Y123.662 E4.73231
G1 X160.948 Y123.866 E4.75958
G1 X159.184 Y125.101 E4.93147
G1 X158.725 Y125.383 E4.97447
G1 X158.368 Y125.565 E5.00646
G1 X156.431 Y126.467 E5.17702
G1 X156.054 Y126.622 E5.20956
G1 X155.937 Y126.662 E5.21943
G1 X155.559 Y126.78 E5.25104
G1 X153.517 Y127.329 E5.41983
G1 X153.042 Y127.429 E5.45858
G1 X152.549 Y127.496 E5.49829
G1 X150.426 Y127.681 E5.6684
G1 X150.135 Y127.695 E5.69166
G1 X149.994 Y127.694 E5.70291
G1 X149.603 Y127.682 E5.73414
G1 X149.443 Y127.672 E5.74694
G1 X147.404 Y127.491 E5.91034
G1 X147.195 Y127.464 E5.92716
G1 X146.551 Y127.35 E5.97937
G1 X146.378 Y127.312 E5.99351
G1 X144.392 Y126.776 E6.15771
G1 X144.228 Y126.724 E6.17144
G1 X143.619 Y126.502 E6.22318
G1 X143.442 Y126.429 E6.23847
G1 X141.575 Y125.558 E6.40292
G1 X141.407 Y125.471 E6.41802
G1 X140.866 Y125.158 E6.46791
G1 X140.696 Y125.05 E6.48399
G1 X139.024 Y123.881 E6.64684
G1 X138.858 Y123.755 E6.66348
G1 X138.409 Y123.382 E6.71007
G1 X138.266 Y123.253 E6.72545
G1 X136.778 Y121.767 E6.89331
G1 X136.654 Y121.634 E6.90783
G1 X136.285 Y121.203 E6.95312
G1 X136.104 Y120.963 E6.97711
G1 X134.943 Y119.31 E7.13836
G1 X134.843 Y119.156 E7.15301
G1 X134.492 Y118.559 E7.2083
G1 X134.413 Y118.396 E7.22276
G1 X133.492 Y116.413 E7.39729
G1 X133.326 Y115.988 E7.43371
G1 X133.246 Y115.753 E7.45352
G1 X133.193 Y115.567 E7.46896
G1 X132.632 Y113.468 E7.64239
G1 X132.546 Y113.062 E7.67552
G1 X132.513 Y112.853 E7.69241
G1 X132.479 Y112.564 E7.71564
G1 X132.294 Y110.439 E7.88591
G1 X132.278 Y109.973 E7.92313
G1 X132.301 Y109.471 E7.96324
G1 X132.485 Y107.379 E8.13088
G1 X132.551 Y106.905 E8.16908
G1 X132.653 Y106.442 E8.20693
G1 X133.214 Y104.357 E8.37928
G1 X133.335 Y103.983 E8.41066
G1 X133.538 Y103.481 E8.45388
G1 X134.535 Y101.358 E8.64111
G1 X134.605 Y101.234 E8.65247
G1 X134.847 Y100.838 E8.68952
G1 X134.935 Y100.704 E8.70231
G1 X136.12 Y99.019 E8.86675
G1 F2700 E3.86675
G0 F9000 X135.249 Y98.407
G0 X145.965 Y107.386
G0 X145.096 Y106.768
G1 F2700 E8.86675
G1 F1125 X145.034 Y106.865 E8.87594
G1 X144.707 Y107.445 E8.92909
G1 X144.511 Y107.905 E8.969
G1 X144.244 Y108.818 E9.04493
G1 X144.221 Y108.936 E9.05453
G1 X144.135 Y109.594 E9.1075
G1 X144.123 Y110.051 E9.14399
G1 X144.165 Y110.713 E9.19694
G1 X144.243 Y111.175 E9.23435
G1 X144.504 Y112.078 E9.30938
G1 X144.547 Y112.188 E9.3188
G1 X144.828 Y112.791 E9.37191
G1 X145.086 Y113.22 E9.41187
G1 X145.481 Y113.754 E9.46489
G1 X145.811 Y114.112 E9.50376
G1 X146.507 Y114.714 E9.57721
G1 X146.607 Y114.786 E9.58705
G1 X147.17 Y115.139 E9.64009
G1 X147.615 Y115.356 E9.67961
G1 X148.514 Y115.668 E9.75557
G1 X148.629 Y115.696 E9.76502
G1 X149.283 Y115.815 E9.81808
G1 X149.747 Y115.849 E9.85522
G1 X150.412 Y115.84 E9.90831
G1 X150.906 Y115.779 E9.94804
G1 X151.828 Y115.552 E10.02384
G1 X151.939 Y115.514 E10.0332
G1 X152.551 Y115.258 E10.08616
G1 X152.955 Y115.037 E10.12292
G1 X153.735 Y114.485 E10.19919
G1 X153.827 Y114.406 E10.20887
G1 X154.305 Y113.943 E10.26199
G1 X154.625 Y113.556 E10.30208
G1 X155.142 Y112.75 E10.37852
G1 X155.2 Y112.638 E10.38858
G1 X155.468 Y112.029 E10.4417
G1 X155.611 Y111.585 E10.47893
G1 X155.756 Y110.936 E10.53201
G1 X155.809 Y110.476 E10.56898
G1 X155.807 Y109.507 E10.64633
G1 X155.795 Y109.386 E10.65603
G1 X155.618 Y108.443 E10.73262
G1 X155.584 Y108.325 E10.74242
G1 X155.36 Y107.7 E10.79542
G1 X155.14 Y107.246 E10.83569
G1 X154.618 Y106.436 E10.91261
G1 X154.548 Y106.346 E10.92172
G1 X154.106 Y105.85 E10.97475
G1 X153.765 Y105.54 E11.01153
G1 X153.236 Y105.138 E11.06457
G1 X152.85 Y104.902 E11.10069
G1 X152.255 Y104.607 E11.1537
G1 X151.829 Y104.448 E11.18999
G1 X150.915 Y104.222 E11.26515
G1 X150.8 Y104.205 E11.27443
G1 X150.137 Y104.147 E11.32756
G1 X149.731 Y104.151 E11.35997
G1 X149.625 Y104.156 E11.36844
G1 X148.666 Y104.296 E11.4458
G1 X148.539 Y104.327 E11.45624
G1 X147.614 Y104.645 E11.53431
G1 X147.51 Y104.692 E11.54343
G1 X146.923 Y105.004 E11.59649
G1 X146.518 Y105.279 E11.63557
G1 X145.778 Y105.922 E11.71382
G1 X145.693 Y106.011 E11.72364
G1 X145.096 Y106.768 E11.8006
G0 F9000 X145.6 Y106.129
G1 F1125 X145.6 Y92.897 E12.85684
G0 F9000 X147.2 Y92.533
G1 F1125 X147.2 Y104.857 E13.84059
G0 F9000 X148.8 Y104.277
G1 F1125 X148.8 Y92.385 E14.78986
G0 F9000 X150.4 Y92.319
G1 F1125 X150.4 Y104.17 E15.73586
G0 F9000 X152 Y104.511
G1 F1125 X152 Y92.46 E16.69782
G0 F9000 X153.6 Y92.696
G1 F1125 X153.6 Y105.414 E17.71303
G0 F9000 X155.2 Y107.369
G1 F1125 X155.2 Y93.126 E18.84997
G0 F9000 X156.8 Y93.705
G1 F1125 X156.8 Y126.296 E21.45152
G0 F9000 X155.2 Y126.877
G1 F1125 X155.2 Y112.638 E22.58814
G0 F9000 X153.6 Y114.58
G1 F1125 X153.6 Y127.307 E23.60407
G0 F9000 X152 Y127.544
G1 F1125 X152 Y115.488 E24.56643
G0 F9000 X150.4 Y115.84
G1 F1125 X150.4 Y127.683 E25.51179
G0 F9000 X148.8 Y127.614
G1 F1125 X148.8 Y115.728 E26.46058
G0 F9000 X147.2 Y115.154
G1 F1125 X147.2 Y127.464 E27.44322
G0 F9000 X145.6 Y127.102
G1 F1125 X145.6 Y113.884 E28.49833
G1 F2700 E23.49833
G0 F9000 X146.388 Y113.17
G0 X136.847 Y123.341
G0 X137.6 Y122.587
G1 F2700 E28.49833
G1 F1125 X137.6 Y97.414 E30.50775
G0 F9000 X139.2 Y95.998
G1 F1125 X139.2 Y124.004 E32.74331
G0 F9000 X140.8 Y125.116
G1 F1125 X140.8 Y94.884 E35.15656
G0 F9000 X142.4 Y94.056
G1 F1125 X142.4 Y125.942 E37.70184
G0 F9000 X144 Y126.64
G1 F1125 X144 Y93.354 E40.35887
G1 F2700 E35.35887
G0 F9000 X143.208 Y92.513
G0 X140.903 Y93.592
G0 X140.112 Y94.06
G0 X138.192 Y95.417
G0 X137.497 Y96.014
G0 X136.569 Y96.947
G0 X135.415 Y98.189
G0 X136 Y99.189
G1 F2700 E40.35887
G1 F1125 X136 Y120.814 E42.08507
G0 F9000 X134.4 Y118.368
G1 F1125 X134.4 Y101.645 E43.41998
G1 F2700 E38.41998
G0 F9000 X133.429 Y101.194
G0 X132.293 Y103.737
G0 X131.771 Y105.62
G0 X132.8 Y105.895
G1 F2700 E43.41998
G1 F1125 X132.8 Y114.096 E44.07461
G1 F2700 E39.07461
G0 F9000 X131.77 Y114.374
G0 X132.327 Y116.355
G0 X133.652 Y119.243
G0 X134.982 Y121.257
G0 X136.017 Y122.511
G0 X137.709 Y124.185
G0 X138.392 Y124.739
G0 X140.308 Y126.065
G0 X141.113 Y126.517
G0 X143.229 Y127.493
G0 X144.093 Y127.798
G0 X146.351 Y128.396
G0 X147.281 Y128.548
G0 X150.159 Y128.759
G0 X153.346 Y128.457
G0 X156.529 Y127.58
G0 X158.825 Y126.527
G0 X158.4 Y125.549
G1 F2700 E44.07461
G1 F1125 X158.4 Y94.453 E46.55683
G0 F9000 X160 Y95.47
G1 F1125 X160 Y124.53 E48.87653
G0 F9000 X161.6 Y123.334
G1 F1125 X161.6 Y96.672 E51.0048
G0 F9000 X163.2 Y98.26
G1 F1125 X163.2 Y121.74 E52.87908
G0 F9000 X164.8 Y119.606
G1 F1125 X164.8 Y100.395 E54.41258
G0 F9000 X166.4 Y103.462
M104 S220
G1 F1125 X166.4 Y116.548 E55.45716
G1 F2700 E50.45716
G0 F300 X166.4 Y116.548 Z0.54
G0 F9000 X167.365 Y116.996
G0 X166.157 Y119.489
G0 X164.736 Y121.554
G0 X163.78 Y120.886
;TIME_ELAPSED:49.474665
;LAYER:-5
M140 S60
;TYPE:SUPPORT
G1 F2700 E55.45716
G1 F1125 X164.287 Y120.163 E55.5673
G1 X155.71 Y111.587 E57.0801
G1 X155.853 Y110.953 E57.16116
G1 X155.908 Y110.479 E57.22068
G1 X155.907 Y110.086 E57.26969
G1 X164.984 Y119.164 E58.87086
G1 X165.062 Y119.049 E58.88819
G1 X165.387 Y118.472 E58.97079
G1 X165.453 Y118.344 E58.98875
G1 X165.583 Y118.065 E59.02714
G1 X155.603 Y108.085 E60.7875
G1 X155.451 Y107.66 E60.8438
G1 X155.226 Y107.195 E60.90823
G1 X154.699 Y106.378 E61.02949
G1 X154.624 Y106.282 E61.04468
G1 X154.176 Y105.78 E61.1286
G1 X153.827 Y105.462 E61.18749
G1 X153.292 Y105.056 E61.27126
G1 X152.896 Y104.814 E61.32914
G1 X152.294 Y104.515 E61.41298
G1 F2700 E56.41298
G0 F9000 X151.826 Y105.583
G0 X145.512 Y111.736
G0 X144.442 Y112.198
G1 F2700 E61.41298
G1 F1125 X144.408 Y112.11 E61.42475
G1 X144.144 Y111.197 E61.54328
G1 X144.065 Y110.723 E61.60322
G1 X144.024 Y110.083 E61.68321
G1 X134.895 Y100.954 E63.29346
G1 X135.015 Y100.762 E63.3217
G1 X135.587 Y99.948 E63.44578
G1 X144.211 Y108.573 E64.96705
G1 X144.415 Y107.872 E65.05811
G1 X144.617 Y107.399 E65.12226
G1 X144.659 Y107.324 E65.13298
G1 X136.292 Y98.956 E66.60891
G1 X136.328 Y98.91 E66.61619
G1 X136.732 Y98.431 E66.69435
G1 X136.844 Y98.308 E66.7151
G1 X137.093 Y98.06 E66.75893
G1 X145.335 Y106.302 E68.21273
G1 X145.617 Y105.944 E68.26957
G1 X145.708 Y105.848 E68.28606
G1 X146.173 Y105.443 E68.36298
G1 X137.943 Y97.213 E69.81465
G1 X138.295 Y96.861 E69.87674
G1 X138.433 Y96.732 E69.9003
G1 X138.829 Y96.403 E69.96452
G1 X147.179 Y104.752 E71.43727
G1 X147.464 Y104.601 E71.4775
G1 X147.576 Y104.552 E71.49275
G1 X148.394 Y104.27 E71.60067
G1 X139.814 Y95.69 E73.11408
G1 X140.767 Y95.023 E73.25916
G1 X140.814 Y94.994 E73.26605
G1 X149.869 Y104.049 E74.86325
G1 X150.14 Y104.047 E74.89705
G1 X150.811 Y104.105 E74.98105
G1 X150.934 Y104.123 E74.99656
G1 X151.856 Y104.351 E75.11502
G1 X151.876 Y104.359 E75.11771
G1 X141.912 Y94.395 E76.87524
G1 X143.069 Y93.854 E77.03454
G1 X166.122 Y116.907 E81.10083
G1 X166.324 Y116.47 E81.16088
G1 X166.426 Y116.227 E81.19375
G1 X166.612 Y115.701 E81.26333
G1 X144.276 Y93.364 E85.20323
G1 X144.498 Y93.297 E85.23216
G1 X145.608 Y92.999 E85.3755
G1 X166.976 Y114.367 E89.14457
G1 X167.196 Y113.543 E89.25095
G1 X167.244 Y113.328 E89.27842
G1 X167.301 Y112.995 E89.32056
G1 X146.977 Y92.672 E92.90539
G1 X147.131 Y92.643 E92.92494
G1 X147.405 Y92.606 E92.95942
G1 X148.513 Y92.51 E93.09814
G1 X167.465 Y111.462 E96.44105
G1 X167.54 Y110.599 E96.5491
G1 X167.558 Y110.29 E96.5877
G1 X167.557 Y109.857 E96.64171
G1 X150.11 Y92.41 E99.71916
G1 X150.228 Y92.408 E99.73388
G1 X150.531 Y92.428 E99.77175
G1 X151.953 Y92.556 E99.94983
G1 X167.42 Y108.023 E102.67803
G1 X167.371 Y107.466 E102.74777
G1 X167.344 Y107.265 E102.77306
G1 X167.233 Y106.633 E102.8531
G1 X167.196 Y106.464 E102.87468
G1 X167.065 Y105.971 E102.9383
G1 X154.002 Y92.908 E105.24246
G1 X155.615 Y93.34 E105.45073
G1 X156.136 Y93.516 E105.51932
G1 X156.437 Y93.646 E105.56022
G1 X166.321 Y103.53 E107.30364
G1 X166.317 Y103.52 E107.30499
G1 X165.455 Y101.669 E107.55966
G1 X165.195 Y101.172 E107.62962
G1 X165.132 Y101.062 E107.64543
G1 X164.972 Y100.817 E107.68193
G1 X164.195 Y99.707 E107.85092
G1 X160.267 Y95.779 E108.54377
G1 X160.934 Y96.247 E108.6454
G1 X161.313 Y96.542 E108.7053
G1 X161.657 Y96.859 E108.76365
G1 X163.15 Y98.352 E109.027
G1 X163.386 Y98.606 E109.07024
G1 X163.468 Y98.705 E109.08627
G1 X163.77 Y99.101 E109.14839
G1 F2700 E104.14839
G0 F9000 X164.724 Y98.432
G0 X166.218 Y100.615
G0 X167.489 Y103.305
G0 X167.791 Y104.17
G0 X168.379 Y106.42
G0 X168.528 Y107.327
G0 X168.721 Y109.643
G0 X168.701 Y110.702
G0 X168.5 Y112.895
G0 X168.197 Y114.281
G0 X167.723 Y116.051
G0 X167.382 Y116.959
G0 X166.157 Y119.489
G0 X164.736 Y121.554
G0 X163.78 Y120.886
G1 F2700 E109.14839
G1 F1125 X163.575 Y121.149 E109.18998
G1 X155.226 Y112.8 E110.66265
G1 X154.705 Y113.613 E110.78308
G1 X154.64 Y113.699 E110.79653
G1 X154.543 Y113.813 E110.8152
G1 X162.763 Y122.033 E112.26511
G1 X161.914 Y122.881 E112.41478
G1 X153.679 Y114.646 E113.86734
G1 X153.008 Y115.121 E113.96988
G1 X152.651 Y115.316 E114.02061
G1 X161.021 Y123.686 E115.49698
G1 X160.889 Y123.784 E115.51749
G1 X160.026 Y124.388 E115.64887
G1 X151.399 Y115.761 E117.17058
G1 X150.924 Y115.877 E117.23156
G1 X150.417 Y115.94 E117.29528
G1 X149.888 Y115.947 E117.36127
G1 X159.022 Y125.081 E118.9724
G1 X158.678 Y125.294 E119.02287
G1 X158.314 Y125.48 E119.07385
G1 X157.911 Y125.667 E119.12926
G1 X147.755 Y115.511 E120.92066
G0 F9000 X147.576 Y115.449
G1 F1125 X147.12 Y115.227 E120.98392
G1 X146.55 Y114.868 E121.06794
G1 X146.444 Y114.793 E121.08413
G1 X145.741 Y114.185 E121.20006
G1 X145.403 Y113.816 E121.26247
G1 X145.003 Y113.277 E121.34619
G1 X144.738 Y112.836 E121.41036
G1 X144.454 Y112.228 E121.49406
G1 X144.442 Y112.198 E121.49809
G1 X134.307 Y102.063 E123.28579
G1 X133.768 Y103.221 E123.4451
G1 X156.752 Y126.205 E127.49921
G1 X156.394 Y126.373 E127.54854
G1 X156.011 Y126.531 E127.60021
G1 X155.914 Y126.565 E127.61303
G1 X155.54 Y126.681 E127.66187
G1 X155.532 Y126.682 E127.66288
G1 X133.293 Y104.443 E131.58558
G1 X132.933 Y105.78 E131.75828
G1 X154.195 Y127.042 E135.50865
G1 X153.494 Y127.231 E135.5992
G1 X153.138 Y127.311 E135.64471
G1 X153.02 Y127.33 E135.65962
G1 X152.814 Y127.358 E135.68555
G1 X132.615 Y107.159 E139.24842
G1 X132.583 Y107.391 E139.27763
G1 X132.467 Y108.708 E139.44253
G1 X151.265 Y127.506 E142.75828
G1 X150.417 Y127.581 E142.86446
G1 X150.131 Y127.594 E142.90017
G1 X149.996 Y127.593 E142.91701
G1 X149.644 Y127.582 E142.96093
G1 X132.389 Y110.327 E146.00452
G1 X132.393 Y110.435 E146.018
G1 X132.545 Y112.181 E146.23659
G1 X147.788 Y127.424 E148.92528
G1 X147.41 Y127.39 E148.97262
G1 X147.199 Y127.364 E148.99913
G1 X146.587 Y127.255 E149.07667
G1 X146.4 Y127.214 E149.10055
G1 X145.689 Y127.021 E149.19243
G1 X132.952 Y114.284 E151.4391
G1 X133.288 Y115.539 E151.60114
G1 X133.362 Y115.793 E151.63414
G1 X133.589 Y116.386 E151.71333
G1 X133.79 Y116.819 E151.77287
G1 X143.158 Y126.187 E153.42528
G1 X141.631 Y125.475 E153.63542
G1 X141.46 Y125.387 E153.65941
G1 X140.909 Y125.067 E153.73888
