;FLAVOR:Marlin
;TIME:2468
;Filament used: 1.91248m
;Layer height: 0.2
;MINX:131.185
;MINY:90.556
;MINZ:0.24
;MAXX:168.761
;MAXY:128.116
;MAXZ:46.49
;Generated with Cura_SteamEngine 4.4.1
M82 ;absolute extrusion mode
M201 X500.00 Y500.00 Z100.00 E5000.00 ;Setup machine max acceleration
M203 X500.00 Y500.00 Z10.00 E50.00 ;Setup machine max feedrate
M204 P500.00 R1000.00 T500.00 ;Setup Print/Retract/Travel acceleration
M205 X8.00 Y8.00 Z0.40 E5.00 ;Setup Jerk
M220 S100 ;Reset Feedrate
M221 S100 ;Reset Flowrate

G28 ;Home

G92 E0 ;Reset Extruder
M117 Getting the bed & Extruder up to temp!
M140 S60   ; Set Heat Bed temperature
M104 S220.0 ; Set Extruder temperature
M190 S60 ; Wait for Heat Bed temperature
M109 S220.0 ; Wait for Extruder temperature
M117 Bed & Extruder up to temp!

G1 Z2.0 F3000 ;Move Z Axis up
G1 X10.1 Y20 Z0.28 F5000.0 ;Move to start position
G1 X10.1 Y200.0 Z0.28 F1500.0 E15 ;Draw the first line
G1 X10.4 Y200.0 Z0.28 F5000.0 ;Move to side a little
G1 X10.4 Y20 Z0.28 F1500.0 E30 ;Draw the second line
G92 E0 ;Reset Extruder
G1 Z2.0 F3000 ;Move Z Axis up
G92 E0
G92 E0
G1 F2700 E-5
;LAYER_COUNT:227
;LAYER:-6
M107
G0 F9000 X134.956 Y99.973 Z0.24
;TYPE:SUPPORT-INTERFACE
G1 F2700 E0
G1 F1125 X136.17 Y98.325 E0.16339
G1 X136.318 Y98.142 E0.18218
G1 X136.71 Y97.696 E0.22958
G1 X136.851 Y97.548 E0.24589
G1 X138.324 Y96.132 E0.40899
G1 X138.473 Y96.002 E0.42478
G1 X138.957 Y95.61 E0.47449
G1 X139.127 Y95.484 E0.49139
G1 X140.04 Y94.864 E0.57948
G1 X140.234 Y94.707 E0.5994
G1 X140.246 Y94.722 E0.60094
G1 X140.918 Y94.152 E0.67128
G1 X141.121 Y94.001 E0.69147
G1 X141.388 Y93.83 E0.71678
G1 X141.794 Y93.607 E0.75376
G1 X141.978 Y93.515 E0.77018
G1 X143.464 Y92.842 E0.90039
G1 X143.661 Y92.763 E0.91734
G1 X144.226 Y92.563 E0.96518
G1 X144.416 Y92.504 E0.98106
G1 X146.378 Y91.991 E1.14294
G1 X146.532 Y91.957 E1.15553
G1 X147.156 Y91.843 E1.20617
G1 X147.462 Y91.808 E1.23075
G1 X149.601 Y91.631 E1.40208
G1 X150.192 Y91.622 E1.44926
G1 X150.356 Y91.629 E1.46236
G1 X150.564 Y91.645 E1.47902
G1 X152.633 Y91.823 E1.64478
G1 X153.167 Y91.901 E1.68786
G1 X153.554 Y91.989 E1.71954
G1 X155.595 Y92.521 E1.88791
G1 X156.008 Y92.65 E1.92245
G1 X156.156 Y92.705 E1.93505
G1 X156.499 Y92.845 E1.96462
G1 X158.128 Y93.583 E2.10738
G1 X158.469 Y93.764 E2.13819
G1 X158.74 Y93.931 E2.1636
G1 X158.934 Y94.068 E2.18256
G1 X159.235 Y94.32 E2.2139
G1 X159.909 Y94.863 E2.28299
G1 X160.972 Y95.587 E2.38565
G1 X161.41 Y95.928 E2.42996
G1 X161.613 Y96.116 E2.45205
G1 X163.15 Y97.593 E2.62221
G1 X163.375 Y97.826 E2.64806
G1 X163.454 Y97.918 E2.65774
G1 X163.776 Y98.316 E2.69861
G1 X165.025 Y100.014 E2.86687
G1 X165.215 Y100.296 E2.89401
G1 X165.294 Y100.428 E2.90629
G1 X165.522 Y100.834 E2.94346
G1 X166.547 Y102.909 E3.1282
G1 X166.606 Y103.048 E3.14026
G1 X166.825 Y103.651 E3.19147
G1 X166.859 Y103.777 E3.20188
G1 X166.95 Y104.16 E3.23331
G1 X166.994 Y104.417 E3.25412
G1 X167.028 Y104.733 E3.27949
G1 X167.111 Y105.147 E3.3132
G1 X167.087 Y105.152 E3.31515
G1 X167.263 Y105.853 E3.37285
G1 X167.39 Y106.47 E3.42313
G1 X167.427 Y106.702 E3.44188
G1 X167.659 Y108.694 E3.60197
G1 X167.674 Y108.882 E3.61702
G1 X167.697 Y109.447 E3.66216
G1 X167.692 Y109.731 E3.68483
G1 X167.572 Y111.778 E3.84852
G1 X167.555 Y111.961 E3.86319
G1 X167.475 Y112.54 E3.90984
G1 X167.402 Y112.9 E3.93916
G1 X167.28 Y113.409 E3.98095
G1 X167.162 Y113.796 E4.01324
G1 X167.061 Y114.065 E4.03618
G1 X166.944 Y114.329 E4.05923
G1 X166.81 Y114.582 E4.08208
G1 X166.659 Y114.831 E4.10533
G1 X166.486 Y115.077 E4.12933
G1 X166.308 Y115.3 E4.15211
G1 X166.108 Y115.52 E4.17584
G1 X165.912 Y115.711 E4.19769
G1 X165.685 Y115.905 E4.22153
G1 X165.403 Y116.112 E4.24945
G1 X164.868 Y116.515 E4.30292
G1 X164.379 Y116.991 E4.35739
G1 X163.954 Y117.524 E4.41181
G1 X163.598 Y118.108 E4.4664
G1 X163.32 Y118.731 E4.52086
G1 X163.125 Y119.38 E4.57495
G1 X163.055 Y119.725 E4.60305
G1 X163.003 Y120.041 E4.62862
G1 X162.934 Y120.341 E4.65319
G1 X162.851 Y120.617 E4.6762
G1 X162.757 Y120.873 E4.69797
G1 X162.633 Y121.153 E4.72241
G1 X162.497 Y121.415 E4.74597
G1 X162.352 Y121.653 E4.76822
G1 X162.184 Y121.892 E4.79154
G1 X161.872 Y122.277 E4.8311
G1 X161.771 Y122.391 E4.84325
G1 X161.609 Y122.546 E4.86115
G1 X161.127 Y122.969 E4.91234
G1 X160.973 Y123.094 E4.92817
G1 X159.219 Y124.37 E5.10132
G1 X158.727 Y124.682 E5.14782
G1 X158.371 Y124.863 E5.1797
G1 X156.467 Y125.781 E5.34843
G1 X156.076 Y125.947 E5.38234
G1 X155.602 Y126.102 E5.42215
G1 X153.544 Y126.67 E5.59257
G1 X153.21 Y126.75 E5.61998
G1 X153.093 Y126.77 E5.62946
G1 X152.55 Y126.846 E5.67322
G1 X150.231 Y127.05 E5.85905
G1 X150.07 Y127.051 E5.8719
G1 X149.607 Y127.039 E5.90887
G1 X149.429 Y127.028 E5.92311
G1 X147.386 Y126.841 E6.08687
G1 X147.203 Y126.816 E6.10162
G1 X146.575 Y126.701 E6.15258
G1 X146.35 Y126.649 E6.17101
G1 X144.407 Y126.114 E6.33188
G1 X144.18 Y126.041 E6.35092
G1 X143.603 Y125.824 E6.40013
G1 X143.389 Y125.733 E6.41869
G1 X141.548 Y124.847 E6.58178
G1 X141.4 Y124.768 E6.59517
G1 X140.96 Y124.517 E6.63561
G1 X140.815 Y124.427 E6.64923
G1 X140.662 Y124.319 E6.66418
G1 X139.014 Y123.124 E6.82667
G1 X138.862 Y123.003 E6.84218
G1 X138.342 Y122.547 E6.89739
G1 X138.169 Y122.377 E6.91675
G1 X138.089 Y122.288 E6.9263
G1 X137.838 Y121.988 E6.95753
G1 X137.659 Y121.742 E6.98181
G1 X137.51 Y121.509 E7.00389
G1 X137.373 Y121.261 E7.0265
G1 X137.249 Y121.001 E7.0495
G1 X137.134 Y120.712 E7.07433
G1 X137.05 Y120.456 E7.09583
G1 X136.976 Y120.166 E7.11973
G1 X136.809 Y119.297 E7.19036
G1 X136.595 Y118.64 E7.24552
G1 X136.304 Y118.022 E7.30005
G1 X135.938 Y117.445 E7.35459
G1 X135.503 Y116.92 E7.40901
G1 X135.007 Y116.456 E7.46323
G1 X134.649 Y116.186 E7.49902
G1 X134.409 Y116.021 E7.52227
G1 X134.183 Y115.842 E7.54528
G1 X133.953 Y115.636 E7.56993
G1 X133.763 Y115.442 E7.59161
G1 X133.571 Y115.22 E7.61504
G1 X133.387 Y114.979 E7.63924
G1 X133.234 Y114.748 E7.66136
G1 X133.085 Y114.489 E7.68521
G1 X132.963 Y114.242 E7.7072
G1 X132.836 Y113.941 E7.73328
G1 X132.75 Y113.695 E7.75408
G1 X132.638 Y113.298 E7.78701
G1 X132.513 Y112.751 E7.8318
G1 X132.415 Y112.169 E7.87891
G1 X132.374 Y111.721 E7.91482
G1 X132.255 Y109.645 E8.08081
G1 X132.256 Y109.122 E8.12255
G1 X132.285 Y108.729 E8.15401
G1 X132.528 Y106.635 E8.32228
G1 X132.623 Y106.092 E8.36629
G1 X132.703 Y105.775 E8.39239
G1 X132.852 Y105.243 E8.43649
G1 X132.824 Y105.236 E8.43879
G1 X132.894 Y104.909 E8.46548
G1 X132.967 Y104.365 E8.5093
G1 X133.092 Y103.786 E8.55658
G1 X133.146 Y103.582 E8.57343
G1 X133.304 Y103.148 E8.61029
G1 X133.51 Y102.68 E8.65111
G1 X134.412 Y100.865 E8.8129
G1 X134.578 Y100.558 E8.84076
G1 X134.638 Y100.458 E8.85006
G1 X134.956 Y99.973 E8.89636
G0 F9000 X134.4 Y100.889
G1 F1125 X134.4 Y116.013 E10.10362
G0 F9000 X136 Y117.542
G1 F1125 X136 Y98.555 E11.61925
G0 F9000 X137.6 Y96.827
G1 F1125 X137.6 Y121.649 E13.60065
G0 F9000 X139.2 Y123.258
G1 F1125 X139.2 Y95.434 E15.82168
G0 F9000 X140.8 Y94.252
G1 F1125 X140.8 Y124.416 E18.2295
G0 F9000 X142.4 Y125.257
G1 F1125 X142.4 Y93.323 E20.77861
G0 F9000 X144 Y92.643
G1 F1125 X144 Y125.973 E23.43915
G0 F9000 X145.6 Y126.442
G1 F1125 X145.6 Y92.194 E26.17298
G0 F9000 X147.2 Y91.837
G1 F1125 X147.2 Y126.815 E28.96507
G0 F9000 X148.8 Y126.97
G1 F1125 X148.8 Y91.697 E31.78072
G0 F9000 X150.4 Y91.633
G1 F1125 X150.4 Y127.036 E34.60674
G0 F9000 X152 Y126.895
G1 F1125 X152 Y91.769 E37.41065
G0 F9000 X153.6 Y92.001
G1 F1125 X153.6 Y126.655 E40.17688
G0 F9000 X155.2 Y126.213
G1 F1125 X155.2 Y92.419 E42.87446
G0 F9000 X156.8 Y92.982
G1 F1125 X156.8 Y125.621 E45.47985
G0 F9000 X158.4 Y124.849
G1 F1125 X158.4 Y93.728 E47.96406
G0 F9000 X160 Y94.925
G1 F1125 X160 Y123.802 E50.26915
G0 F9000 X161.6 Y122.554
G1 F1125 X161.6 Y96.104 E52.3805
G0 F9000 X163.2 Y97.645
G1 F1125 X163.2 Y119.131 E54.09561
G0 F9000 X164.8 Y116.582
G1 F1125 X164.8 Y99.709 E55.44248
G0 F9000 X166.4 Y102.612
G1 F1125 X166.4 Y115.185 E56.44611
G1 F2700 E51.44611
G0 F9000 X167.119 Y115.991
G0 X163.025 Y122.545
G0 X162.321 Y123.337
G0 X161.614 Y123.944
G0 X159.262 Y125.608
G0 X156.334 Y126.984
G0 X153.258 Y127.822
G0 X150.056 Y128.116
G0 X147.039 Y127.867
G0 X146.084 Y127.68
G0 X143.839 Y127.049
G0 X142.958 Y126.706
G0 X140.409 Y125.428
G0 X138.173 Y123.815
G0 X137.279 Y122.98
G0 X136.592 Y122.048
G0 X132.143 Y114.987
G0 X131.847 Y114.336
G0 X132.8 Y113.838
M104 S220
G1 F2700 E56.44611
G1 F1125 X132.8 Y105.428 E57.11744
G1 F2700 E52.11744
G0 F300 X132.8 Y105.428 Z0.54
G0 F9000 X131.676 Y105.496
G0 X131.475 Y106.48
G0 X131.185 Y109.374
G0 X131.404 Y112.603
G0 X131.672 Y113.751
G0 X131.994 Y114.685
G0 X133.257 Y114.59
;TIME_ELAPSED:47.269644
;LAYER:-5
M140 S60
;TYPE:SUPPORT
G1 F2700 E57.11744
G1 F1125 X134.977 Y116.309 E57.42074
G1 X134.705 Y116.104 E57.46322
G1 X134.462 Y115.937 E57.49999
G1 X134.249 Y115.768 E57.53391
G1 X134.03 Y115.57 E57.57073
G1 X133.839 Y115.377 E57.6046
G1 X133.634 Y115.141 E57.64359
G1 X133.481 Y114.939 E57.67519
G1 X133.307 Y114.676 E57.71452
G0 F9000 X135.07 Y116.379
G1 F1125 X135.574 Y116.85 E57.80056
G1 X135.847 Y117.179 E57.85388
G1 X144.781 Y126.113 E59.42974
G1 X146.374 Y126.553 E59.63587
G1 X146.574 Y126.598 E59.66144
G1 X147.05 Y126.685 E59.72179
G1 X132.518 Y112.153 E62.28507
G1 X132.503 Y112.059 E62.29694
G1 X132.472 Y111.713 E62.34027
G1 X132.393 Y110.331 E62.51292
G1 X148.944 Y126.883 E65.43241
G1 X149.443 Y126.929 E65.49491
G1 X149.608 Y126.939 E65.51553
G1 X150.071 Y126.95 E65.5733
G1 X150.223 Y126.949 E65.59226
G1 X150.668 Y126.91 E65.64797
G1 X132.395 Y108.637 E68.87112
G1 X132.571 Y107.116 E69.06209
G1 X152.228 Y126.772 E72.52927
G1 X152.55 Y126.745 E72.56957
G1 X153.081 Y126.671 E72.63644
G1 X153.198 Y126.649 E72.65129
G1 X153.51 Y126.574 E72.69132
G1 X153.68 Y126.527 E72.71331
G1 X132.832 Y105.679 E76.39066
G1 X132.975 Y105.17 E76.4566
G1 X132.941 Y105.163 E76.46093
G1 X132.992 Y104.926 E76.49117
G1 X133.067 Y104.373 E76.56078
G1 X133.095 Y104.245 E76.57712
G1 X155.01 Y126.16 E80.44267
G1 X155.564 Y126.008 E80.51432
G1 X155.954 Y125.882 E80.56544
G1 X156.132 Y125.816 E80.58912
G1 X156.292 Y125.745 E80.61095
G1 X133.498 Y102.951 E84.63155
G1 X133.594 Y102.733 E84.66126
G1 X134.053 Y101.809 E84.78994
G1 X157.443 Y125.199 E88.91567
G1 X158.314 Y124.778 E89.03633
G1 X158.582 Y124.641 E89.07387
G1 X134.623 Y100.682 E93.29997
G1 X134.664 Y100.607 E93.31063
G1 X134.721 Y100.513 E93.32434
G1 X135.029 Y100.042 E93.39453
G1 X135.305 Y99.667 E93.4526
G1 X159.603 Y123.965 E97.73849
G1 X160.585 Y123.25 E97.89
G1 X136.024 Y98.689 E102.22228
G1 X136.26 Y98.369 E102.27187
G1 X136.382 Y98.219 E102.29598
G1 X136.789 Y97.756 E102.37287
G1 X161.521 Y122.489 E106.7354
G1 X161.542 Y122.47 E106.73893
G1 X161.696 Y122.323 E106.76549
G1 X161.795 Y122.21 E106.78422
G1 X162.091 Y121.847 E106.84264
G1 X162.274 Y121.587 E106.8823
G1 X162.29 Y121.561 E106.88611
G1 X137.648 Y96.919 E111.23267
G1 X138.406 Y96.191 E111.36376
G1 X138.52 Y96.093 E111.38251
G1 X162.814 Y120.388 E115.66778
G1 X162.837 Y120.31 E115.67792
G1 X162.905 Y120.016 E115.71556
G1 X162.956 Y119.706 E115.75474
G1 X163.026 Y119.355 E115.79938
G1 X163.131 Y119.008 E115.8446
G1 X139.485 Y95.361 E120.01557
G1 X140.099 Y94.943 E120.10821
G1 X140.219 Y94.846 E120.12746
G1 X140.234 Y94.861 E120.13011
G1 X140.477 Y94.656 E120.16976
G1 X163.649 Y117.829 E124.25712
G1 X163.87 Y117.467 E124.31002
G1 X164.304 Y116.923 E124.39682
G1 X164.373 Y116.855 E124.4089
G1 X141.435 Y93.917 E128.4549
G1 X141.448 Y93.908 E128.45687
G1 X141.831 Y93.7 E128.51123
G1 X142.004 Y93.613 E128.53539
G1 X142.571 Y93.356 E128.61303
G1 X165.287 Y116.072 E132.61987
G1 X165.344 Y116.029 E132.62878
G1 X165.629 Y115.82 E132.67286
G1 X165.835 Y115.645 E132.70657
G1 X166.034 Y115.45 E132.74132
G1 X166.191 Y115.279 E132.77027
G1 X143.748 Y92.836 E136.72896
G1 X144.263 Y92.655 E136.79705
G1 X144.431 Y92.603 E136.81898
G1 X145.051 Y92.442 E136.89888
G1 X166.865 Y114.257 E140.7467
G1 X166.976 Y114.004 E140.78116
G1 X167.066 Y113.767 E140.81278
G1 X167.179 Y113.396 E140.86115
G1 X167.28 Y112.975 E140.91515
G1 X146.399 Y92.093 E144.59841
G1 X146.54 Y92.056 E144.61659
G1 X147.194 Y91.938 E144.69948
G1 X147.469 Y91.907 E144.734
G1 X147.877 Y91.874 E144.78505
G1 X167.488 Y111.485 E148.24421
G1 X167.582 Y109.882 E148.44448
G1 X149.444 Y91.744 E151.64382
G1 X149.601 Y91.73 E151.66348
G1 X150.207 Y91.722 E151.73907
G1 X150.56 Y91.744 E151.78318
G1 X151.197 Y91.8 E151.86294
G1 X167.486 Y108.089 E154.73613
G1 X167.324 Y106.696 E154.91104
G1 X167.29 Y106.486 E154.93758
G1 X167.215 Y106.121 E154.98405
G1 X153.085 Y91.991 E157.47642
G1 X153.146 Y92 E157.48411
G1 X153.256 Y92.022 E157.49811
G1 X153.534 Y92.087 E157.53371
G1 X155.352 Y92.561 E157.76805
G1 X166.814 Y104.023 E159.78981
G1 X166.764 Y103.813 E159.81673
G1 X166.724 Y103.664 E159.83598
G1 X166.511 Y103.082 E159.91328
G1 X166.455 Y102.949 E159.93127
G1 X165.497 Y101.009 E160.20114
G1 X158.249 Y93.76 E161.47969
G1 X158.42 Y93.851 E161.50385
G1 X158.671 Y94.007 E161.54071
G1 X158.876 Y94.15 E161.57188
G1 X159.169 Y94.395 E161.61952
G1 X159.849 Y94.942 E161.72837
G1 X160.901 Y95.659 E161.88716
G1 X161.338 Y95.998 E161.95614
G1 X161.543 Y96.188 E161.991
G1 X163.077 Y97.662 E162.25634
G1 X163.297 Y97.889 E162.29577
G1 X163.381 Y97.988 E162.31196
G1 X163.695 Y98.375 E162.37412
G1 X164.939 Y100.066 E162.63596
G1 X165.132 Y100.356 E162.67941
G1 X165.206 Y100.476 E162.69699
G1 X165.432 Y100.877 E162.7544
G1 F2700 E157.7544
G0 F9000 X166.462 Y100.336
G0 X167.598 Y102.662
G0 X167.993 Y103.943
G0 X168.48 Y106.549
G0 X168.761 Y109.417
G0 X168.611 Y112.092
G0 X168.303 Y113.705
G0 X167.895 Y114.807
G0 X163.025 Y122.545
G0 X162.321 Y123.337
G0 X161.614 Y123.944
G0 X159.262 Y125.608
G0 X156.334 Y126.984
G0 X153.258 Y127.822
G0 X150.056 Y128.116
G0 X147.039 Y127.867
G0 X146.084 Y127.68
G0 X143.839 Y127.049
G0 X142.958 Y126.706
G0 X140.409 Y125.428
G0 X138.173 Y123.815
G0 X137.279 Y122.98
G0 X136.592 Y122.048
G0 X136.335 Y121.504
G0 X134.952 Y117.922
G0 X135.847 Y117.179
G1 F2700 E162.7544
G1 F1125 X136.018 Y117.386 E162.78789
G1 X136.39 Y117.973 E162.87457
G1 X136.687 Y118.602 E162.96133
G1 X136.873 Y119.177 E163.0367
G1 X136.886 Y119.175 E163.03834
G1 X137.063 Y120.092 E163.15483
G1 X141.851 Y124.88 E163.99937
G1 X141.576 Y124.748 E164.03742
G1 X141.457 Y124.686 E164.05416
G1 X141.011 Y124.431 E164.11823
G1 X140.873 Y124.345 E164.13852
G1 X140.72 Y124.237 E164.16187
G1 X139.072 Y123.043 E164.4157
G1 X138.928 Y122.929 E164.43861
G1 X138.407 Y122.472 E164.52505
G1 X138.241 Y122.308 E164.55415
G1 X138.154 Y122.212 E164.57031
G1 X137.923 Y121.935 E164.6153
G1 X137.739 Y121.682 E164.65431
G1 X137.589 Y121.447 E164.68909
G1 X137.462 Y121.22 E164.72153
G1 X137.342 Y120.965 E164.75668
G1 X137.226 Y120.674 E164.79575
G1 X137.142 Y120.416 E164.82959
G1 X137.074 Y120.15 E164.86384
G1 F2700 E159.86384
G0 F300 X137.074 Y120.15 Z0.74
G0 F9000 X136.025 Y120.743
G0 X136.428 Y121.752
G0 X136.999 Y122.645
G0 X137.629 Y123.338
G0 X138.377 Y123.977
G0 X140.409 Y125.428
G0 X142.958 Y126.706
G0 X144.111 Y127.137
G0 X146.352 Y127.742
G0 X146.87 Y127.83
G0 X149.331 Y128.088
G0 X149.414 Y127.176
;TIME_ELAPSED:96.708928
;LAYER:-4
;TYPE:SUPPORT-INTERFACE
G1 F2700 E164.86384
G1 F1500 X149.612 Y127.188 E164.87208
G1 X150.067 Y127.2 E164.89101
G1 X150.246 Y127.199 E164.89845
G1 X152.496 Y127 E164.99236
G1 X147.495 Y127 E165.20028
G1 X147.376 Y126.989 E165.20525
G1 X147.177 Y126.962 E165.21359
G1 X146.542 Y126.846 E165.24043
G1 X146.302 Y126.791 E165.25067
G1 X145.246 Y126.5 E165.29621
G1 X154.715 Y126.5 E165.68988
G1 X155.721 Y126.221 E165.73329
G1 X156.043 Y126.116 E165.74737
G1 X156.134 Y126.084 E165.75138
G1 X156.333 Y126 E165.76036
G1 X143.648 Y126 E166.28774
G1 X143.539 Y125.959 E166.29258
G1 X143.33 Y125.87 E166.30203
G1 X142.56 Y125.5 E166.33754
G1 X157.394 Y125.5 E166.95427
G1 X158.42 Y125.005 E167.00163
G1 X158.429 Y125 E167.00206
G1 X141.521 Y125 E167.70501
G1 X141.478 Y124.979 E167.707
G1 X141.33 Y124.899 E167.71399
G1 X140.873 Y124.639 E167.73585
G1 X140.737 Y124.554 E167.74252
G1 X140.659 Y124.5 E167.74647
G1 X159.291 Y124.5 E168.52109
G1 X159.301 Y124.494 E168.52158
G1 X159.98 Y124 E168.55649
