;FLAVOR:Marlin
;TIME:3079
;Filament used: 2.12608m
;Layer height: 0.2
;MINX:120.379
;MINY:80.409
;MINZ:0.24
;MAXX:177.664
;MAXY:137.664
;MAXZ:17.09
;Generated with Cura_SteamEngine 4.4.1
M82 ;absolute extrusion mode
M201 X500.00 Y500.00 Z100.00 E5000.00 ;Setup machine max acceleration
M203 X500.00 Y500.00 Z10.00 E50.00 ;Setup machine max feedrate
M204 P500.00 R1000.00 T500.00 ;Setup Print/Retract/Travel acceleration
M205 X8.00 Y8.00 Z0.40 E5.00 ;Setup Jerk
M220 S100 ;Reset Feedrate
M221 S100 ;Reset Flowrate

G28 ;Home

G92 E0 ;Reset Extruder
M117 Getting the bed & Extruder up to temp!
M140 S60   ; Set Heat Bed temperature
M104 S220.0 ; Set Extruder temperature
M190 S60 ; Wait for Heat Bed temperature
M109 S220.0 ; Wait for Extruder temperature
M117 Bed & Extruder up to temp!

G1 Z2.0 F3000 ;Move Z Axis up
G1 X10.1 Y20 Z0.28 F5000.0 ;Move to start position
G1 X10.1 Y200.0 Z0.28 F1500.0 E15 ;Draw the first line
G1 X10.4 Y200.0 Z0.28 F5000.0 ;Move to side a little
G1 X10.4 Y20 Z0.28 F1500.0 E30 ;Draw the second line
G92 E0 ;Reset Extruder
G1 Z2.0 F3000 ;Move Z Axis up
G92 E0
G92 E0
G1 F2700 E-5
;LAYER_COUNT:80
;LAYER:-6
M107
G0 F9000 X125.845 Y89.238 Z0.24
;TYPE:SUPPORT-INTERFACE
G1 F2700 E0
G1 F1125 X125.989 Y89.052 E0.01878
G1 X127.124 Y87.668 E0.16165
G1 X127.384 Y87.388 E0.19215
G1 X127.567 Y87.21 E0.21253
G1 X127.763 Y87.038 E0.23335
G1 X128.981 Y86.046 E0.35874
G1 X129.136 Y85.931 E0.37415
G1 X129.714 Y85.545 E0.42963
G1 X129.892 Y85.437 E0.44625
G1 X131.4 Y84.626 E0.58293
G1 X131.646 Y84.512 E0.60457
G1 X132.357 Y84.142 E0.66855
G1 X132.627 Y84.024 E0.69207
G1 X132.912 Y83.924 E0.71618
G1 X133.349 Y83.802 E0.7524
G1 X133.582 Y83.746 E0.77153
G1 X134.218 Y83.549 E0.82467
G1 X134.453 Y83.449 E0.84506
G1 X134.822 Y83.304 E0.87671
G1 X135.08 Y83.219 E0.89839
G1 X135.379 Y83.143 E0.92302
G1 X135.704 Y83.082 E0.94941
G1 X135.922 Y83.052 E0.96698
G1 X136.127 Y83.034 E0.98341
G1 X137.913 Y82.934 E1.1262
G1 X138.312 Y82.937 E1.15805
G1 X138.577 Y82.956 E1.17925
G1 X138.899 Y82.998 E1.20518
G1 X139.149 Y83.047 E1.22551
G1 X140.099 Y83.298 E1.30395
G1 X140.771 Y83.387 E1.35806
G1 X141.14 Y83.4 E1.38753
G1 X145.71 Y83.4 E1.75233
G1 X146.378 Y83.358 E1.80576
G1 X147.049 Y83.229 E1.8603
G1 X147.698 Y83.016 E1.91482
G1 X148.315 Y82.724 E1.96931
G1 X148.398 Y82.671 E1.97717
G1 X148.407 Y82.687 E1.97864
G1 X148.954 Y82.315 E2.03144
G1 X149.259 Y82.121 E2.0603
G1 X149.51 Y81.982 E2.0832
G1 X149.775 Y81.858 E2.10655
G1 X150.048 Y81.75 E2.12999
G1 X150.323 Y81.661 E2.15306
G1 X150.606 Y81.589 E2.17637
G1 X150.903 Y81.534 E2.20048
G1 X151.175 Y81.5 E2.22236
G1 X151.68 Y81.473 E2.26273
G1 X152.737 Y81.477 E2.34711
G1 X153.114 Y81.501 E2.37726
G1 X153.412 Y81.538 E2.40123
G1 X153.696 Y81.593 E2.42432
G1 X153.987 Y81.669 E2.44833
G1 X154.245 Y81.753 E2.46999
G1 X154.524 Y81.864 E2.49396
G1 X154.784 Y81.987 E2.51692
G1 X155.037 Y82.127 E2.54
G1 X155.334 Y82.317 E2.56815
G1 X155.868 Y82.682 E2.61978
G1 X155.879 Y82.664 E2.62146
G1 X156.002 Y82.742 E2.63309
G1 X156.621 Y83.03 E2.68759
G1 X157.273 Y83.239 E2.74224
G1 X157.943 Y83.362 E2.79662
G1 X158.575 Y83.4 E2.84716
G1 X171.904 Y83.404 E3.91113
G1 X172.281 Y83.428 E3.94129
G1 X172.579 Y83.465 E3.96526
G1 X172.863 Y83.52 E3.98835
G1 X173.154 Y83.596 E4.01236
G1 X173.412 Y83.68 E4.03402
G1 X173.691 Y83.791 E4.05799
G1 X173.949 Y83.913 E4.08077
G1 X174.208 Y84.057 E4.10442
G1 X174.427 Y84.196 E4.12513
G1 X174.693 Y84.394 E4.1516
G1 X175.047 Y84.698 E4.18884
G1 X175.191 Y84.831 E4.20449
G1 X175.291 Y84.938 E4.21618
G1 X175.55 Y85.233 E4.24752
G1 X175.717 Y85.448 E4.26925
G1 X175.873 Y85.679 E4.2915
G1 X176.031 Y85.947 E4.31633
G1 X176.163 Y86.206 E4.33954
G1 X176.266 Y86.445 E4.36031
G1 X176.373 Y86.743 E4.38559
G1 X176.453 Y87.022 E4.40876
G1 X176.509 Y87.283 E4.43007
G1 X176.557 Y87.603 E4.45589
G1 X176.593 Y88.064 E4.49281
G1 X176.6 Y88.249 E4.50758
G1 X176.595 Y91.468 E4.76454
G1 X176.582 Y91.662 E4.78006
G1 X176.587 Y92.404 E4.83929
G1 X176.593 Y92.482 E4.84553
G1 X176.6 Y92.656 E4.85944
G1 X176.597 Y93.883 E4.95738
G1 X176.573 Y94.272 E4.98849
G1 X176.535 Y94.579 E5.01318
G1 X176.48 Y94.863 E5.03628
G1 X176.404 Y95.154 E5.06028
G1 X176.32 Y95.412 E5.08194
G1 X176.209 Y95.691 E5.10591
G1 X176.087 Y95.949 E5.12869
G1 X175.943 Y96.208 E5.15235
G1 X175.804 Y96.427 E5.17305
G1 X175.606 Y96.693 E5.19952
G1 X175.302 Y97.047 E5.23677
G1 X175.169 Y97.191 E5.25242
G1 X175.053 Y97.299 E5.26507
G1 X174.784 Y97.536 E5.29369
G1 X174.552 Y97.717 E5.31718
G1 X174.321 Y97.873 E5.33943
G1 X174.053 Y98.031 E5.36426
G1 X173.796 Y98.161 E5.38725
G1 X173.527 Y98.276 E5.4106
G1 X173.27 Y98.369 E5.43242
G1 X172.978 Y98.453 E5.45667
G1 X172.717 Y98.509 E5.47798
G1 X172.397 Y98.557 E5.50381
G1 X171.929 Y98.593 E5.54128
G1 X171.737 Y98.6 E5.55662
G1 X161.595 Y98.6 E6.36619
G1 X160.927 Y98.642 E6.41962
G1 X160.256 Y98.771 E6.47416
G1 X159.607 Y98.984 E6.52869
G1 X158.99 Y99.276 E6.58318
G1 X158.415 Y99.644 E6.63767
G1 X157.891 Y100.082 E6.69219
G1 X157.453 Y100.554 E6.74359
G1 X157.445 Y100.549 E6.74434
G1 X156.941 Y101.24 E6.81261
G1 X156.762 Y101.455 E6.83495
G1 X156.559 Y101.668 E6.85843
G1 X156.357 Y101.857 E6.88051
G1 X156.087 Y102.081 E6.90852
G1 X155.95 Y102.187 E6.92235
G1 X155.098 Y102.802 E7.00622
G1 X154.755 Y103.02 E7.03867
G1 X154.514 Y103.153 E7.06064
G1 X154.246 Y103.278 E7.08424
G1 X153.97 Y103.387 E7.10793
G1 X153.712 Y103.472 E7.12961
G1 X153.412 Y103.548 E7.15432
G1 X153.133 Y103.601 E7.17699
G1 X152.836 Y103.637 E7.20087
G1 X152.341 Y103.663 E7.24044
G1 X151.263 Y103.659 E7.32649
G1 X150.886 Y103.635 E7.35664
G1 X150.588 Y103.598 E7.38061
G1 X150.303 Y103.543 E7.40378
G1 X149.47 Y103.326 E7.4725
G1 X149.465 Y103.344 E7.47399
G1 X149.378 Y103.324 E7.48111
G1 X148.699 Y103.255 E7.53559
G1 X148.016 Y103.271 E7.59013
G1 X147.341 Y103.374 E7.64463
G1 X146.684 Y103.561 E7.69916
G1 X146.056 Y103.83 E7.75369
G1 X145.468 Y104.176 E7.80815
G1 X144.928 Y104.593 E7.86262
G1 X144.444 Y105.075 E7.91714
G1 X144.024 Y105.615 E7.97175
G1 X143.678 Y106.202 E8.02614
G1 X143.407 Y106.829 E8.08067
G1 X143.218 Y107.486 E8.13524
G1 X143.113 Y108.159 E8.18961
G1 X143.093 Y108.842 E8.24415
G1 X143.161 Y109.524 E8.29886
G1 X143.352 Y110.308 E8.36327
G1 X143.498 Y110.757 E8.40096
G1 X143.539 Y110.9 E8.41284
G1 X143.633 Y111.262 E8.44269
G1 X143.685 Y111.537 E8.46503
G1 X143.725 Y111.849 E8.49014
G1 X143.741 Y112.123 E8.51205
G1 X143.741 Y112.419 E8.53568
G1 X143.723 Y112.698 E8.558
G1 X143.685 Y112.999 E8.58221
G1 X143.627 Y113.295 E8.60629
G1 X143.505 Y113.755 E8.64428
G1 X143.167 Y114.781 E8.73051
G1 X143.018 Y115.156 E8.76272
G1 X142.891 Y115.424 E8.78639
G1 X142.76 Y115.661 E8.80801
G1 X142.598 Y115.916 E8.83213
G1 X142.422 Y116.157 E8.85595
G1 X142.243 Y116.372 E8.87828
G1 X142.04 Y116.585 E8.90177
G1 X141.838 Y116.774 E8.92385
G1 X141.569 Y116.997 E8.95174
G1 X141.45 Y117.089 E8.96375
G1 X140.809 Y117.556 E9.02705
G1 X140.294 Y117.985 E9.08056
G1 X139.828 Y118.484 E9.13506
G1 X139.429 Y119.038 E9.18956
G1 X139.103 Y119.637 E9.24399
G1 X138.854 Y120.273 E9.29851
G1 X138.687 Y120.941 E9.35348
G1 X138.6 Y121.895 E9.42995
G1 X138.596 Y131.904 E10.22891
G1 X138.572 Y132.281 E10.25906
G1 X138.535 Y132.579 E10.28303
G1 X138.48 Y132.863 E10.30612
G1 X138.404 Y133.154 E10.33013
G1 X138.32 Y133.412 E10.35179
G1 X138.209 Y133.691 E10.37576
G1 X138.087 Y133.949 E10.39854
G1 X137.943 Y134.208 E10.4222
G1 X137.804 Y134.427 E10.4429
G1 X137.606 Y134.693 E10.46937
G1 X137.302 Y135.047 E10.50662
G1 X137.169 Y135.191 E10.52227
G1 X137.053 Y135.299 E10.53492
G1 X136.784 Y135.536 E10.56354
G1 X136.552 Y135.717 E10.58702
G1 X136.321 Y135.873 E10.60928
G1 X136.053 Y136.031 E10.63411
G1 X135.796 Y136.161 E10.6571
G1 X135.527 Y136.276 E10.68045
G1 X135.27 Y136.369 E10.70227
G1 X134.978 Y136.453 E10.72652
G1 X134.717 Y136.509 E10.74783
G1 X134.397 Y136.557 E10.77366
G1 X133.929 Y136.593 E10.81113
G1 X133.737 Y136.6 E10.82647
G1 X132.478 Y136.595 E10.92696
G1 X132.257 Y136.582 E10.94464
G1 X132.018 Y136.585 E10.96372
G1 X132.018 Y136.567 E10.96515
G1 X131.267 Y136.6 E11.02516
G1 X128.096 Y136.596 E11.27828
G1 X127.719 Y136.572 E11.30844
G1 X127.421 Y136.535 E11.33241
G1 X127.137 Y136.48 E11.3555
G1 X126.846 Y136.404 E11.37951
G1 X126.586 Y136.319 E11.40134
G1 X126.309 Y136.209 E11.42513
G1 X126.05 Y136.086 E11.44802
G1 X125.792 Y135.943 E11.47157
G1 X125.573 Y135.804 E11.49227
G1 X125.307 Y135.606 E11.51874
G1 X124.953 Y135.302 E11.55599
G1 X124.809 Y135.169 E11.57164
G1 X124.701 Y135.053 E11.58429
G1 X124.45 Y134.767 E11.61466
G1 X124.283 Y134.552 E11.63639
G1 X124.124 Y134.316 E11.65911
G1 X123.969 Y134.053 E11.68348
G1 X123.839 Y133.796 E11.70647
G1 X123.723 Y133.526 E11.72993
G1 X123.631 Y133.27 E11.75164
G1 X123.547 Y132.978 E11.77589
G1 X123.491 Y132.717 E11.7972
G1 X123.443 Y132.397 E11.82303
G1 X123.406 Y131.919 E11.8613
G1 X123.4 Y131.751 E11.87472
G1 X123.4 Y118.5 E12.93247
G1 X123.358 Y117.832 E12.9859
G1 X123.229 Y117.161 E13.04044
G1 X123.014 Y116.507 E13.0954
G1 X122.581 Y115.656 E13.17162
G1 X122.418 Y115.395 E13.19618
G1 X122.265 Y115.113 E13.22179
G1 X122.148 Y114.863 E13.24382
G1 X122.016 Y114.529 E13.27249
G1 X121.965 Y114.384 E13.28476
G1 X121.69 Y113.539 E13.35569
G1 X121.636 Y113.352 E13.37123
G1 X121.549 Y113.012 E13.39925
G1 X121.498 Y112.741 E13.42126
G1 X121.459 Y112.435 E13.44588
G1 X121.443 Y112.162 E13.46771
G1 X121.444 Y111.849 E13.4927
G1 X121.46 Y111.596 E13.51293
G1 X121.501 Y111.278 E13.53853
G1 X121.557 Y110.993 E13.56171
G1 X121.641 Y110.668 E13.58851
G1 X121.69 Y110.502 E13.60232
G1 X122.019 Y109.501 E13.68643
G1 X122.161 Y109.146 E13.71695
G1 X122.283 Y108.887 E13.73981
G1 X122.414 Y108.65 E13.76142
G1 X122.563 Y108.414 E13.7837
G1 X122.887 Y107.827 E13.83722
G1 X123.138 Y107.192 E13.89173
G1 X123.308 Y106.524 E13.94675
G1 X123.4 Y105.546 E14.02516
G1 X123.4 Y99.182 E14.53316
G1 X123.358 Y98.513 E14.58667
G1 X123.231 Y97.858 E14.63993
G1 X123.145 Y97.523 E14.66754
G1 X123.09 Y97.235 E14.69094
G1 X123.05 Y96.92 E14.71629
G1 X123.034 Y96.657 E14.73732
G1 X123.034 Y96.356 E14.76135
G1 X123.051 Y96.085 E14.78302
G1 X123.093 Y95.75 E14.80998
G1 X123.14 Y95.5 E14.83028
G1 X123.235 Y95.131 E14.8607
G1 X123.686 Y93.611 E14.98726
G1 X123.74 Y93.451 E15.00074
G1 X123.86 Y93.124 E15.02854
G1 X123.979 Y92.853 E15.05217
G1 X124.087 Y92.646 E15.07081
G1 X124.341 Y92.074 E15.12076
G1 X124.465 Y91.741 E15.14913
G1 X124.55 Y91.547 E15.16604
G1 X124.67 Y91.308 E15.18738
G1 X125.494 Y89.782 E15.32582
G1 X125.707 Y89.437 E15.35819
G1 X125.845 Y89.238 E15.37752
G0 F9000 X126.4 Y88.55
G1 F1125 X126.4 Y136.245 E19.18474
G0 F9000 X128 Y136.589
G1 F1125 X128 Y86.844 E23.1556
G0 F9000 X129.6 Y85.621
G1 F1125 X129.6 Y136.597 E27.22472
G0 F9000 X131.2 Y136.599
G1 F1125 X131.2 Y84.733 E31.36489
G0 F9000 X132.8 Y83.963
G1 F1125 X132.8 Y136.596 E35.56629
G0 F9000 X134.4 Y136.557
G1 F1125 X134.4 Y83.471 E39.80384
G0 F9000 X136 Y83.045
G1 F1125 X136 Y136.058 E44.03557
G0 F9000 X137.6 Y134.7
G1 F1125 X137.6 Y82.951 E48.16639
G0 F9000 X139.2 Y83.061
G1 F1125 X139.2 Y119.459 E51.07184
G0 F9000 X140.8 Y117.564
G1 F1125 X140.8 Y83.389 E53.79984
G0 F9000 X142.4 Y83.4
G1 F1125 X142.4 Y116.184 E56.4168
G1 F2700 E51.4168
G0 F9000 X143.484 Y116.508
G0 X143.994 Y115.58
G0 X144.669 Y113.517
G0 X144.791 Y112.559
G0 X144.629 Y106.684
G0 X144 Y105.656
G1 F2700 E56.4168
G1 F1125 X144 Y83.4 E58.19337
G0 F9000 X145.6 Y83.4
G1 F1125 X145.6 Y104.099 E59.84565
G0 F9000 X147.2 Y103.415
G1 F1125 X147.2 Y83.179 E61.46098
G0 F9000 X148.8 Y82.419
G1 F1125 X148.8 Y103.265 E63.12499
G0 F9000 X150.4 Y103.561
G1 F1125 X150.4 Y81.641 E64.87474
G0 F9000 X152 Y81.475
G1 F1125 X152 Y103.661 E66.64573
G0 F9000 X153.6 Y103.501
G1 F1125 X153.6 Y81.575 E68.39595
G0 F9000 X155.2 Y82.232
G1 F1125 X155.2 Y102.729 E70.03211
G0 F9000 X156.8 Y101.41
G1 F1125 X156.8 Y83.088 E71.49465
G0 F9000 X158.4 Y83.39
G1 F1125 X158.4 Y99.657 E72.79316
G0 F9000 X160 Y98.856
G1 F1125 X160 Y83.401 E74.02684
G0 F9000 X161.6 Y83.401
G1 F1125 X161.6 Y98.6 E75.24009
G0 F9000 X163.2 Y98.6
G1 F1125 X163.2 Y83.402 E76.45326
G0 F9000 X164.8 Y83.402
G1 F1125 X164.8 Y98.6 E77.66643
G0 F9000 X166.4 Y98.6
G1 F1125 X166.4 Y83.403 E78.87952
G0 F9000 X168 Y83.403
G1 F1125 X168 Y98.6 E80.09261
G0 F9000 X169.6 Y98.6
G1 F1125 X169.6 Y83.404 E81.30562
G0 F9000 X171.2 Y83.404
G1 F1125 X171.2 Y98.6 E82.51863
G0 F9000 X172.8 Y98.492
G1 F1125 X172.8 Y83.508 E83.71472
G0 F9000 X174.4 Y84.179
G1 F1125 X174.4 Y97.82 E84.8036
G0 F9000 X176 Y96.106
G1 F1125 X176 Y85.895 E85.61869
G1 F2700 E80.61869
G0 F9000 X176.78 Y85.121
G0 X175.919 Y84.054
G0 X175.036 Y83.323
G0 X174.104 Y82.81
G0 X173.096 Y82.48
G0 X171.801 Y82.336
G0 X152.634 Y80.409
G0 X150.741 Y80.481
G0 X135.53 Y82.032
G0 X134.457 Y82.304
G0 X131.908 Y83.176
G0 X129.136 Y84.651
G0 X128.32 Y85.211
G0 X126.63 Y86.637
G0 X124.822 Y88.845
G0 X123.861 Y90.565
G0 X124.8 Y91.067
G1 F2700 E85.61869
G1 F1125 X124.8 Y135.159 E89.1383
G1 F2700 E84.1383
G0 F9000 X123.637 Y135.454
G0 X123.035 Y134.565
G0 X122.613 Y133.584
G0 X122.385 Y132.518
G0 X122.372 Y132.304
G0 X122.299 Y117.966
G0 X123.2 Y117.072
G1 F2700 E89.1383
G1 F1125 X123.2 Y106.948 E89.94645
G0 F9000 X121.6 Y110.826
G1 F1125 X121.6 Y113.211 E90.13683
G1 F2700 E85.13683
G0 F9000 X120.445 Y112.902
G0 X120.38 Y111.822
G0 X122.19 Y98.084
G0 X123.2 Y97.737
M104 S220
G1 F2700 E90.13683
G1 F1125 X123.2 Y95.266 E90.33407
G1 F2700 E85.33407
G0 F300 X123.2 Y95.266 Z0.54
G0 F9000 X122.21 Y94.844
G0 X122.874 Y92.722
G0 X123.726 Y90.816
G0 X124.822 Y88.845
G0 X126.63 Y86.637
G0 X128.532 Y85.055
G0 X129.759 Y85.635
;TIME_ELAPSED:73.239990
;LAYER:-5
M140 S60
;TYPE:SUPPORT
G1 F2700 E90.33407
G1 F1125 X147.389 Y103.265 E93.4438
G1 X147.318 Y103.277 E93.45278
G1 X146.648 Y103.467 E93.53964
G1 X146.12 Y103.693 E93.61128
G1 X128.771 Y86.345 E96.67135
G1 X127.836 Y87.107 E96.8218
G1 X145.078 Y104.349 E99.86309
G1 X144.861 Y104.516 E99.89724
G1 X144.368 Y105.008 E99.98411
G1 X144.225 Y105.193 E100.01327
G1 X127 Y87.968 E103.05157
G1 X126.238 Y88.903 E103.20201
G1 X143.559 Y106.224 E106.25723
G1 X143.311 Y106.795 E106.33488
G1 X143.119 Y107.463 E106.42157
G1 X143.116 Y107.478 E106.42348
G1 X125.54 Y89.902 E109.52368
G1 X124.945 Y91.004 E109.67988
G1 X143.015 Y109.074 E112.86722
G1 X143.061 Y109.541 E112.92575
G1 X143.254 Y110.336 E113.02779
G1 X143.396 Y110.77 E113.08474
G1 X143.443 Y110.937 E113.10638
G1 X143.534 Y111.281 E113.15076
G1 X143.536 Y111.292 E113.15216
G1 X124.408 Y92.164 E116.52612
G1 X124.176 Y92.688 E116.59759
G1 X124.075 Y92.883 E116.62498
G1 X123.948 Y93.171 E116.66424
G1 X123.886 Y93.339 E116.68658
G1 X143.576 Y113.029 E120.15967
G1 X143.529 Y113.272 E120.19054
G1 X143.408 Y113.726 E120.24914
G1 X143.202 Y114.352 E120.33134
G1 X123.484 Y94.634 E123.80936
G1 X123.327 Y95.167 E123.87867
G1 X123.234 Y95.532 E123.92565
G1 X123.191 Y95.764 E123.95507
G1 X123.159 Y96.006 E123.98552
G1 X142.704 Y115.551 E127.43303
G1 X142.662 Y115.628 E127.44397
G1 X142.522 Y115.847 E127.47639
G1 X142.346 Y116.089 E127.51372
G1 X142.163 Y116.309 E127.54941
G1 X141.969 Y116.513 E127.58452
G1 X123.337 Y97.881 E130.87099
G1 X123.456 Y98.501 E130.94973
G1 X123.499 Y99.178 E131.03434
G1 X123.499 Y99.74 E131.10444
G1 X141.028 Y117.27 E134.19644
G1 X140.747 Y117.476 E134.2399
G1 X140.224 Y117.912 E134.32482
G1 X140.104 Y118.042 E134.34689
G1 X123.499 Y101.437 E137.27582
G1 X123.499 Y103.134 E137.48748
G1 X139.345 Y118.981 E140.28262
G0 F9000 X139.343 Y118.984
G1 F1125 X139.01 Y119.595 E140.36941
G1 X138.801 Y120.133 E140.4414
G1 X123.499 Y104.831 E143.14049
G1 X123.499 Y105.549 E143.23005
G1 X123.414 Y106.444 E143.34218
G1 X138.53 Y121.56 E146.00847
G1 X138.499 Y121.889 E146.04968
G1 X138.499 Y123.226 E146.21644
G1 X123.023 Y107.75 E148.94623
G1 X122.976 Y107.869 E148.96219
G1 X122.648 Y108.465 E149.04704
G1 X122.506 Y108.689 E149.08012
G1 X122.42 Y108.844 E149.10223
G1 X138.498 Y124.922 E151.9382
G1 X138.498 Y126.618 E152.14973
G1 X121.939 Y110.06 E155.07046
G1 X121.781 Y110.542 E155.13373
G1 X121.654 Y111.012 E155.19445
G1 X121.598 Y111.301 E155.23117
G1 X121.584 Y111.402 E155.24389
G1 X138.497 Y128.315 E158.22714
