;FLAVOR:Marlin
;TIME:867
;Filament used: 0.619313m
;Layer height: 0.2
;MINX:141.335
;MINY:96.835
;MINZ:0.2
;MAXX:158.665
;MAXY:123.165
;MAXZ:8.4
;Generated with Cura_SteamEngine 4.4.1
M82 ;absolute extrusion mode
M201 X500.00 Y500.00 Z100.00 E5000.00 ;Setup machine max acceleration
M203 X500.00 Y500.00 Z10.00 E50.00 ;Setup machine max feedrate
M204 P500.00 R1000.00 T500.00 ;Setup Print/Retract/Travel acceleration
M205 X8.00 Y8.00 Z0.40 E5.00 ;Setup Jerk
M220 S100 ;Reset Feedrate
M221 S100 ;Reset Flowrate

G28 ;Home

G92 E0 ;Reset Extruder
M117 Getting the bed & Extruder up to temp!
M140 S60   ; Set Heat Bed temperature
M104 S220.0 ; Set Extruder temperature
M190 S60 ; Wait for Heat Bed temperature
M109 S220.0 ; Wait for Extruder temperature
M117 Bed & Extruder up to temp!

G1 Z2.0 F3000 ;Move Z Axis up
G1 X10.1 Y20 Z0.28 F5000.0 ;Move to start position
G1 X10.1 Y200.0 Z0.28 F1500.0 E15 ;Draw the first line
G1 X10.4 Y200.0 Z0.28 F5000.0 ;Move to side a little
G1 X10.4 Y20 Z0.28 F1500.0 E30 ;Draw the second line
G92 E0 ;Reset Extruder
G1 Z2.0 F3000 ;Move Z Axis up
G92 E0
G92 E0
G1 F2700 E-5
;LAYER_COUNT:42
;LAYER:0
M107
G0 F6000 X155.108 Y108.8 Z0.2
;TYPE:SKIRT
G1 F2700 E0
G1 F1200 X155.25 Y108.658 E0.00835
G1 X155.25 Y109.634 E0.04893
G1 X155.213 Y109.326 E0.06182
G1 X155.109 Y108.805 E0.08391
G1 X155.108 Y108.8 E0.08412
G0 F6000 X154.618 Y108.903
G1 F1200 X154.545 Y108.643 E0.09535
G1 X154.609 Y108.591 E0.09878
G1 X155.341 Y107.859 E0.14182
G1 X155.611 Y107.532 E0.15945
G1 X155.75 Y107.279 E0.17145
G1 X155.75 Y112.723 E0.39779
G1 X155.649 Y112.526 E0.40699
G1 X155.341 Y112.141 E0.42749
G1 X154.609 Y111.409 E0.47053
G1 X154.605 Y111.406 E0.47073
G1 X154.656 Y111.243 E0.47784
G1 X154.703 Y110.851 E0.49425
G1 X154.718 Y110.386 E0.51359
G1 X154.748 Y110.147 E0.52361
G1 X154.762 Y109.723 E0.54124
G1 X154.722 Y109.424 E0.55379
G1 X154.618 Y108.903 E0.57587
G0 F6000 X154.128 Y109
G1 F1200 X154.052 Y108.733 E0.58741
G1 X153.954 Y108.468 E0.59916
G1 X154.066 Y108.402 E0.60457
G1 X154.255 Y108.237 E0.615
G1 X154.987 Y107.505 E0.65804
G1 X155.222 Y107.215 E0.67355
G1 X155.389 Y106.881 E0.68908
G1 X155.482 Y106.519 E0.70462
G1 X155.5 Y106.268 E0.71508
G1 X155.5 Y99.25 E1.00686
G1 X156.25 Y99.25 E1.03804
G1 X156.25 Y120.75 E1.9319
G1 X155.5 Y120.749 E1.96308
G1 X155.5 Y113.732 E2.25482
G1 X155.46 Y113.361 E2.27033
G1 X155.342 Y113.006 E2.28588
G1 X155.152 Y112.684 E2.30143
G1 X154.987 Y112.495 E2.31186
G1 X154.255 Y111.763 E2.3549
G1 X154.008 Y111.563 E2.36811
G1 X154.085 Y111.414 E2.37508
G1 X154.183 Y111.053 E2.39064
G1 X154.203 Y110.835 E2.39974
G1 X154.218 Y110.349 E2.41995
G1 X154.252 Y110.084 E2.43106
G1 X154.259 Y109.711 E2.44657
G1 X154.232 Y109.521 E2.45455
G1 X154.128 Y109 E2.47664
G0 F6000 X153.638 Y109.098
G1 F1200 X153.584 Y108.907 E2.48489
G1 X153.413 Y108.447 E2.50529
G1 X153.302 Y108.221 E2.51576
G1 X153.298 Y108.214 E2.5161
G1 X153.331 Y108.21 E2.51748
G1 X153.624 Y108.093 E2.53059
G1 X153.902 Y107.884 E2.54505
G1 X154.634 Y107.152 E2.58809
G1 X154.827 Y106.902 E2.60122
G1 X154.952 Y106.612 E2.61435
G1 X155 Y106.268 E2.62879
G1 X155 Y98.75 E2.94136
G1 X156.75 Y98.75 E3.01411
G1 X156.75 Y121.25 E3.94955
G1 X155 Y121.249 E4.02231
G1 X155 Y113.732 E4.33483
G1 X154.96 Y113.419 E4.34795
G1 X154.843 Y113.126 E4.36107
G1 X154.634 Y112.848 E4.37553
G1 X153.902 Y112.116 E4.41856
G1 X153.652 Y111.923 E4.4317
G1 X153.362 Y111.798 E4.44482
G1 X153.287 Y111.788 E4.44797
G1 X153.497 Y111.47 E4.46381
G1 X153.636 Y111.187 E4.47692
G1 X153.703 Y110.82 E4.49243
G1 X153.719 Y110.312 E4.51356
G1 X153.756 Y110.021 E4.52576
G1 X153.742 Y109.619 E4.54248
G1 X153.638 Y109.098 E4.56457
G0 F6000 X153.147 Y109.196
G1 F1200 X153.115 Y109.082 E4.56949
G1 X152.944 Y108.622 E4.5899
G1 X152.877 Y108.486 E4.5962
G1 X152.418 Y107.75 E4.63226
G1 X153.018 Y107.75 E4.65721
G1 X153.259 Y107.71 E4.66736
G1 X153.548 Y107.53 E4.68152
G1 X154.28 Y106.798 E4.72456
G1 X154.423 Y106.6 E4.73471
G1 X154.5 Y106.268 E4.74888
G1 X154.5 Y98.25 E5.08223
G1 X157.25 Y98.25 E5.19656
G1 X157.25 Y121.75 E6.17358
G1 X154.5 Y121.749 E6.28791
G1 X154.5 Y113.732 E6.62122
G1 X154.46 Y113.491 E6.63138
G1 X154.28 Y113.202 E6.64553
G1 X153.548 Y112.47 E6.68857
G1 X153.35 Y112.327 E6.69872
G1 X153.018 Y112.25 E6.71289
G1 X152.323 Y112.25 E6.74179
G1 X152.426 Y112.15 E6.74776
G1 X152.529 Y112.027 E6.75443
G1 X153.08 Y111.194 E6.79595
G1 X153.179 Y110.971 E6.80609
G1 X153.204 Y110.804 E6.81311
G1 X153.221 Y110.265 E6.83553
G1 X153.26 Y109.958 E6.8484
G1 X153.251 Y109.717 E6.85843
G1 X153.147 Y109.196 E6.88051
G0 F6000 X152.657 Y109.294
G1 F1200 X152.646 Y109.256 E6.88216
G1 X152.475 Y108.796 E6.90256
G1 X152.453 Y108.751 E6.90464
G1 X151.856 Y107.794 E6.95154
G1 X151.724 Y107.689 E6.95855
G1 X150.701 Y107.344 E7.00344
G1 X150.661 Y107.334 E7.00515
G1 X150.175 Y107.255 E7.02562
G1 X150.128 Y107.252 E7.02758
G1 X149.644 Y107.266 E7.04771
G1 X149.588 Y107.274 E7.05006
G1 X149.296 Y107.35 E7.06261
G1 X148.458 Y107.55 E7.09843
G1 X148.312 Y107.649 E7.10576
G1 X147.781 Y108.402 E7.14407
G1 X147.779 Y108.404 E7.14418
G1 X147.582 Y108.689 E7.15859
G1 X147.553 Y108.745 E7.16121
G1 X147.337 Y109.337 E7.18741
G1 X147.324 Y109.391 E7.18972
G1 X147.26 Y109.884 E7.21039
G1 X147.258 Y109.916 E7.21172
G1 X147.258 Y110.928 E7.25379
G1 X147.319 Y111.091 E7.26103
G1 X148.1 Y111.995 E7.3107
G1 X148.14 Y112.032 E7.31296
G1 X148.431 Y112.249 E7.32805
G1 X148.45 Y112.263 E7.32904
G1 X148.746 Y112.443 E7.34344
G1 X148.779 Y112.46 E7.34498
G1 X149.47 Y112.75 E7.37614
G1 X146.982 Y112.75 E7.47958
G1 X146.805 Y112.823 E7.48754
G1 X146.073 Y113.555 E7.53058
G1 X146 Y113.732 E7.53854
G1 X146 Y122.25 E7.89267
G1 X142.25 Y122.25 E8.04858
G1 X142.25 Y97.75 E9.06717
G1 X146 Y97.751 E9.22308
G1 X146 Y106.268 E9.57717
G1 X146.073 Y106.445 E9.58513
G1 X146.805 Y107.177 E9.62817
G1 X146.982 Y107.25 E9.63613
G1 X153.018 Y107.25 E9.88708
G1 X153.195 Y107.177 E9.89504
G1 X153.927 Y106.445 E9.93808
G1 X154 Y106.268 E9.94604
G1 X154 Y97.75 E10.30018
G1 X157.75 Y97.75 E10.45608
G1 X157.75 Y122.25 E11.47468
G1 X154 Y122.249 E11.63058
G1 X154 Y113.732 E11.98468
G1 X153.927 Y113.555 E11.99264
G1 X153.195 Y112.823 E12.03568
G1 X153.018 Y112.75 E12.04364
G1 X150.33 Y112.75 E12.15539
G1 X150.763 Y112.634 E12.17403
G1 X150.78 Y112.629 E12.17477
G1 X151.136 Y112.505 E12.19044
G1 X151.182 Y112.483 E12.19256
G1 X151.638 Y112.21 E12.21465
G1 X151.684 Y112.175 E12.21706
G1 X152.077 Y111.792 E12.23987
G1 X152.112 Y111.751 E12.24211
G1 X152.663 Y110.918 E12.28364
G1 X152.704 Y110.788 E12.2893
G1 X152.722 Y110.229 E12.31256
G1 X152.764 Y109.895 E12.32655
G1 X152.761 Y109.815 E12.32988
G1 X152.657 Y109.294 E12.35197
G0 F6000 X155.25 Y110.062
G1 F1200 X155.25 Y111.342 E12.40518
G1 X155.151 Y111.243 E12.41101
G1 X155.203 Y110.867 E12.42679
G1 X155.217 Y110.422 E12.4453
G1 X155.244 Y110.21 E12.45418
G1 X155.25 Y110.062 E12.46034
G0 F6000 X147.629 Y107.75
G1 F1200 X147.372 Y108.114 E12.47886
G1 X147.368 Y108.12 E12.47916
G1 X147.171 Y108.405 E12.49357
G1 X147.083 Y108.574 E12.50149
G1 X146.867 Y109.166 E12.52769
G1 X146.828 Y109.326 E12.53454
G1 X146.764 Y109.819 E12.55521
G1 X146.758 Y109.916 E12.55925
G1 X146.758 Y110.928 E12.60132
G1 X146.798 Y111.169 E12.61148
G1 X146.94 Y111.418 E12.62339
G1 X147.659 Y112.25 E12.66911
G1 X146.982 Y112.25 E12.69726
G1 X146.741 Y112.29 E12.70741
G1 X146.452 Y112.47 E12.72157
G1 X145.72 Y113.202 E12.76461
G1 X145.577 Y113.4 E12.77476
G1 X145.5 Y113.732 E12.78893
G1 X145.5 Y121.75 E13.12228
G1 X142.75 Y121.75 E13.23661
G1 X142.75 Y98.25 E14.21363
G1 X145.5 Y98.251 E14.32796
G1 X145.5 Y106.268 E14.66127
G1 X145.54 Y106.509 E14.67143
G1 X145.72 Y106.798 E14.68558
G1 X146.452 Y107.53 E14.72862
G1 X146.65 Y107.673 E14.73877
G1 X146.982 Y107.75 E14.75294
G1 X147.629 Y107.75 E14.77984
G0 F6000 X146.712 Y108.212
G1 F1200 X146.614 Y108.403 E14.78877
G1 X146.398 Y108.995 E14.81497
G1 X146.332 Y109.262 E14.8264
G1 X146.268 Y109.755 E14.84707
G1 X146.258 Y109.916 E14.85378
G1 X146.258 Y110.928 E14.89585
G1 X146.298 Y111.241 E14.90897
G1 X146.415 Y111.534 E14.92209
G1 X146.562 Y111.745 E14.93278
G1 X146.618 Y111.81 E14.93635
G1 X146.376 Y111.907 E14.94718
G1 X146.098 Y112.116 E14.96164
G1 X145.366 Y112.848 E15.00468
G1 X145.173 Y113.098 E15.01781
G1 X145.048 Y113.388 E15.03094
G1 X145 Y113.732 E15.04538
G1 X145 Y121.25 E15.35795
G1 X143.25 Y121.25 E15.4307
G1 X143.25 Y98.75 E16.36614
G1 X145 Y98.751 E16.4389
G1 X145 Y106.268 E16.75142
G1 X145.04 Y106.581 E16.76454
G1 X145.157 Y106.874 E16.77766
G1 X145.366 Y107.152 E16.79212
G1 X146.098 Y107.884 E16.83516
G1 X146.348 Y108.077 E16.84829
G1 X146.638 Y108.202 E16.86141
G1 X146.712 Y108.212 E16.86452
G0 F6000 X146.053 Y108.481
G1 F1200 X145.928 Y108.823 E16.87966
G1 X145.837 Y109.198 E16.8957
G1 X145.773 Y109.691 E16.91637
G1 X145.758 Y109.916 E16.92575
G1 X145.758 Y110.928 E16.96782
G1 X145.798 Y111.299 E16.98333
G1 X145.906 Y111.623 E16.99753
G1 X145.745 Y111.763 E17.0064
G1 X145.013 Y112.495 E17.04944
G1 X144.778 Y112.785 E17.06496
G1 X144.611 Y113.119 E17.08048
G1 X144.518 Y113.481 E17.09602
G1 X144.5 Y113.732 E17.10649
G1 X144.5 Y120.75 E17.39826
G1 X143.75 Y120.75 E17.42944
G1 X143.75 Y99.25 E18.32331
G1 X144.5 Y99.251 E18.35449
G1 X144.5 Y106.268 E18.64622
G1 X144.54 Y106.639 E18.66174
G1 X144.658 Y106.994 E18.67729
G1 X144.848 Y107.316 E18.69283
G1 X145.013 Y107.505 E18.70326
G1 X145.745 Y108.237 E18.7463
G1 X146.035 Y108.472 E18.76182
G1 X146.053 Y108.481 E18.76266
G0 F6000 X145.46 Y108.648
G1 F1200 X145.458 Y108.652 E18.76284
G1 X145.341 Y109.133 E18.78342
G1 X145.277 Y109.626 E18.80409
G1 X145.258 Y109.916 E18.81618
G1 X145.258 Y110.928 E18.85825
G1 X145.298 Y111.35 E18.87587
G1 X145.332 Y111.468 E18.88098
G1 X144.659 Y112.141 E18.92055
G1 X144.389 Y112.468 E18.93818
G1 X144.25 Y112.721 E18.95018
G1 X144.25 Y107.277 E19.17652
G1 X144.351 Y107.474 E19.18572
G1 X144.659 Y107.859 E19.20622
G1 X145.391 Y108.591 E19.24926
G1 X145.46 Y108.648 E19.25298
G0 F6000 X144.907 Y108.815
G1 F1200 X144.845 Y109.069 E19.26385
G1 X144.781 Y109.562 E19.28452
G1 X144.758 Y109.916 E19.29926
G1 X144.758 Y110.928 E19.34134
G1 X144.79 Y111.302 E19.35694
G1 X144.75 Y111.342 E19.3593
G1 X144.75 Y108.658 E19.47088
G1 X144.907 Y108.815 E19.48012
G1 F2700 E14.48012
;MESH:T-Nut-25.stl
G0 F6000 X147.764 Y113.335
G0 X147.764 Y114.514
G0 X148 Y121.75
;TYPE:WALL-INNER
G1 F2700 E19.48012
G1 F1200 X148 Y114.75 E19.77114
G1 X152 Y114.75 E19.93744
G1 X152 Y121.75 E20.22847
G1 X148 Y121.75 E20.39477
G0 F6000 X147.5 Y122.25
;TYPE:WALL-OUTER
G1 F1200 X147.5 Y114.25 E20.72737
G1 X152.5 Y114.25 E20.93525
G1 X152.5 Y122.25 E21.26785
G1 X147.5 Y122.25 E21.47572
G0 F6000 X147.82 Y121.93
G0 X148.16 Y121.26
G0 X148.49 Y121.26
;TYPE:SKIN
G1 F1200 X148.49 Y115.24 E21.72601
G1 X151.51 Y115.24 E21.85156
G1 X151.51 Y121.26 E22.10185
G1 X148.49 Y121.26 E22.2274
G0 F6000 X149.344 Y121.06
G1 F1200 X148.689 Y120.405 E22.26591
G0 F6000 X148.689 Y119.698
G1 F1200 X150.051 Y121.06 E22.34599
G0 F6000 X150.758 Y121.06
G1 F1200 X148.689 Y118.991 E22.46764
G0 F6000 X148.689 Y118.284
G1 F1200 X151.308 Y120.903 E22.62163
G0 F6000 X151.308 Y120.196
G1 F1200 X148.689 Y117.577 E22.77562
G0 F6000 X148.689 Y116.869
G1 F1200 X151.308 Y119.489 E22.92963
G0 F6000 X151.308 Y118.781
G1 F1200 X148.689 Y116.162 E23.08362
G0 F6000 X148.689 Y115.455
G1 F1200 X151.308 Y118.074 E23.23761
G0 F6000 X151.308 Y117.367
G1 F1200 X149.381 Y115.44 E23.35091
G0 F6000 X150.088 Y115.44
G1 F1200 X151.308 Y116.66 E23.42264
G0 F6000 X151.308 Y115.953
G1 F1200 X150.795 Y115.44 E23.4528
G0 F6000 X150.795 Y115
G1 F2700 E18.4528
G0 F6000 X150.795 Y114.91
G0 X148 Y114.52
G0 X148 Y113.335
G0 X148 Y106.665
G0 X148 Y105.48
G0 X148 Y105.25
;TYPE:WALL-INNER
G1 F2700 E23.4528
G1 F1200 X148 Y98.25 E23.74383
G1 X152 Y98.25 E23.91013
G1 X152 Y105.25 E24.20116
G1 X148 Y105.25 E24.36746
G0 F6000 X147.5 Y105.75
;TYPE:WALL-OUTER
G1 F1200 X147.5 Y97.75 E24.70006
G1 X152.5 Y97.75 E24.90793
G1 X152.5 Y105.75 E25.24054
G1 X147.5 Y105.75 E25.44841
G0 F6000 X147.82 Y105.43
G0 X148.16 Y104.76
G0 X148.49 Y104.76
;TYPE:SKIN
G1 F1200 X148.49 Y98.74 E25.69869
G1 X151.51 Y98.74 E25.82425
G1 X151.51 Y104.76 E26.07453
G1 X148.49 Y104.76 E26.20009
G0 F6000 X149.107 Y104.559
G1 F1200 X148.688 Y104.141 E26.2247
G0 F6000 X148.688 Y103.434
G1 F1200 X149.814 Y104.559 E26.29087
G0 F6000 X150.521 Y104.559
G1 F1200 X148.688 Y102.727 E26.39862
G0 F6000 X148.688 Y102.019
G1 F1200 X151.228 Y104.559 E26.54796
G0 F6000 X151.309 Y103.933
G1 F1200 X148.688 Y101.312 E26.70206
G0 F6000 X148.688 Y100.605
G1 F1200 X151.309 Y103.226 E26.85617
G0 F6000 X151.309 Y102.519
G1 F1200 X148.688 Y99.898 E27.01027
G0 F6000 X148.688 Y99.191
G1 F1200 X151.309 Y101.812 E27.16438
G0 F6000 X151.309 Y101.104
G1 F1200 X149.144 Y98.939 E27.29167
G0 F6000 X149.851 Y98.939
G1 F1200 X151.309 Y100.397 E27.3774
G0 F6000 X151.309 Y99.69
G1 F1200 X150.558 Y98.939 E27.42155
M104 S220
G0 F6000 X150.558 Y98.5
G1 F2700 E22.42155
;MESH:NONMESH
G0 F300 X150.558 Y98.5 Z0.4
G0 F6000 X150.558 Y98.41
G0 X147.764 Y98.014
G0 X146.585 Y98.014
G0 X142.25 Y97.75
;TIME_ELAPSED:43.979479
;LAYER:1
M140 S60
M106 S85
;TYPE:SUPPORT
G1 F2700 E27.42155
G1 F1350 X146 Y97.751 E27.57746
G1 X146 Y106.372 E27.93588
G1 X146.878 Y107.25 E27.9875
G1 X153.122 Y107.25 E28.2471
G1 X154 Y106.372 E28.29872
G1 X154 Y97.75 E28.65718
G1 X157.75 Y97.75 E28.81309
G1 X157.75 Y122.25 E29.83168
G1 X154 Y122.249 E29.98759
G1 X154 Y113.628 E30.346
G1 X153.122 Y112.75 E30.39763
G1 X150.337 Y112.75 E30.51341
G1 X150.787 Y112.627 E30.53281
G1 X151.155 Y112.5 E30.549
G1 X151.662 Y112.197 E30.57355
G1 X152.099 Y111.771 E30.59892
G1 X152.703 Y110.859 E30.6444
G1 X152.722 Y110.233 E30.67044
G1 X152.772 Y109.845 E30.6867
G1 X152.648 Y109.264 E30.7114
G1 X152.472 Y108.78 E30.73282
G1 X151.804 Y107.713 E30.78515
G1 X150.678 Y107.338 E30.83449
G1 X150.152 Y107.251 E30.85666
G1 X149.618 Y107.268 E30.87887
G1 X149.316 Y107.345 E30.89183
G1 X148.366 Y107.572 E30.93244
G1 X147.785 Y108.395 E30.97432
G1 X147.562 Y108.72 E30.99071
G1 X147.329 Y109.361 E31.01906
G1 X147.258 Y109.898 E31.04158
G1 X147.258 Y111.02 E31.08823
G1 X148.109 Y112.007 E31.14241
G1 X148.435 Y112.254 E31.15942
G1 X148.758 Y112.45 E31.17512
G1 X149.473 Y112.75 E31.20736
G1 X146.878 Y112.75 E31.31525
G1 X146 Y113.628 E31.36687
G1 X146 Y122.25 E31.72533
G1 X142.25 Y122.25 E31.88124
G1 X142.25 Y97.75 E32.89983
G0 F7500 X142.6 Y98.1
G1 F1350 X142.6 Y121.9 E33.88932
G1 X145 Y121.9 E33.9891
G1 X145 Y98.101 E34.97855
G1 X142.6 Y98.1 E35.07833
G0 F7500 X145 Y98.101
G1 F1350 X145.65 Y98.101 E35.10535
G1 X145.65 Y106.517 E35.45525
G1 X146.733 Y107.6 E35.51893
G1 X147.5 Y107.6 E35.55081
G1 X147.5 Y108.193 E35.57547
G0 F7500 X147.498 Y108.195
G1 F1350 X147.248 Y108.559 E35.59383
G1 X146.987 Y109.277 E35.62559
G1 X146.908 Y109.875 E35.65067
G1 X146.908 Y111.15 E35.70368
G1 X147.5 Y111.837 E35.74138
G1 X147.5 Y112.4 E35.76479
G1 X148.048 Y112.4 E35.78757
G1 X147.868 Y112.263 E35.79697
G1 X147.5 Y111.837 E35.82038
G1 F2700 E30.82038
G0 F7500 X148.17 Y110.682
G0 X148.379 Y109.146
G0 X147.5 Y108.193
G1 F2700 E35.82038
G1 F1350 X147.918 Y107.6 E35.85054
G1 X147.5 Y107.6 E35.86792
G1 F2700 E30.86792
G0 F7500 X148.915 Y108.377
G0 X151.428 Y108.836
G0 X152.5 Y108.165
G1 F2700 E35.86792
G1 F1350 X152.788 Y108.626 E35.89052
G1 X152.985 Y109.167 E35.91446
G1 X153.126 Y109.831 E35.94268
G1 X153.072 Y110.255 E35.96045
G1 X153.05 Y110.97 E35.99019
G1 X152.5 Y111.799 E36.03155
G1 X152.5 Y112.4 E36.05654
G1 X151.955 Y112.4 E36.07919
G1 X152.37 Y111.995 E36.1033
G1 X152.5 Y111.799 E36.11308
G0 F7500 X152.5 Y112.4
G1 F1350 X153.267 Y112.4 E36.14497
G1 X154.35 Y113.483 E36.20864
G1 X154.35 Y121.899 E36.55854
G1 X155 Y121.899 E36.58557
G1 X155 Y98.1 E37.57501
G1 X157.4 Y98.1 E37.67479
G1 X157.4 Y121.9 E38.66428
G1 X155 Y121.899 E38.76406
G1 F2700 E33.76406
G0 F7500 X155 Y123.165
G0 X151.648 Y109.187
G0 X152.5 Y108.165
G1 F2700 E38.76406
G1 F1350 X152.147 Y107.6 E38.79176
G1 X152.5 Y107.6 E38.80644
G1 X152.5 Y108.165 E38.82993
G1 F2700 E33.82993
;MESH:T-Nut-25.stl
G0 F7500 X151.648 Y109.187
G0 X147.75 Y123.165
G0 X147.778 Y121.972
