;FLAVOR:Marlin
;TIME:4284
;Filament used: 3.315m
;Layer height: 0.2
;MINX:122.315
;MINY:90.641
;MINZ:0.24
;MAXX:177.685
;MAXY:129.665
;MAXZ:30.09
;Generated with Cura_SteamEngine 4.4.1
M82 ;absolute extrusion mode
M201 X500.00 Y500.00 Z100.00 E5000.00 ;Setup machine max acceleration
M203 X500.00 Y500.00 Z10.00 E50.00 ;Setup machine max feedrate
M204 P500.00 R1000.00 T500.00 ;Setup Print/Retract/Travel acceleration
M205 X8.00 Y8.00 Z0.40 E5.00 ;Setup Jerk
M220 S100 ;Reset Feedrate
M221 S100 ;Reset Flowrate

G28 ;Home

G92 E0 ;Reset Extruder
M117 Getting the bed & Extruder up to temp!
M140 S60   ; Set Heat Bed temperature
M104 S220.0 ; Set Extruder temperature
M190 S60 ; Wait for Heat Bed temperature
M109 S220.0 ; Wait for Extruder temperature
M117 Bed & Extruder up to temp!

G1 Z2.0 F3000 ;Move Z Axis up
G1 X10.1 Y20 Z0.28 F5000.0 ;Move to start position
G1 X10.1 Y200.0 Z0.28 F1500.0 E15 ;Draw the first line
G1 X10.4 Y200.0 Z0.28 F5000.0 ;Move to side a little
G1 X10.4 Y20 Z0.28 F1500.0 E30 ;Draw the second line
G92 E0 ;Reset Extruder
G1 Z2.0 F3000 ;Move Z Axis up
G92 E0
G92 E0
G1 F2700 E-5
;LAYER_COUNT:146
;LAYER:-6
M107
G0 F9000 X124.373 Y93.307 Z0.24
;TYPE:SUPPORT-INTERFACE
G1 F2700 E0
G1 F1125 X124.677 Y92.953 E0.03725
G1 X124.81 Y92.809 E0.05289
G1 X124.917 Y92.709 E0.06459
G1 X125.212 Y92.45 E0.09592
G1 X125.427 Y92.283 E0.11765
G1 X125.658 Y92.127 E0.1399
G1 X125.926 Y91.969 E0.16474
G1 X126.183 Y91.839 E0.18773
G1 X126.453 Y91.723 E0.21118
G1 X126.709 Y91.631 E0.2329
G1 X127.001 Y91.547 E0.25715
G1 X127.262 Y91.491 E0.27846
G1 X127.582 Y91.443 E0.30429
G1 X128.05 Y91.407 E0.34176
G1 X128.242 Y91.4 E0.3571
G1 X171.924 Y91.404 E3.84398
G1 X172.301 Y91.428 E3.87414
G1 X172.599 Y91.465 E3.89811
G1 X172.883 Y91.52 E3.9212
G1 X173.174 Y91.596 E3.94521
G1 X173.432 Y91.68 E3.96687
G1 X173.711 Y91.791 E3.99083
G1 X173.969 Y91.913 E4.01362
G1 X174.228 Y92.057 E4.03727
G1 X174.447 Y92.196 E4.05798
G1 X174.713 Y92.394 E4.08445
G1 X175.067 Y92.698 E4.12169
G1 X175.211 Y92.831 E4.13734
G1 X175.311 Y92.938 E4.14903
G1 X175.57 Y93.233 E4.18037
G1 X175.737 Y93.448 E4.2021
G1 X175.893 Y93.679 E4.22435
G1 X176.051 Y93.947 E4.24918
G1 X176.183 Y94.206 E4.27239
G1 X176.286 Y94.445 E4.29316
G1 X176.391 Y94.737 E4.31793
G1 X176.472 Y95.019 E4.34135
G1 X176.528 Y95.273 E4.36211
G1 X176.577 Y95.603 E4.38875
G1 X176.613 Y96.064 E4.42566
G1 X176.62 Y96.249 E4.44043
G1 X176.616 Y98.904 E4.65237
G1 X176.592 Y99.281 E4.68252
G1 X176.555 Y99.579 E4.70649
G1 X176.5 Y99.863 E4.72958
G1 X176.424 Y100.154 E4.75359
G1 X176.34 Y100.412 E4.77525
G1 X176.229 Y100.691 E4.79922
G1 X176.107 Y100.949 E4.822
G1 X175.963 Y101.208 E4.84566
G1 X175.824 Y101.427 E4.86636
G1 X175.626 Y101.693 E4.89283
G1 X175.322 Y102.047 E4.93008
G1 X175.189 Y102.191 E4.94573
G1 X175.073 Y102.299 E4.95838
G1 X174.804 Y102.536 E4.987
G1 X174.572 Y102.717 E5.01048
G1 X174.341 Y102.873 E5.03274
G1 X174.073 Y103.031 E5.05757
G1 X173.816 Y103.161 E5.08056
G1 X173.547 Y103.276 E5.10391
G1 X173.29 Y103.369 E5.12573
G1 X172.998 Y103.453 E5.14998
G1 X172.737 Y103.509 E5.17129
G1 X172.417 Y103.557 E5.19712
G1 X171.949 Y103.593 E5.23459
G1 X171.757 Y103.6 E5.24992
G1 X167.121 Y103.6 E5.61999
G1 X166.453 Y103.642 E5.67342
G1 X165.782 Y103.771 E5.72796
G1 X165.133 Y103.984 E5.78249
G1 X164.516 Y104.276 E5.83697
G1 X163.941 Y104.644 E5.89147
G1 X163.417 Y105.082 E5.94599
G1 X162.953 Y105.582 E6.00044
G1 X162.554 Y106.138 E6.05506
G1 X162.23 Y106.738 E6.10949
G1 X161.985 Y107.372 E6.16375
G1 X161.852 Y107.879 E6.20559
G1 X161.799 Y108.132 E6.22622
G1 X161.683 Y108.541 E6.26016
G1 X161.539 Y109.205 E6.3144
G1 X161.478 Y109.884 E6.36882
G1 X161.504 Y110.571 E6.42369
G1 X161.674 Y111.468 E6.49657
G1 X161.786 Y111.863 E6.52934
G1 X161.846 Y112.143 E6.5522
G1 X162.027 Y112.788 E6.60568
G1 X162.294 Y113.416 E6.66015
G1 X162.637 Y114.007 E6.7147
G1 X163.052 Y114.549 E6.76919
G1 X163.533 Y115.035 E6.82377
G1 X164.071 Y115.455 E6.87825
G1 X164.657 Y115.804 E6.9327
G1 X165.282 Y116.078 E6.98717
G1 X165.938 Y116.269 E7.04171
G1 X166.609 Y116.377 E7.09596
G1 X167.114 Y116.4 E7.13631
G1 X171.924 Y116.404 E7.52027
G1 X172.301 Y116.428 E7.55042
G1 X172.599 Y116.465 E7.57439
G1 X172.883 Y116.52 E7.59749
G1 X173.174 Y116.596 E7.62149
G1 X173.432 Y116.68 E7.64315
G1 X173.711 Y116.791 E7.66712
G1 X173.969 Y116.913 E7.6899
G1 X174.228 Y117.057 E7.71356
G1 X174.447 Y117.196 E7.73426
G1 X174.713 Y117.394 E7.76073
G1 X175.067 Y117.698 E7.79798
G1 X175.211 Y117.831 E7.81363
G1 X175.311 Y117.938 E7.82532
G1 X175.57 Y118.233 E7.85665
G1 X175.737 Y118.448 E7.87839
G1 X175.893 Y118.679 E7.90064
G1 X176.051 Y118.947 E7.92547
G1 X176.183 Y119.206 E7.94867
G1 X176.286 Y119.445 E7.96945
G1 X176.391 Y119.737 E7.99422
G1 X176.472 Y120.019 E8.01764
G1 X176.528 Y120.275 E8.03856
G1 X176.578 Y120.613 E8.06583
G1 X176.612 Y121.058 E8.10146
G1 X176.62 Y121.256 E8.11728
G1 X176.621 Y123.744 E8.31588
G1 X176.615 Y123.932 E8.33089
G1 X176.593 Y124.278 E8.35857
G1 X176.556 Y124.573 E8.3823
G1 X176.501 Y124.86 E8.40563
G1 X176.427 Y125.15 E8.42952
G1 X176.343 Y125.406 E8.45102
G1 X176.228 Y125.695 E8.47585
G1 X176.101 Y125.962 E8.49945
G1 X175.982 Y126.177 E8.51907
G1 X175.822 Y126.428 E8.54283
G1 X175.622 Y126.699 E8.56972
G1 X175.338 Y127.031 E8.60459
G1 X175.213 Y127.167 E8.61934
G1 X175.085 Y127.288 E8.6334
G1 X174.818 Y127.525 E8.66189
G1 X174.581 Y127.71 E8.68589
G1 X174.338 Y127.876 E8.70939
G1 X174.101 Y128.017 E8.7314
G1 X173.836 Y128.152 E8.75514
G1 X173.564 Y128.27 E8.77881
G1 X173.296 Y128.367 E8.80156
G1 X173.009 Y128.45 E8.82541
G1 X172.776 Y128.502 E8.84446
G1 X172.422 Y128.555 E8.87304
G1 X171.938 Y128.593 E8.91179
G1 X171.771 Y128.6 E8.92513
G1 X128.076 Y128.596 E12.41306
G1 X127.699 Y128.572 E12.44321
G1 X127.401 Y128.535 E12.46718
G1 X127.117 Y128.48 E12.49027
G1 X126.826 Y128.404 E12.51428
G1 X126.566 Y128.319 E12.53612
G1 X126.289 Y128.209 E12.55991
G1 X126.03 Y128.086 E12.58279
G1 X125.773 Y127.944 E12.60623
G1 X125.552 Y127.803 E12.62716
G1 X125.287 Y127.606 E12.65352
G1 X124.933 Y127.302 E12.69076
G1 X124.787 Y127.167 E12.70664
G1 X124.681 Y127.053 E12.71906
G1 X124.43 Y126.767 E12.74944
G1 X124.263 Y126.552 E12.77117
G1 X124.099 Y126.31 E12.7945
G1 X123.953 Y126.061 E12.81754
G1 X123.819 Y125.796 E12.84125
G1 X123.703 Y125.526 E12.86471
G1 X123.611 Y125.27 E12.88642
G1 X123.527 Y124.978 E12.91067
G1 X123.471 Y124.717 E12.93198
G1 X123.423 Y124.397 E12.95781
G1 X123.386 Y123.919 E12.99608
G1 X123.38 Y123.751 E13.0095
G1 X123.384 Y121.096 E13.22144
G1 X123.408 Y120.719 E13.25159
G1 X123.445 Y120.421 E13.27556
G1 X123.5 Y120.137 E13.29865
G1 X123.576 Y119.846 E13.32266
G1 X123.66 Y119.588 E13.34432
G1 X123.771 Y119.309 E13.36829
G1 X123.893 Y119.051 E13.39107
G1 X124.032 Y118.801 E13.4139
G1 X124.184 Y118.563 E13.43644
G1 X124.374 Y118.307 E13.46189
G1 X124.678 Y117.953 E13.49914
G1 X124.811 Y117.809 E13.51479
G1 X124.918 Y117.709 E13.52648
G1 X125.213 Y117.45 E13.55781
G1 X125.428 Y117.283 E13.57955
G1 X125.659 Y117.127 E13.6018
G1 X125.927 Y116.969 E13.62663
G1 X126.184 Y116.839 E13.64962
G1 X126.454 Y116.723 E13.67308
G1 X126.71 Y116.631 E13.69479
G1 X127.002 Y116.547 E13.71905
G1 X127.263 Y116.491 E13.74035
G1 X127.583 Y116.443 E13.76618
G1 X128.051 Y116.407 E13.80365
G1 X128.243 Y116.4 E13.81899
G1 X132.889 Y116.4 E14.18985
G1 X133.557 Y116.358 E14.24328
G1 X134.228 Y116.229 E14.29782
G1 X134.877 Y116.016 E14.35235
G1 X135.494 Y115.724 E14.40684
G1 X136.069 Y115.356 E14.46133
G1 X136.593 Y114.918 E14.51585
G1 X137.057 Y114.418 E14.5703
G1 X137.456 Y113.862 E14.62492
G1 X137.78 Y113.262 E14.67936
G1 X138.025 Y112.629 E14.73354
G1 X138.145 Y112.183 E14.77041
G1 X138.224 Y111.826 E14.79959
G1 X138.326 Y111.474 E14.82885
G1 X138.47 Y110.82 E14.8823
G1 X138.533 Y110.139 E14.93689
G1 X138.509 Y109.451 E14.99185
G1 X138.326 Y108.504 E15.06884
G1 X138.238 Y108.201 E15.09403
G1 X138.153 Y107.817 E15.12542
G1 X137.966 Y107.173 E15.17895
G1 X137.695 Y106.547 E15.2334
G1 X137.347 Y105.959 E15.28794
G1 X136.928 Y105.42 E15.34244
G1 X136.444 Y104.939 E15.39691
G1 X135.903 Y104.522 E15.45143
G1 X135.314 Y104.177 E15.50592
G1 X134.687 Y103.909 E15.56035
G1 X134.029 Y103.722 E15.61496
G1 X133.358 Y103.62 E15.66913
G1 X132.893 Y103.6 E15.70629
G1 X128.075 Y103.596 E16.09088
G1 X127.698 Y103.572 E16.12103
G1 X127.4 Y103.535 E16.145
G1 X127.116 Y103.48 E16.1681
G1 X126.825 Y103.404 E16.1921
G1 X126.565 Y103.319 E16.21394
G1 X126.288 Y103.209 E16.23773
G1 X126.029 Y103.086 E16.26062
G1 X125.771 Y102.943 E16.28416
G1 X125.552 Y102.804 E16.30487
G1 X125.286 Y102.606 E16.33134
G1 X124.932 Y102.302 E16.36859
G1 X124.788 Y102.169 E16.38423
G1 X124.68 Y102.053 E16.39689
G1 X124.429 Y101.767 E16.42726
G1 X124.262 Y101.552 E16.44899
G1 X124.103 Y101.316 E16.47171
G1 X123.948 Y101.053 E16.49608
G1 X123.818 Y100.796 E16.51907
G1 X123.702 Y100.526 E16.54252
G1 X123.61 Y100.27 E16.56424
G1 X123.526 Y99.978 E16.58849
G1 X123.47 Y99.717 E16.6098
G1 X123.422 Y99.397 E16.63563
G1 X123.385 Y98.919 E16.6739
G1 X123.379 Y98.751 E16.68732
G1 X123.383 Y96.096 E16.89925
G1 X123.407 Y95.719 E16.92941
G1 X123.444 Y95.421 E16.95338
G1 X123.499 Y95.137 E16.97647
G1 X123.575 Y94.846 E17.00048
G1 X123.659 Y94.588 E17.02214
G1 X123.77 Y94.309 E17.0461
G1 X123.892 Y94.051 E17.06889
G1 X124.031 Y93.801 E17.09172
G1 X124.183 Y93.563 E17.11426
G1 X124.373 Y93.307 E17.13971
G0 F9000 X124.8 Y92.819
G1 F1125 X124.8 Y102.18 E17.88694
G0 F9000 X126.4 Y103.253
G1 F1125 X126.4 Y91.745 E18.80556
G0 F9000 X128 Y91.41
G1 F1125 X128 Y103.591 E19.7779
G0 F9000 X129.6 Y103.597
G1 F1125 X129.6 Y91.401 E20.75144
G0 F9000 X131.2 Y91.401
G1 F1125 X131.2 Y103.598 E21.72506
G0 F9000 X132.8 Y103.599
G1 F1125 X132.8 Y91.401 E22.69876
G0 F9000 X134.4 Y91.401
G1 F1125 X134.4 Y103.827 E23.69065
G0 F9000 X136 Y104.596
G1 F1125 X136 Y91.401 E24.74393
G0 F9000 X137.6 Y91.401
G1 F1125 X137.6 Y106.386 E25.9401
G1 F2700 E20.9401
G0 F9000 X136.744 Y107.029
G0 X136.81 Y112.817
G0 X137.6 Y113.595
G1 F2700 E25.9401
G1 F1125 X137.6 Y128.596 E27.13755
G0 F9000 X136 Y128.596
G1 F1125 X136 Y115.4 E28.19091
G0 F9000 X134.4 Y116.172
G1 F1125 X134.4 Y128.596 E29.18265
G0 F9000 X132.8 Y128.596
G1 F1125 X132.8 Y116.4 E30.15618
G0 F9000 X131.2 Y116.4
G1 F1125 X131.2 Y128.596 E31.12972
G0 F9000 X129.6 Y128.596
G1 F1125 X129.6 Y116.4 E32.10326
G0 F9000 X128 Y116.41
G1 F1125 X128 Y128.591 E33.0756
G0 F9000 X126.4 Y128.253
G1 F1125 X126.4 Y116.746 E33.99414
G0 F9000 X124.8 Y117.82
G1 F1125 X124.8 Y127.179 E34.74121
G1 F2700 E29.74121
G0 F9000 X124.231 Y128.102
G0 X125.234 Y128.862
G0 X126.194 Y129.317
G0 X127.233 Y129.587
G0 X127.768 Y129.63
G0 X139.2 Y129.665
G0 X139.2 Y128.597
G1 F2700 E34.74121
G1 F1125 X139.2 Y91.402 E37.71028
G0 F9000 X140.8 Y91.402
G1 F1125 X140.8 Y128.597 E40.67934
G0 F9000 X142.4 Y128.597
G1 F1125 X142.4 Y91.402 E43.64841
G0 F9000 X144 Y91.402
G1 F1125 X144 Y128.597 E46.61748
G0 F9000 X145.6 Y128.597
G1 F1125 X145.6 Y91.402 E49.58654
G0 F9000 X147.2 Y91.402
G1 F1125 X147.2 Y128.597 E52.55561
G0 F9000 X148.8 Y128.597
G1 F1125 X148.8 Y91.402 E55.52467
G0 F9000 X150.4 Y91.403
G1 F1125 X150.4 Y128.598 E58.49374
G0 F9000 X152 Y128.598
G1 F1125 X152 Y91.403 E61.4628
G0 F9000 X153.6 Y91.403
G1 F1125 X153.6 Y128.598 E64.43187
G0 F9000 X155.2 Y128.598
G1 F1125 X155.2 Y91.403 E67.40094
G0 F9000 X156.8 Y91.403
G1 F1125 X156.8 Y128.598 E70.37
G0 F9000 X158.4 Y128.598
G1 F1125 X158.4 Y91.403 E73.33907
G0 F9000 X160 Y91.403
G1 F1125 X160 Y128.598 E76.30813
G0 F9000 X161.6 Y128.599
G1 F1125 X161.6 Y111.078 E77.70673
G0 F9000 X161.6 Y108.924
G1 F1125 X161.6 Y91.404 E79.10526
G0 F9000 X163.2 Y91.404
G1 F1125 X163.2 Y105.316 E80.21577
G0 F9000 X164.8 Y104.142
G1 F1125 X164.8 Y91.404 E81.23257
G0 F9000 X166.4 Y91.404
G1 F1125 X166.4 Y103.653 E82.21034
G0 F9000 X168 Y103.6
G1 F1125 X168 Y91.404 E83.18388
G0 F9000 X169.6 Y91.404
G1 F1125 X169.6 Y103.6 E84.15742
G0 F9000 X171.2 Y103.6
G1 F1125 X171.2 Y91.404 E85.13096
G0 F9000 X172.8 Y91.504
G1 F1125 X172.8 Y103.496 E86.08821
G0 F9000 X174.4 Y102.834
G1 F1125 X174.4 Y92.167 E86.93969
G0 F9000 X176 Y93.861
G1 F1125 X176 Y101.142 E87.5209
G1 F2700 E82.5209
G0 F9000 X176.697 Y102.036
G0 X173.001 Y115.458
G0 X172.8 Y116.504
G1 F2700 E87.5209
G1 F1125 X172.8 Y128.497 E88.47823
G0 F9000 X171.2 Y128.599
G1 F1125 X171.2 Y116.404 E89.45169
G0 F9000 X169.6 Y116.403
G1 F1125 X169.6 Y128.599 E90.42522
G0 F9000 X168 Y128.599
G1 F1125 X168 Y116.401 E91.39892
G0 F9000 X166.4 Y116.344
G1 F1125 X166.4 Y128.599 E92.37717
G0 F9000 X164.8 Y128.599
G1 F1125 X164.8 Y115.867 E93.39349
G0 F9000 X163.2 Y114.699
G1 F1125 X163.2 Y128.599 E94.50305
G1 F2700 E89.50305
G0 F9000 X163.2 Y129.665
G0 X171.998 Y129.656
G0 X173.274 Y129.481
G0 X173.561 Y129.379
G0 X174.611 Y128.953
G0 X174.4 Y127.834
G1 F2700 E94.50305
G1 F1125 X174.4 Y117.167 E95.35454
G0 F9000 X176 Y118.861
M104 S220
G1 F1125 X176 Y126.145 E95.93598
G1 F2700 E90.93598
G0 F300 X176 Y126.145 Z0.54
G0 F9000 X177.207 Y126.114
G0 X177.54 Y125.095
G0 X177.657 Y124.02
G0 X177.675 Y121.004
G0 X176.452 Y120.449
;TIME_ELAPSED:77.846646
;LAYER:-5
M140 S60
;TYPE:SUPPORT
G1 F2700 E95.93598
G1 F1125 X172.564 Y116.561 E96.62177
G1 X172.296 Y116.528 E96.65545
G1 X171.92 Y116.504 E96.70245
G1 X170.809 Y116.503 E96.84102
G1 X176.52 Y122.214 E97.84837
G1 X176.52 Y123.74 E98.0387
G1 X176.515 Y123.907 E98.05954
G1 X169.11 Y116.502 E99.3657
G1 X167.412 Y116.5 E99.57748
G1 X176.256 Y125.345 E101.13755
G1 X176.249 Y125.368 E101.14055
G1 X176.133 Y125.658 E101.1795
G1 X176.019 Y125.899 E101.21276
G1 X175.885 Y126.144 E101.24759
G1 X175.74 Y126.371 E101.28118
G1 X175.675 Y126.46 E101.29493
G1 X165.444 Y116.229 E103.09956
G0 F9000 X165.246 Y116.171
G1 F1125 X164.61 Y115.893 E103.18613
G1 X164.013 Y115.537 E103.27283
G1 X163.464 Y115.109 E103.35965
G1 X162.975 Y114.614 E103.44643
G1 X162.553 Y114.062 E103.5331
G1 X162.203 Y113.46 E103.61995
G1 X161.93 Y112.821 E103.70662
G1 X161.89 Y112.676 E103.72538
G1 X140.715 Y91.501 E107.46041
G1 X139.018 Y91.501 E107.67207
G1 X174.866 Y127.348 E113.99515
G1 X174.752 Y127.449 E114.01415
G1 X174.525 Y127.627 E114.05013
G1 X174.288 Y127.787 E114.08579
G1 X174.047 Y127.931 E114.12081
G1 X173.851 Y128.03 E114.1482
G1 X137.321 Y91.501 E120.59158
G1 X135.624 Y91.501 E120.80324
G1 X172.558 Y128.434 E127.31788
G1 X172.412 Y128.457 E127.33632
G1 X171.938 Y128.494 E127.39562
G1 X171.766 Y128.499 E127.41708
G1 X170.925 Y128.498 E127.52198
G1 X133.926 Y91.5 E134.04809
G1 X132.229 Y91.5 E134.25974
G1 X169.228 Y128.498 E140.78585
G1 X167.531 Y128.498 E140.99751
G1 X130.532 Y91.5 E147.52362
G1 X128.835 Y91.5 E147.73528
G1 X165.834 Y128.498 E154.26139
G1 X164.136 Y128.498 E154.47318
G1 X127.236 Y91.598 E160.98191
G1 X127.021 Y91.644 E161.00934
G1 X126.736 Y91.727 E161.04636
G1 X126.492 Y91.814 E161.07867
G1 X126.216 Y91.933 E161.11616
G1 X125.989 Y92.048 E161.14789
G1 X162.439 Y128.498 E167.57726
G1 X160.742 Y128.498 E167.78892
G1 X125.007 Y92.763 E174.09216
G1 X124.982 Y92.783 E174.09615
G1 X124.89 Y92.869 E174.11186
G1 X124.74 Y93.031 E174.1394
G1 X124.45 Y93.367 E174.19475
G1 X124.263 Y93.62 E174.23399
G1 X124.225 Y93.678 E174.24264
G1 X134.218 Y103.671 E176.00529
G1 X134.049 Y103.623 E176.0272
G1 X133.367 Y103.52 E176.11323
G1 X132.894 Y103.499 E176.17229
G1 X132.349 Y103.499 E176.24026
G1 X123.682 Y94.832 E177.76902
G1 X123.672 Y94.864 E177.7732
G1 X123.593 Y95.168 E177.81238
G1 X123.542 Y95.436 E177.8464
G1 X123.506 Y95.723 E177.88248
G1 X123.481 Y96.114 E177.93135
G1 X123.48 Y96.327 E177.95791
G1 X130.65 Y103.497 E179.22262
G1 X128.952 Y103.496 E179.4344
G1 X123.479 Y98.023 E180.39978
G1 X123.478 Y98.732 E180.48821
G1 X123.484 Y98.912 E180.51067
G1 X123.521 Y99.386 E180.56997
G1 X123.566 Y99.697 E180.60917
G1 X123.597 Y99.838 E180.62717
G1 X127.142 Y103.383 E181.25247
G1 X126.842 Y103.305 E181.29113
G1 X126.6 Y103.226 E181.32288
G1 X126.334 Y103.12 E181.3586
G1 X126.062 Y102.99 E181.3962
G1 X125.826 Y102.859 E181.42986
G1 X125.599 Y102.715 E181.46339
G1 X125.346 Y102.526 E181.50278
G1 X125.009 Y102.237 E181.55815
G1 X124.848 Y102.087 E181.5856
G1 X124.752 Y101.984 E181.60316
