;FLAVOR:Marlin
;TIME:2617
;Filament used: 2.04006m
;Layer height: 0.2
;MINX:122.613
;MINY:82.336
;MINZ:0.24
;MAXX:177.664
;MAXY:137.664
;MAXZ:17.09
;Generated with Cura_SteamEngine 4.4.1
M82 ;absolute extrusion mode
M201 X500.00 Y500.00 Z100.00 E5000.00 ;Setup machine max acceleration
M203 X500.00 Y500.00 Z10.00 E50.00 ;Setup machine max feedrate
M204 P500.00 R1000.00 T500.00 ;Setup Print/Retract/Travel acceleration
M205 X8.00 Y8.00 Z0.40 E5.00 ;Setup Jerk
M220 S100 ;Reset Feedrate
M221 S100 ;Reset Flowrate

G28 ;Home

G92 E0 ;Reset Extruder
M117 Getting the bed & Extruder up to temp!
M140 S60   ; Set Heat Bed temperature
M104 S220.0 ; Set Extruder temperature
M190 S60 ; Wait for Heat Bed temperature
M109 S220.0 ; Wait for Extruder temperature
M117 Bed & Extruder up to temp!

G1 Z2.0 F3000 ;Move Z Axis up
G1 X10.1 Y20 Z0.28 F5000.0 ;Move to start position
G1 X10.1 Y200.0 Z0.28 F1500.0 E15 ;Draw the first line
G1 X10.4 Y200.0 Z0.28 F5000.0 ;Move to side a little
G1 X10.4 Y20 Z0.28 F1500.0 E30 ;Draw the second line
G92 E0 ;Reset Extruder
G1 Z2.0 F3000 ;Move Z Axis up
G92 E0
G92 E0
G1 F2700 E-5
;LAYER_COUNT:80
;LAYER:-6
M107
G0 F9000 X125.817 Y89.276 Z0.24
;TYPE:SUPPORT-INTERFACE
G1 F2700 E0
G1 F1125 X126.024 Y89.015 E0.02659
G1 X126.696 Y88.222 E0.10956
G1 X127.038 Y87.792 E0.15342
G1 X127.297 Y87.491 E0.18512
G1 X127.484 Y87.298 E0.20657
G1 X127.822 Y86.996 E0.24275
G1 X129.003 Y86.032 E0.36444
G1 X129.151 Y85.922 E0.37916
G1 X129.72 Y85.539 E0.43391
G1 X129.924 Y85.416 E0.45293
G1 X131.398 Y84.621 E0.58661
G1 X131.774 Y84.447 E0.61968
G1 X131.998 Y84.356 E0.63898
G1 X132.249 Y84.272 E0.66011
G1 X133.787 Y83.809 E0.78832
G1 X133.976 Y83.759 E0.80393
G1 X134.572 Y83.627 E0.85266
G1 X134.885 Y83.586 E0.87786
G1 X136.538 Y83.423 E1.01045
G1 X137.061 Y83.4 E1.05223
G1 X171.904 Y83.404 E3.83355
G1 X172.281 Y83.428 E3.86371
G1 X172.579 Y83.465 E3.88768
G1 X172.863 Y83.52 E3.91077
G1 X173.154 Y83.596 E3.93478
G1 X173.412 Y83.68 E3.95644
G1 X173.691 Y83.791 E3.98041
G1 X173.949 Y83.913 E4.00319
G1 X174.208 Y84.057 E4.02684
G1 X174.427 Y84.196 E4.04755
G1 X174.693 Y84.394 E4.07402
G1 X175.047 Y84.698 E4.11126
G1 X175.191 Y84.831 E4.12691
G1 X175.291 Y84.938 E4.1386
G1 X175.55 Y85.233 E4.16994
G1 X175.717 Y85.448 E4.19167
G1 X175.873 Y85.679 E4.21392
G1 X176.031 Y85.947 E4.23875
G1 X176.163 Y86.206 E4.26196
G1 X176.266 Y86.445 E4.28273
G1 X176.373 Y86.743 E4.30801
G1 X176.453 Y87.022 E4.33118
G1 X176.509 Y87.283 E4.35248
G1 X176.557 Y87.603 E4.37831
G1 X176.593 Y88.064 E4.41523
G1 X176.6 Y88.249 E4.43
G1 X176.595 Y91.468 E4.68696
G1 X176.582 Y91.662 E4.70248
G1 X176.587 Y92.404 E4.76171
G1 X176.593 Y92.482 E4.76795
G1 X176.6 Y92.656 E4.78186
G1 X176.597 Y93.882 E4.87972
G1 X176.573 Y94.272 E4.91091
G1 X176.535 Y94.579 E4.9356
G1 X176.481 Y94.859 E4.95837
G1 X176.404 Y95.154 E4.9827
G1 X176.32 Y95.412 E5.00436
G1 X176.209 Y95.691 E5.02833
G1 X176.087 Y95.949 E5.05111
G1 X175.943 Y96.208 E5.07477
G1 X175.804 Y96.427 E5.09547
G1 X175.606 Y96.693 E5.12194
G1 X175.302 Y97.047 E5.15919
G1 X175.169 Y97.191 E5.17484
G1 X175.053 Y97.299 E5.18749
G1 X174.784 Y97.536 E5.21611
G1 X174.552 Y97.717 E5.2396
G1 X174.321 Y97.873 E5.26185
G1 X174.053 Y98.031 E5.28668
G1 X173.796 Y98.161 E5.30967
G1 X173.527 Y98.276 E5.33302
G1 X173.27 Y98.369 E5.35484
G1 X172.978 Y98.453 E5.37909
G1 X172.717 Y98.509 E5.4004
G1 X172.397 Y98.557 E5.42623
G1 X171.929 Y98.593 E5.4637
G1 X171.737 Y98.6 E5.47904
G1 X143.987 Y98.6 E7.69416
G1 X143.319 Y98.642 E7.74759
G1 X142.648 Y98.771 E7.80213
G1 X141.999 Y98.984 E7.85666
G1 X141.382 Y99.276 E7.91115
G1 X140.807 Y99.644 E7.96564
G1 X140.283 Y100.082 E8.02016
G1 X139.819 Y100.582 E8.07461
G1 X139.42 Y101.138 E8.12923
G1 X139.096 Y101.738 E8.18366
G1 X138.85 Y102.374 E8.2381
G1 X138.684 Y103.043 E8.29312
G1 X138.6 Y103.982 E8.36837
G1 X138.596 Y131.904 E10.59723
G1 X138.572 Y132.281 E10.62738
G1 X138.535 Y132.579 E10.65135
G1 X138.48 Y132.863 E10.67445
G1 X138.404 Y133.154 E10.69845
G1 X138.32 Y133.412 E10.72011
G1 X138.209 Y133.691 E10.74408
G1 X138.087 Y133.949 E10.76686
G1 X137.943 Y134.208 E10.79052
G1 X137.804 Y134.427 E10.81122
G1 X137.606 Y134.693 E10.83769
G1 X137.302 Y135.047 E10.87494
G1 X137.169 Y135.191 E10.89059
G1 X137.053 Y135.299 E10.90324
G1 X136.784 Y135.536 E10.93186
G1 X136.552 Y135.717 E10.95535
G1 X136.321 Y135.873 E10.9776
G1 X136.053 Y136.031 E11.00243
G1 X135.796 Y136.161 E11.02542
G1 X135.527 Y136.276 E11.04877
G1 X135.27 Y136.369 E11.07059
G1 X134.978 Y136.453 E11.09484
G1 X134.717 Y136.509 E11.11615
G1 X134.397 Y136.557 E11.14198
G1 X133.929 Y136.593 E11.17945
G1 X133.737 Y136.6 E11.19479
G1 X132.478 Y136.595 E11.29529
G1 X132.257 Y136.582 E11.31296
G1 X132.018 Y136.585 E11.33204
G1 X132.018 Y136.567 E11.33347
G1 X131.267 Y136.6 E11.39348
G1 X128.096 Y136.596 E11.6466
G1 X127.719 Y136.572 E11.67676
G1 X127.421 Y136.535 E11.70073
G1 X127.137 Y136.48 E11.72382
G1 X126.846 Y136.404 E11.74783
G1 X126.586 Y136.319 E11.76966
G1 X126.309 Y136.209 E11.79345
G1 X126.05 Y136.086 E11.81634
G1 X125.792 Y135.943 E11.83989
G1 X125.573 Y135.804 E11.86059
G1 X125.307 Y135.606 E11.88706
G1 X124.953 Y135.302 E11.92431
G1 X124.809 Y135.169 E11.93996
G1 X124.701 Y135.053 E11.95261
G1 X124.45 Y134.767 E11.98298
G1 X124.283 Y134.552 E12.00472
G1 X124.124 Y134.316 E12.02743
G1 X123.969 Y134.053 E12.0518
G1 X123.839 Y133.796 E12.07479
G1 X123.723 Y133.526 E12.09825
G1 X123.631 Y133.27 E12.11996
G1 X123.547 Y132.978 E12.14422
G1 X123.491 Y132.717 E12.16552
G1 X123.443 Y132.397 E12.19135
G1 X123.406 Y131.919 E12.22962
G1 X123.4 Y131.751 E12.24304
G1 X123.402 Y96.962 E15.02005
G1 X123.426 Y96.5 E15.05698
G1 X123.595 Y94.779 E15.19502
G1 X123.66 Y94.37 E15.22808
G1 X123.712 Y94.129 E15.24776
G1 X123.791 Y93.841 E15.27159
G1 X124.304 Y92.161 E15.41181
G1 X124.427 Y91.815 E15.44113
G1 X124.464 Y91.731 E15.44845
G1 X124.691 Y91.252 E15.49076
G1 X125.46 Y89.83 E15.61981
G1 X125.696 Y89.451 E15.65545
G1 X125.817 Y89.276 E15.67243
G0 F9000 X126.4 Y88.571
G1 F1125 X126.4 Y136.245 E19.47798
G0 F9000 X128 Y136.589
G1 F1125 X128 Y86.85 E23.44836
G0 F9000 X129.6 Y85.619
G1 F1125 X129.6 Y136.597 E27.51764
G0 F9000 X131.2 Y136.599
G1 F1125 X131.2 Y84.727 E31.65829
G0 F9000 X132.8 Y84.106
G1 F1125 X132.8 Y136.596 E35.84827
G0 F9000 X134.4 Y136.557
G1 F1125 X134.4 Y83.665 E40.07034
G0 F9000 X136 Y83.476
G1 F1125 X136 Y136.058 E44.26766
G0 F9000 X137.6 Y134.7
G1 F1125 X137.6 Y83.401 E48.36257
G0 F9000 X139.2 Y83.401
G1 F1125 X139.2 Y101.546 E49.81098
G0 F9000 X140.8 Y99.65
G1 F1125 X140.8 Y83.401 E51.10805
G0 F9000 X142.4 Y83.401
G1 F1125 X142.4 Y98.853 E52.34149
G0 F9000 X144 Y98.6
G1 F1125 X144 Y83.401 E53.55474
G0 F9000 X145.6 Y83.401
G1 F1125 X145.6 Y98.6 E54.76799
G0 F9000 X147.2 Y98.6
G1 F1125 X147.2 Y83.402 E55.98116
G0 F9000 X148.8 Y83.402
G1 F1125 X148.8 Y98.6 E57.19433
G0 F9000 X150.4 Y98.6
G1 F1125 X150.4 Y83.402 E58.4075
G0 F9000 X152 Y83.402
G1 F1125 X152 Y98.6 E59.62067
G0 F9000 X153.6 Y98.6
G1 F1125 X153.6 Y83.402 E60.83384
G0 F9000 X155.2 Y83.403
G1 F1125 X155.2 Y98.6 E62.04693
G0 F9000 X156.8 Y98.6
G1 F1125 X156.8 Y83.403 E63.26002
G0 F9000 X158.4 Y83.403
G1 F1125 X158.4 Y98.6 E64.47311
G0 F9000 X160 Y98.6
G1 F1125 X160 Y83.403 E65.6862
G0 F9000 X161.6 Y83.403
G1 F1125 X161.6 Y98.6 E66.89929
G0 F9000 X163.2 Y98.6
G1 F1125 X163.2 Y83.404 E68.1123
G0 F9000 X164.8 Y83.404
G1 F1125 X164.8 Y98.6 E69.32531
G0 F9000 X166.4 Y98.6
G1 F1125 X166.4 Y83.404 E70.53832
G0 F9000 X168 Y83.404
G1 F1125 X168 Y98.6 E71.75133
G0 F9000 X169.6 Y98.6
G1 F1125 X169.6 Y83.404 E72.96434
G0 F9000 X171.2 Y83.404
G1 F1125 X171.2 Y98.6 E74.17736
G0 F9000 X172.8 Y98.492
G1 F1125 X172.8 Y83.508 E75.37344
G0 F9000 X174.4 Y84.179
G1 F1125 X174.4 Y97.82 E76.46233
G0 F9000 X176 Y96.106
G1 F1125 X176 Y85.895 E77.27741
G1 F2700 E72.27741
G0 F9000 X176.78 Y85.121
G0 X175.919 Y84.054
G0 X175.036 Y83.323
G0 X174.104 Y82.81
G0 X173.096 Y82.48
G0 X171.801 Y82.336
G0 X136.367 Y82.368
G0 X134.234 Y82.608
G0 X131.616 Y83.362
G0 X130.781 Y83.74
G0 X129.156 Y84.636
G0 X128.342 Y85.198
G0 X126.74 Y86.537
G0 X124.801 Y88.874
G0 X123.862 Y90.547
G0 X124.8 Y91.05
M104 S220
G1 F2700 E77.27741
G1 F1125 X124.8 Y135.159 E80.79838
G0 F300 X124.8 Y135.159 Z0.54
G0 F9000 X124.773 Y134.984
;TIME_ELAPSED:63.574685
;LAYER:-5
M140 S60
;TYPE:SUPPORT
G1 F1125 X124.87 Y135.087 E80.81603
G1 X125.03 Y135.237 E80.84339
G1 X125.198 Y135.381 E80.87098
G1 X124.574 Y134.756 E80.98114
G1 X124.534 Y134.711 E80.98865
G1 X124.362 Y134.489 E81.02367
G1 X124.206 Y134.26 E81.05823
G1 X124.054 Y134 E81.0958
G1 X123.932 Y133.761 E81.12927
G1 X123.815 Y133.485 E81.16666
G1 X123.726 Y133.239 E81.19928
G1 X123.645 Y132.956 E81.236
G1 X123.588 Y132.697 E81.26908
G1 X123.542 Y132.385 E81.30841
G1 X123.512 Y131.997 E81.35695
G1 X128.003 Y136.488 E82.14911
G1 X128.098 Y136.494 E82.16098
G1 X129.708 Y136.497 E82.36179
G1 X123.499 Y130.287 E83.45708
G1 X123.499 Y128.59 E83.66873
G1 X131.402 Y136.493 E85.06273
G1 X132.117 Y136.461 E85.152
G1 X132.117 Y136.483 E85.15474
G1 X132.258 Y136.481 E85.17233
G1 X132.48 Y136.494 E85.20007
G1 X133.102 Y136.496 E85.27765
G1 X123.499 Y126.893 E86.97151
G1 X123.499 Y125.196 E87.18317
G1 X134.71 Y136.407 E89.16066
G1 X134.956 Y136.354 E89.19205
G1 X135.241 Y136.272 E89.22903
G1 X135.485 Y136.183 E89.26143
G1 X135.762 Y136.066 E89.29893
G1 X135.963 Y135.963 E89.3271
G1 X123.499 Y123.499 E91.52561
G1 X123.499 Y121.802 E91.73727
G1 X136.951 Y135.254 E94.11005
G1 X136.984 Y135.226 E94.11544
G1 X137.087 Y135.13 E94.13301
G1 X137.237 Y134.969 E94.16045
G1 X137.526 Y134.631 E94.21592
G1 X137.715 Y134.379 E94.25521
G1 X137.738 Y134.343 E94.26053
G1 X123.499 Y120.105 E96.77204
G1 X123.499 Y118.408 E96.9837
G1 X138.286 Y133.194 E99.59187
G1 X138.305 Y133.134 E99.59972
G1 X138.384 Y132.832 E99.63865
G1 X138.435 Y132.563 E99.6728
G1 X138.471 Y132.277 E99.70876
G1 X138.496 Y131.884 E99.75787
G1 X138.496 Y131.708 E99.77982
G1 X123.499 Y116.711 E102.42512
G1 X123.499 Y115.014 E102.63678
G1 X138.496 Y130.011 E105.28208
G1 X138.496 Y128.314 E105.49374
G1 X123.5 Y113.318 E108.13886
G1 X123.5 Y111.621 E108.35052
G1 X138.496 Y126.617 E110.99564
G1 X138.496 Y124.92 E111.2073
G1 X123.5 Y109.923 E113.85251
G1 X123.5 Y108.226 E114.06417
G1 X138.497 Y123.223 E116.70947
G1 X138.497 Y121.526 E116.92113
G1 X123.5 Y106.529 E119.56643
G1 X123.5 Y104.832 E119.77809
G1 X138.497 Y119.829 E122.42338
G1 X138.497 Y118.132 E122.63504
G1 X123.5 Y103.135 E125.28034
G1 X123.5 Y101.438 E125.492
G1 X138.498 Y116.436 E128.13748
G1 X138.498 Y114.739 E128.34913
G1 X123.5 Y99.741 E130.99461
G1 X123.5 Y98.044 E131.20627
G1 X138.498 Y113.042 E133.85174
G1 X138.498 Y111.345 E134.0634
G1 X123.537 Y96.384 E136.70235
G1 X123.688 Y94.838 E136.89609
G1 X138.498 Y109.648 E139.50841
G1 X138.498 Y107.951 E139.72007
G1 X124.009 Y93.462 E142.27576
G1 X124.397 Y92.193 E142.44127
G1 X124.407 Y92.163 E142.44521
G1 X138.498 Y106.254 E144.9307
G1 X138.498 Y104.557 E145.14236
G1 X124.94 Y90.998 E147.53393
G1 X125.536 Y89.898 E147.68997
G1 X138.6 Y102.962 E149.99431
G1 X138.753 Y102.344 E150.07372
G1 X139.004 Y101.696 E150.16039
G1 X139.014 Y101.679 E150.16285
G1 X126.244 Y88.909 E152.41533
G1 X126.772 Y88.284 E152.51738
G1 X127.013 Y87.981 E152.56567
G1 X139.661 Y100.629 E154.79663
G1 X139.74 Y100.518 E154.81362
G1 X140.213 Y100.01 E154.90019
G1 X140.499 Y99.769 E154.94684
G1 X127.841 Y87.112 E157.17948
G1 X127.894 Y87.064 E157.1884
G1 X128.774 Y86.347 E157.32998
G1 X141.523 Y99.097 E159.57884
G1 X141.96 Y98.891 E159.6391
G1 X142.621 Y98.674 E159.72587
G1 X142.769 Y98.645 E159.74468
G1 X129.757 Y85.634 E162.03976
G1 X129.786 Y85.613 E162.04423
G1 X129.959 Y85.51 E162.06934
G1 X130.85 Y85.03 E162.19557
G1 X144.32 Y98.499 E164.57143
G1 X146.017 Y98.499 E164.78309
G1 X131.986 Y84.468 E167.258
G1 X132.027 Y84.451 E167.26354
G1 X132.272 Y84.369 E167.29576
G1 X133.281 Y84.066 E167.42716
G1 X147.714 Y98.499 E169.97298
G1 X149.411 Y98.499 E170.18463
G1 X134.631 Y83.72 E172.79157
G1 X134.884 Y83.686 E172.82341
G1 X136.168 Y83.56 E172.98432
G1 X151.108 Y98.499 E175.61948
G1 X152.805 Y98.499 E175.83114
G1 X137.806 Y83.5 E178.47679
G1 X139.503 Y83.5 E178.68845
G1 X154.502 Y98.499 E181.3341
G1 X156.199 Y98.499 E181.54576
G1 X141.2 Y83.5 E184.19141
G1 X142.897 Y83.5 E184.40307
G1 X157.896 Y98.499 E187.04872
G1 X159.594 Y98.499 E187.26051
G1 X144.595 Y83.501 E189.90607
G1 X146.292 Y83.501 E190.11773
G1 X161.291 Y98.499 E192.76329
G1 X162.988 Y98.499 E192.97495
G1 X147.989 Y83.501 E195.62051
G1 X149.686 Y83.501 E195.83217
G1 X164.685 Y98.499 E198.47774
G1 X166.382 Y98.499 E198.68939
G1 X151.384 Y83.502 E201.33478
G1 X153.081 Y83.502 E201.54644
G1 X168.079 Y98.499 E204.19183
G1 X169.776 Y98.499 E204.40349
G1 X154.778 Y83.502 E207.04887
G1 X156.475 Y83.502 E207.26053
G1 X171.473 Y98.499 E209.90592
G1 X171.732 Y98.499 E209.93822
G1 X171.918 Y98.492 E209.96144
G1 X172.386 Y98.456 E210.01998
G1 X172.697 Y98.411 E210.05918
G1 X172.956 Y98.355 E210.09223
G1 X173.009 Y98.339 E210.09913
G1 X158.173 Y83.502 E212.71612
G1 X159.87 Y83.502 E212.92778
G1 X174.197 Y97.829 E215.4549
G1 X174.262 Y97.791 E215.46429
G1 X174.487 Y97.638 E215.49822
G1 X174.728 Y97.452 E215.53619
G1 X174.984 Y97.226 E215.57879
G1 X175.087 Y97.13 E215.59635
G1 X175.139 Y97.075 E215.60579
G1 X161.567 Y83.502 E217.99982
G1 X163.264 Y83.502 E218.21148
G1 X175.879 Y96.117 E220.43662
G1 X175.99 Y95.916 E220.46526
G1 X176.119 Y95.643 E220.50292
G1 X176.225 Y95.375 E220.53887
G1 X176.305 Y95.129 E220.57113
G1 X176.365 Y94.906 E220.59993
G1 X164.962 Y83.503 E222.61129
G1 X166.659 Y83.503 E222.82295
G1 X176.498 Y93.342 E224.55844
G1 X176.498 Y92.659 E224.64362
G1 X176.491 Y92.486 E224.66522
G1 X176.486 Y92.408 E224.67497
G1 X176.481 Y91.659 E224.76839
G1 X176.483 Y91.63 E224.77201
G1 X168.356 Y83.503 E226.20552
G1 X170.053 Y83.503 E226.41718
G1 X176.497 Y89.947 E227.55383
G1 X176.499 Y88.266 E227.76349
G1 X176.499 Y88.252 E227.76524
G1 X171.75 Y83.503 E228.60291
G1 X171.9 Y83.503 E228.62162
G1 X172.276 Y83.527 E228.66861
G1 X172.563 Y83.563 E228.70469
G1 X172.831 Y83.615 E228.73874
G1 X173.135 Y83.694 E228.77791
G1 X173.376 Y83.773 E228.80955
G1 X173.642 Y83.879 E228.84526
G1 X173.915 Y84.009 E228.88297
G1 X174 Y84.056 E228.89509
G1 X175.947 Y86.003 E229.23852
G0 F9000 X175.941 Y85.991
G1 F1125 X175.79 Y85.737 E229.27537
G1 X175.637 Y85.509 E229.30962
G1 X175.464 Y85.288 E229.34462
G1 X175.215 Y85.004 E229.39173
G1 X175.129 Y84.912 E229.40744
G1 X174.967 Y84.762 E229.43498
G1 X174.631 Y84.472 E229.49034
G1 X174.378 Y84.284 E229.52965
G1 X174.151 Y84.14 E229.56318
G1 X174 Y84.056 E229.58473
G0 F300 X174 Y84.056 Z0.74
G0 F9000 X173.345 Y83.5
;TIME_ELAPSED:128.812707
;LAYER:-4
;TYPE:SUPPORT-INTERFACE
G1 F1500 X134.449 Y83.5 E231.20184
G1 X134.553 Y83.477 E231.20627
G1 X134.86 Y83.437 E231.21914
G1 X136.53 Y83.272 E231.28891
G1 X137.057 Y83.249 E231.31084
G1 X171.909 Y83.253 E232.75982
G1 X172.291 Y83.277 E232.77573
G1 X172.596 Y83.315 E232.78851
G1 X172.9 Y83.373 E232.80137
G1 X173.185 Y83.448 E232.81363
G1 F2700 E227.81363
G0 F9000 X173.096 Y82.48
G0 X171.801 Y82.336
G0 X136.367 Y82.368
G0 X134.502 Y82.562
G0 X134.449 Y83.5
G1 F2700 E232.81363
G1 F1500 X133.938 Y83.613 E232.83538
G1 X133.749 Y83.662 E232.8435
G1 X132.629 Y84 E232.89214
G1 X174.4 Y84 E234.62878
G1 X174.514 Y84.073 E234.6344
G1 X174.79 Y84.278 E234.6487
G1 X175.049 Y84.5 E234.66288
G1 X131.305 Y84.5 E236.48154
G1 X130.377 Y85 E236.52537
G1 X175.547 Y85 E238.40332
G1 X175.663 Y85.133 E238.41066
G1 X175.832 Y85.35 E238.42209
G1 X175.934 Y85.5 E238.42963
G1 X129.509 Y85.5 E240.35976
G1 X129.077 Y85.79 E240.38139
G1 X128.899 Y85.922 E240.39061
G1 X128.804 Y86 E240.39572
G1 X176.228 Y86 E242.36738
G1 X176.293 Y86.13 E242.37342
G1 X176.413 Y86.408 E242.38601
G1 X176.447 Y86.5 E242.39009
G1 X128.192 Y86.5 E244.3963
G1 X127.727 Y86.879 E244.42124
G1 X127.592 Y87 E244.42877
G1 X176.602 Y87 E246.46637
G1 X176.657 Y87.25 E246.47702
G1 X176.695 Y87.5 E246.48753
G1 X127.091 Y87.5 E248.54982
G1 X126.924 Y87.692 E248.5604
G1 X126.68 Y88 E248.57674
G1 X176.739 Y88 E250.65795
G1 X176.743 Y88.058 E250.66037
