;FLAVOR:Marlin
;TIME:2312
;Filament used: 1.86492m
;Layer height: 0.2
;MINX:126.885
;MINY:86.865
;MINZ:0.24
;MAXX:173.164
;MAXY:133.164
;MAXZ:17.09
;Generated with Cura_SteamEngine 4.4.1
M82 ;absolute extrusion mode
M201 X500.00 Y500.00 Z100.00 E5000.00 ;Setup machine max acceleration
M203 X500.00 Y500.00 Z10.00 E50.00 ;Setup machine max feedrate
M204 P500.00 R1000.00 T500.00 ;Setup Print/Retract/Travel acceleration
M205 X8.00 Y8.00 Z0.40 E5.00 ;Setup Jerk
M220 S100 ;Reset Feedrate
M221 S100 ;Reset Flowrate

G28 ;Home

G92 E0 ;Reset Extruder
M117 Getting the bed & Extruder up to temp!
M140 S60   ; Set Heat Bed temperature
M104 S220.0 ; Set Extruder temperature
M190 S60 ; Wait for Heat Bed temperature
M109 S220.0 ; Wait for Extruder temperature
M117 Bed & Extruder up to temp!

G1 Z2.0 F3000 ;Move Z Axis up
G1 X10.1 Y20 Z0.28 F5000.0 ;Move to start position
G1 X10.1 Y200.0 Z0.28 F1500.0 E15 ;Draw the first line
G1 X10.4 Y200.0 Z0.28 F5000.0 ;Move to side a little
G1 X10.4 Y20 Z0.28 F1500.0 E30 ;Draw the second line
G92 E0 ;Reset Extruder
G1 Z2.0 F3000 ;Move Z Axis up
G92 E0
G92 E0
G1 F2700 E-5
;LAYER_COUNT:80
;LAYER:-6
M107
G0 F9000 X130.505 Y94.193 Z0.24
;TYPE:SUPPORT-INTERFACE
G1 F2700 E0
G1 F1125 X130.714 Y93.924 E0.02719
G1 X131.921 Y92.467 E0.17822
G1 X132.186 Y92.183 E0.20923
G1 X132.386 Y91.99 E0.23141
G1 X132.505 Y91.885 E0.24408
G1 X133.968 Y90.681 E0.39533
G1 X134.095 Y90.583 E0.40813
G1 X134.421 Y90.348 E0.44021
G1 X134.62 Y90.219 E0.45914
G1 X134.739 Y90.15 E0.47012
G1 X136.579 Y89.168 E0.63661
G1 X136.97 Y88.99 E0.6709
G1 X137.146 Y88.92 E0.68602
G1 X137.403 Y88.834 E0.70765
G1 X139.251 Y88.277 E0.86172
G1 X139.794 Y88.15 E0.90624
G1 X140.242 Y88.089 E0.94233
G1 X142.008 Y87.92 E1.08394
G1 X142.473 Y87.9 E1.1211
G1 X167.404 Y87.904 E3.1112
G1 X167.781 Y87.928 E3.14135
G1 X168.079 Y87.965 E3.16532
G1 X168.363 Y88.02 E3.18841
G1 X168.654 Y88.096 E3.21242
G1 X168.912 Y88.18 E3.23408
G1 X169.191 Y88.291 E3.25805
G1 X169.449 Y88.413 E3.28083
G1 X169.708 Y88.557 E3.30448
G1 X169.927 Y88.696 E3.32519
G1 X170.193 Y88.894 E3.35166
G1 X170.547 Y89.198 E3.38891
G1 X170.691 Y89.331 E3.40455
G1 X170.791 Y89.438 E3.41624
G1 X171.05 Y89.733 E3.44758
G1 X171.216 Y89.947 E3.4692
G1 X171.373 Y90.179 E3.49156
G1 X171.531 Y90.447 E3.5164
G1 X171.663 Y90.706 E3.5396
G1 X171.766 Y90.945 E3.56037
G1 X171.873 Y91.243 E3.58565
G1 X171.953 Y91.522 E3.60882
G1 X172.009 Y91.783 E3.63013
G1 X172.057 Y92.103 E3.65595
G1 X172.093 Y92.564 E3.69287
G1 X172.1 Y92.749 E3.70764
G1 X172.095 Y95.967 E3.96452
G1 X172.082 Y96.161 E3.98004
G1 X172.087 Y96.903 E4.03927
G1 X172.093 Y96.981 E4.04552
G1 X172.1 Y97.155 E4.05942
G1 X172.095 Y98.421 E4.16047
G1 X172.082 Y98.642 E4.17815
G1 X172.085 Y98.881 E4.19723
G1 X172.067 Y98.881 E4.19866
G1 X172.1 Y99.632 E4.25867
G1 X172.096 Y100.904 E4.36021
G1 X172.072 Y101.281 E4.39036
G1 X172.035 Y101.579 E4.41433
G1 X171.98 Y101.863 E4.43742
G1 X171.904 Y102.154 E4.46143
G1 X171.82 Y102.412 E4.48309
G1 X171.709 Y102.691 E4.50706
G1 X171.587 Y102.949 E4.52984
G1 X171.443 Y103.208 E4.55349
G1 X171.304 Y103.427 E4.5742
G1 X171.106 Y103.693 E4.60067
G1 X170.802 Y104.047 E4.63792
G1 X170.669 Y104.191 E4.65356
G1 X170.553 Y104.299 E4.66622
G1 X170.284 Y104.536 E4.69483
G1 X170.052 Y104.717 E4.71832
G1 X169.821 Y104.873 E4.74057
G1 X169.553 Y105.031 E4.76541
G1 X169.296 Y105.161 E4.7884
G1 X169.027 Y105.276 E4.81175
G1 X168.77 Y105.369 E4.83357
G1 X168.478 Y105.453 E4.85782
G1 X168.217 Y105.509 E4.87913
G1 X167.897 Y105.557 E4.90496
G1 X167.429 Y105.593 E4.94243
G1 X167.237 Y105.6 E4.95776
G1 X150.987 Y105.6 E6.25491
G1 X150.319 Y105.642 E6.30834
G1 X149.648 Y105.771 E6.36288
G1 X148.999 Y105.984 E6.4174
G1 X148.382 Y106.276 E6.47189
G1 X147.807 Y106.644 E6.52639
G1 X147.283 Y107.082 E6.5809
G1 X146.819 Y107.582 E6.63535
G1 X146.42 Y108.138 E6.68998
G1 X146.096 Y108.738 E6.74441
G1 X145.85 Y109.374 E6.79885
G1 X145.684 Y110.043 E6.85387
G1 X145.6 Y110.982 E6.92912
G1 X145.596 Y127.404 E8.24
G1 X145.572 Y127.781 E8.27015
G1 X145.535 Y128.079 E8.29412
G1 X145.48 Y128.363 E8.31721
G1 X145.404 Y128.654 E8.34122
G1 X145.32 Y128.912 E8.36288
G1 X145.209 Y129.191 E8.38685
G1 X145.087 Y129.449 E8.40963
G1 X144.943 Y129.708 E8.43328
G1 X144.804 Y129.927 E8.45399
G1 X144.606 Y130.193 E8.48046
G1 X144.302 Y130.547 E8.51771
G1 X144.169 Y130.691 E8.53335
G1 X144.053 Y130.799 E8.54601
G1 X143.784 Y131.036 E8.57462
G1 X143.552 Y131.217 E8.59811
G1 X143.321 Y131.373 E8.62036
G1 X143.053 Y131.531 E8.6452
G1 X142.796 Y131.661 E8.66819
G1 X142.527 Y131.776 E8.69154
G1 X142.27 Y131.869 E8.71336
G1 X141.978 Y131.953 E8.73761
G1 X141.717 Y132.009 E8.75892
G1 X141.397 Y132.057 E8.78475
G1 X140.929 Y132.093 E8.82222
G1 X140.737 Y132.1 E8.83755
G1 X139.432 Y132.095 E8.94172
G1 X139.238 Y132.082 E8.95725
G1 X138.496 Y132.087 E9.01648
G1 X138.416 Y132.093 E9.02288
G1 X138.244 Y132.1 E9.03662
G1 X136.979 Y132.095 E9.1376
G1 X136.758 Y132.082 E9.15527
G1 X136.519 Y132.085 E9.17435
G1 X136.519 Y132.067 E9.17579
G1 X135.768 Y132.1 E9.23579
G1 X132.596 Y132.096 E9.489
G1 X132.219 Y132.072 E9.51915
G1 X131.921 Y132.035 E9.54312
G1 X131.637 Y131.98 E9.56621
G1 X131.346 Y131.904 E9.59022
G1 X131.086 Y131.819 E9.61206
G1 X130.809 Y131.709 E9.63585
G1 X130.55 Y131.586 E9.65873
G1 X130.292 Y131.443 E9.68228
G1 X130.073 Y131.304 E9.70299
G1 X129.807 Y131.106 E9.72946
G1 X129.453 Y130.802 E9.7667
G1 X129.309 Y130.669 E9.78235
G1 X129.201 Y130.553 E9.795
G1 X128.95 Y130.267 E9.82538
G1 X128.783 Y130.052 E9.84711
G1 X128.624 Y129.816 E9.86982
G1 X128.469 Y129.553 E9.89419
G1 X128.339 Y129.296 E9.91718
G1 X128.223 Y129.026 E9.94064
G1 X128.131 Y128.77 E9.96236
G1 X128.047 Y128.478 E9.98661
G1 X127.991 Y128.217 E10.00792
G1 X127.943 Y127.897 E10.03375
G1 X127.906 Y127.419 E10.07202
G1 X127.9 Y127.251 E10.08544
G1 X127.903 Y102.394 E12.06963
G1 X127.93 Y101.926 E12.10705
G1 X128.123 Y100.04 E12.25838
G1 X128.192 Y99.616 E12.29268
G1 X128.238 Y99.404 E12.30999
G1 X128.301 Y99.172 E12.32918
G1 X128.851 Y97.366 E12.47988
G1 X129.084 Y96.763 E12.53148
G1 X129.258 Y96.407 E12.56311
G1 X130.138 Y94.766 E12.71175
G1 X130.401 Y94.346 E12.75131
G1 X130.505 Y94.193 E12.76608
G0 F9000 X131.2 Y93.337
G1 F1125 X131.2 Y131.856 E15.84083
G0 F9000 X132.8 Y132.096
G1 F1125 X132.8 Y91.642 E19.07004
G0 F9000 X134.4 Y90.363
G1 F1125 X134.4 Y132.098 E22.40151
G0 F9000 X136 Y132.09
G1 F1125 X136 Y89.477 E25.80306
G0 F9000 X137.6 Y88.774
G1 F1125 X137.6 Y132.097 E29.26129
G0 F9000 X139.2 Y132.083
G1 F1125 X139.2 Y88.292 E32.75688
G0 F9000 X140.8 Y88.035
G1 F1125 X140.8 Y132.098 E36.27418
G0 F9000 X142.4 Y131.822
G1 F1125 X142.4 Y87.903 E39.77998
G0 F9000 X144 Y87.901
G1 F1125 X144 Y130.846 E43.20804
G1 F2700 E38.20804
G0 F9000 X144.46 Y131.859
G0 X143.565 Y132.465
G0 X142.584 Y132.887
G0 X141.518 Y133.115
G0 X138.273 Y133.164
G0 X132.117 Y133.132
G0 X131.05 Y132.927
G0 X130.153 Y132.568
G0 X129.137 Y131.934
G0 X129.6 Y130.928
G1 F2700 E43.20804
G1 F1125 X129.6 Y95.769 E46.01458
G1 F2700 E41.01458
G0 F9000 X128.316 Y95.91
G0 X127.784 Y97.202
G0 X127.144 Y99.429
G0 X126.939 Y101.136
G0 X128 Y101.241
G1 F2700 E46.01458
G1 F1125 X128 Y128.258 E48.1712
G1 F2700 E43.1712
G0 F9000 X126.885 Y128.018
G0 X127.113 Y129.084
G0 X127.535 Y130.065
G0 X128.137 Y130.954
G0 X128.751 Y131.602
G0 X129.754 Y132.362
G0 X130.714 Y132.817
G0 X131.753 Y133.087
G0 X132.699 Y133.164
G0 X140.987 Y133.156
G0 X142.242 Y132.984
G0 X143.249 Y132.626
G0 X144.179 Y132.077
G0 X145.102 Y131.249
G0 X145.862 Y130.246
G0 X146.317 Y129.286
G0 X146.587 Y128.247
G0 X146.63 Y127.712
G0 X146.664 Y111.024
G0 X145.6 Y110.982
G1 F2700 E48.1712
G1 F1125 X145.6 Y87.901 E50.01362
G0 F9000 X147.2 Y87.901
G1 F1125 X147.2 Y107.172 E51.55192
G0 F9000 X148.8 Y106.079
G1 F1125 X148.8 Y87.902 E53.00288
G0 F9000 X150.4 Y87.902
G1 F1125 X150.4 Y105.637 E54.41857
G0 F9000 X152 Y105.6
G1 F1125 X152 Y87.902 E55.8313
G0 F9000 X153.6 Y87.902
G1 F1125 X153.6 Y105.6 E57.24403
G0 F9000 X155.2 Y105.6
G1 F1125 X155.2 Y87.903 E58.65668
G0 F9000 X156.8 Y87.903
G1 F1125 X156.8 Y105.6 E60.06933
G0 F9000 X158.4 Y105.6
G1 F1125 X158.4 Y87.903 E61.48198
G0 F9000 X160 Y87.903
G1 F1125 X160 Y105.6 E62.89463
G0 F9000 X161.6 Y105.6
G1 F1125 X161.6 Y87.904 E64.30721
G0 F9000 X163.2 Y87.904
G1 F1125 X163.2 Y105.6 E65.71978
G0 F9000 X164.8 Y105.6
G1 F1125 X164.8 Y87.904 E67.13235
G0 F9000 X166.4 Y87.904
G1 F1125 X166.4 Y105.6 E68.54492
G0 F9000 X168 Y105.542
G1 F1125 X168 Y87.956 E69.94871
G0 F9000 X169.6 Y88.497
G1 F1125 X169.6 Y105.004 E71.26637
G0 F9000 X171.2 Y103.567
M104 S220
G1 F1125 X171.2 Y89.927 E72.35517
G0 F300 X171.2 Y89.927 Z0.54
G0 F9000 X171.956 Y92.112
;TIME_ELAPSED:58.764621
;LAYER:-5
M140 S60
;TYPE:SUPPORT
G1 F1125 X171.91 Y91.802 E72.39426
G1 X171.854 Y91.542 E72.42743
G1 X171.776 Y91.273 E72.46237
G1 X171.674 Y90.986 E72.50036
G1 X171.57 Y90.746 E72.53298
G1 X171.444 Y90.497 E72.56779
G1 X171.29 Y90.237 E72.60548
G1 X171.136 Y90.009 E72.63979
G1 X170.964 Y89.788 E72.67472
G1 X170.715 Y89.504 E72.72183
G1 X170.629 Y89.412 E72.73754
G1 X170.468 Y89.261 E72.76507
G1 X170.131 Y88.972 E72.82044
G1 X169.878 Y88.784 E72.85976
G1 X169.651 Y88.64 E72.89328
G1 X169.415 Y88.509 E72.92695
G1 X169.142 Y88.379 E72.96466
G1 X168.876 Y88.273 E73.00038
G1 X168.635 Y88.194 E73.03201
G1 X168.331 Y88.115 E73.07119
G1 X168.063 Y88.063 E73.10524
G1 X167.791 Y88.029 E73.13943
G1 X171.963 Y92.201 E73.87532
G1 F2700 E68.87532
G0 F9000 X173.058 Y91.594
G0 X172.762 Y90.567
G0 X172.279 Y89.621
G0 X171.419 Y88.554
G0 X170.536 Y87.823
G0 X169.604 Y87.31
G0 X169.319 Y87.217
G0 X168.247 Y86.913
G0 X167.791 Y88.029
G1 F2700 E73.87532
G1 F1125 X167.776 Y88.027 E73.87721
G1 X167.4 Y88.003 E73.9242
G1 X166.068 Y88.003 E74.09033
G1 X171.998 Y93.933 E75.13632
G1 X171.995 Y95.628 E75.34773
G1 X164.371 Y88.003 E76.6926
G1 X162.674 Y88.003 E76.90426
G1 X171.998 Y97.328 E78.54899
G1 X171.993 Y98.417 E78.68482
G1 X171.981 Y98.639 E78.71255
G1 X171.983 Y98.78 E78.73014
G1 X171.961 Y98.781 E78.73289
G1 X171.971 Y98.998 E78.75998
G1 X160.976 Y88.002 E80.69946
G1 X159.279 Y88.002 E80.91112
G1 X171.996 Y100.72 E83.15434
G1 X171.995 Y100.885 E83.17492
G1 X171.971 Y101.277 E83.2239
G1 X171.935 Y101.563 E83.25986
G1 X171.884 Y101.832 E83.29401
G1 X171.805 Y102.133 E83.33282
G1 X171.783 Y102.203 E83.34197
G1 X157.582 Y88.002 E85.84686
G1 X155.884 Y88.002 E86.05865
G1 X171.232 Y103.35 E88.76586
G1 X171.215 Y103.378 E88.76995
G1 X171.026 Y103.632 E88.80943
G1 X170.737 Y103.969 E88.86481
G1 X170.586 Y104.129 E88.89225
G1 X170.484 Y104.226 E88.9098
G1 X170.445 Y104.26 E88.91625
G1 X154.187 Y88.002 E91.78398
G1 X152.49 Y88.002 E91.99564
G1 X169.456 Y104.967 E94.98816
G1 X169.26 Y105.066 E95.01554
G1 X168.984 Y105.184 E95.05298
G1 X168.741 Y105.272 E95.08522
G1 X168.456 Y105.355 E95.12224
G1 X168.2 Y105.409 E95.15487
G1 X150.792 Y88.001 E98.22544
G1 X149.095 Y88.001 E98.4371
G1 X166.593 Y105.499 E101.52355
G1 X164.896 Y105.499 E101.73521
G1 X147.397 Y88 E104.82183
G1 X145.7 Y88 E105.03349
G1 X163.199 Y105.499 E108.12011
G1 X161.502 Y105.499 E108.33177
G1 X144.003 Y88 E111.41839
G1 X142.475 Y88 E111.60898
G1 X142.313 Y88.007 E111.6292
G1 X159.805 Y105.499 E114.71459
G1 X158.108 Y105.499 E114.92625
G1 X140.749 Y88.14 E117.98817
G1 X140.251 Y88.188 E118.05058
G1 X139.812 Y88.249 E118.10586
G1 X139.287 Y88.371 E118.17308
G0 F9000 X139.284 Y88.372
G1 F1125 X156.411 Y105.499 E121.19409
G1 X154.714 Y105.499 E121.40575
G1 X137.979 Y88.765 E124.35752
G1 X137.424 Y88.932 E124.42981
G1 X137.177 Y89.014 E124.46227
G1 X136.999 Y89.085 E124.48617
G1 X136.727 Y89.21 E124.52351
G1 X153.017 Y105.499 E127.39679
G1 X151.32 Y105.499 E127.60845
G1 X135.615 Y89.794 E130.37863
G1 X134.874 Y90.187 E130.48324
G1 X134.673 Y90.302 E130.51213
G1 X134.524 Y90.4 E130.53437
G1 X149.768 Y105.645 E133.22333
G1 X149.62 Y105.674 E133.24214
G1 X148.961 Y105.891 E133.32867
G1 X148.524 Y106.097 E133.38893
G1 X133.566 Y91.14 E136.02726
G1 X132.635 Y91.906 E136.17763
G1 X147.499 Y106.77 E138.79947
G1 X147.213 Y107.01 E138.84604
G1 X146.74 Y107.518 E138.93261
G1 X146.661 Y107.629 E138.9496
G1 X131.8 Y92.768 E141.57091
G1 X131.031 Y93.695 E141.72114
G1 X146.014 Y108.678 E144.36397
G1 X146.004 Y108.695 E144.36643
G1 X145.753 Y109.344 E144.45322
G1 X145.601 Y109.962 E144.53259
G1 X130.312 Y94.673 E147.2294
G1 X130.222 Y94.818 E147.25068
G1 X129.711 Y95.77 E147.38545
G1 X145.499 Y111.558 E150.17027
G1 X145.499 Y113.255 E150.38193
G1 X129.139 Y96.895 E153.26764
G1 X128.943 Y97.401 E153.33532
G1 X128.711 Y98.164 E153.43479
G1 X145.499 Y114.952 E156.396
G1 X145.498 Y116.648 E156.60754
G1 X128.324 Y99.474 E159.63683
G1 X128.285 Y99.657 E159.66017
G1 X128.221 Y100.052 E159.71008
G1 X128.127 Y100.974 E159.82567
G1 X145.498 Y118.345 E162.88972
G1 X145.497 Y120.041 E163.10125
G1 X128.001 Y102.545 E166.18734
G1 X128.001 Y104.242 E166.399
G1 X145.497 Y121.739 E169.48519
G1 X145.497 Y123.435 E169.69672
G1 X128.001 Y105.939 E172.78281
G1 X128.001 Y107.636 E172.99447
G1 X145.497 Y125.132 E176.08057
G1 X145.497 Y126.829 E176.29222
G1 X128 Y109.332 E179.37849
G1 X128 Y111.029 E179.59015
G1 X145.367 Y128.397 E182.65358
G1 X145.304 Y128.634 E182.68417
G1 X145.226 Y128.875 E182.71576
G1 X145.118 Y129.143 E182.7518
G1 X144.99 Y129.416 E182.78941
G1 X144.883 Y129.609 E182.81693
G1 X128 Y112.726 E185.7949
G1 X128 Y114.424 E186.00668
G1 X144.145 Y130.568 E188.85439
G1 X144.087 Y130.629 E188.86488
G1 X143.984 Y130.726 E188.88253
G1 X143.727 Y130.951 E188.92513
G1 X143.488 Y131.137 E188.96291
G1 X143.261 Y131.29 E188.99705
G1 X143.203 Y131.324 E189.00544
G1 X127.999 Y116.12 E191.68725
G1 X127.999 Y117.817 E191.89891
G1 X142.018 Y131.836 E194.3717
G1 X141.956 Y131.854 E194.37975
G1 X141.697 Y131.91 E194.4128
G1 X141.386 Y131.956 E194.45201
G1 X140.917 Y131.992 E194.51068
G1 X140.732 Y131.999 E194.53377
G1 X140.483 Y131.998 E194.56483
G1 X127.999 Y119.514 E196.76686
G1 X127.999 Y121.21 E196.9784
G1 X138.773 Y131.985 E198.87889
G1 X138.491 Y131.987 E198.91407
G1 X138.239 Y131.999 E198.94553
G1 X137.086 Y131.994 E199.08934
G1 X127.999 Y122.907 E200.69219
G1 X127.999 Y124.604 E200.90384
G1 X135.393 Y131.999 E202.20815
G1 X133.694 Y131.997 E202.42006
G1 X127.999 Y126.301 E203.42468
G1 X127.999 Y127.232 E203.5408
G1 X128.005 Y127.411 E203.56314
G1 X128.042 Y127.886 E203.62256
G1 X128.069 Y128.069 E203.64563
G1 X131.935 Y131.935 E204.32755
G1 X131.668 Y131.884 E204.36145
G1 X131.364 Y131.803 E204.40069
G1 X131.121 Y131.725 E204.43252
G1 X130.855 Y131.619 E204.46824
G1 X130.584 Y131.49 E204.50567
G1 X130.348 Y131.359 E204.53934
G1 X130.121 Y131.215 E204.57287
G1 X129.867 Y131.026 E204.61236
G1 X129.53 Y130.736 E204.66781
G1 X129.37 Y130.587 E204.69508
G1 X129.273 Y130.484 E204.71273
G1 X129.034 Y130.211 E204.75798
G1 X128.862 Y129.989 E204.79301
G1 X128.706 Y129.76 E204.82757
G1 X128.554 Y129.5 E204.86513
G1 X128.432 Y129.261 E204.8986
G1 X128.315 Y128.985 E204.93599
G1 X128.226 Y128.739 E204.96862
G1 X128.145 Y128.456 E205.00533
G1 X128.088 Y128.197 E205.03841
G1 F2700 E200.03841
G0 F300 X128.088 Y128.197 Z0.74
G0 F9000 X127.016 Y128.742
G0 X127.374 Y129.749
G0 X127.923 Y130.679
G0 X128.751 Y131.602
G0 X129.653 Y132.286
G0 X130.714 Y132.817
G0 X131.314 Y132.051
;TIME_ELAPSED:118.037754
;LAYER:-4
;TYPE:SUPPORT-INTERFACE
G1 F2700 E205.03841
G1 F1500 X131.6 Y132.126 E205.0507
G1 X131.904 Y132.184 E205.06357
G1 X132.209 Y132.222 E205.07635
G1 X132.591 Y132.246 E205.09226
G1 X135.775 Y132.25 E205.22464
G1 X136.369 Y132.236 E205.24934
G1 X136.754 Y132.232 E205.26535
G1 X136.98 Y132.245 E205.27476
G1 X138.25 Y132.25 E205.32756
G1 X138.424 Y132.243 E205.3348
G1 X138.503 Y132.237 E205.33809
G1 X139.233 Y132.232 E205.36844
G1 X139.427 Y132.245 E205.37653
G1 X140.742 Y132.25 E205.4312
G1 X140.941 Y132.243 E205.43948
G1 X141.416 Y132.207 E205.45928
G1 X141.742 Y132.158 E205.47299
G1 X142.018 Y132.098 E205.48473
G1 X142.301 Y132.017 E205.49697
G1 X142.348 Y132 E205.49905
G1 X131.158 Y132 E205.96427
G1 X131.017 Y131.954 E205.97044
G1 X130.767 Y131.855 E205.98162
G1 X130.472 Y131.715 E205.99519
G1 X130.214 Y131.572 E206.00746
G1 X130.101 Y131.5 E206.01303
