;FLAVOR:Marlin
;TIME:2667
;Filament used: 2.00355m
;Layer height: 0.2
;MINX:131.201
;MINY:89.563
;MINZ:0.24
;MAXX:168.744
;MAXY:127.054
;MAXZ:46.89
;Generated with Cura_SteamEngine 4.4.1
M82 ;absolute extrusion mode
M201 X500.00 Y500.00 Z100.00 E5000.00 ;Setup machine max acceleration
M203 X500.00 Y500.00 Z10.00 E50.00 ;Setup machine max feedrate
M204 P500.00 R1000.00 T500.00 ;Setup Print/Retract/Travel acceleration
M205 X8.00 Y8.00 Z0.40 E5.00 ;Setup Jerk
M220 S100 ;Reset Feedrate
M221 S100 ;Reset Flowrate

G28 ;Home

G92 E0 ;Reset Extruder
M117 Getting the bed & Extruder up to temp!
M140 S60   ; Set Heat Bed temperature
M104 S220.0 ; Set Extruder temperature
M190 S60 ; Wait for Heat Bed temperature
M109 S220.0 ; Wait for Extruder temperature
M117 Bed & Extruder up to temp!

G1 Z2.0 F3000 ;Move Z Axis up
G1 X10.1 Y20 Z0.28 F5000.0 ;Move to start position
G1 X10.1 Y200.0 Z0.28 F1500.0 E15 ;Draw the first line
G1 X10.4 Y200.0 Z0.28 F5000.0 ;Move to side a little
G1 X10.4 Y20 Z0.28 F1500.0 E30 ;Draw the second line
G92 E0 ;Reset Extruder
G1 Z2.0 F3000 ;Move Z Axis up
G92 E0
G92 E0
G1 F2700 E-5
;LAYER_COUNT:229
;LAYER:-6
M107
G0 F9000 X135.263 Y98.427 Z0.24
;TYPE:SUPPORT-INTERFACE
G1 F2700 E0
G1 F1125 X136.333 Y97.089 E0.13676
G1 X136.434 Y96.971 E0.14916
G1 X136.93 Y96.451 E0.20652
G1 X137.395 Y95.929 E0.26232
G1 X137.591 Y95.679 E0.28768
G1 X137.764 Y95.482 E0.30861
G1 X138.098 Y95.152 E0.34609
G1 X138.379 Y94.899 E0.37627
G1 X138.521 Y94.781 E0.39101
G1 X138.987 Y94.425 E0.43782
G1 X139.125 Y94.328 E0.45128
G1 X140.871 Y93.206 E0.61695
G1 X141.028 Y93.114 E0.63148
G1 X141.553 Y92.836 E0.6789
G1 X141.721 Y92.755 E0.69379
G1 X143.32 Y92.058 E0.83303
G1 X143.324 Y92.067 E0.83381
G1 X144.061 Y91.683 E0.90015
G1 X144.399 Y91.538 E0.92951
G1 X144.878 Y91.373 E0.96995
G1 X145.088 Y91.311 E0.98743
G1 X146.402 Y90.981 E1.09557
G1 X146.592 Y90.941 E1.11107
G1 X147.092 Y90.851 E1.15163
G1 X147.479 Y90.806 E1.18273
G1 X149.597 Y90.636 E1.35234
G1 X150.276 Y90.633 E1.40654
G1 X150.477 Y90.647 E1.42262
G1 X152.654 Y90.825 E1.59698
G1 X153.049 Y90.88 E1.62882
G1 X153.252 Y90.917 E1.64529
G1 X153.47 Y90.965 E1.66311
G1 X155.021 Y91.356 E1.79079
G1 X155.35 Y91.461 E1.81835
G1 X155.674 Y91.593 E1.84628
G1 X156.667 Y92.087 E1.93481
G1 X156.669 Y92.083 E1.93517
G1 X158.329 Y92.799 E2.07948
G1 X158.748 Y93.007 E2.11682
G1 X159.099 Y93.216 E2.14943
G1 X160.876 Y94.356 E2.31796
G1 X161.324 Y94.683 E2.36223
G1 X161.62 Y94.934 E2.39321
G1 X161.954 Y95.24 E2.42937
G1 X162.232 Y95.524 E2.46109
G1 X162.407 Y95.728 E2.48255
G1 X162.468 Y95.81 E2.49071
G1 X162.969 Y96.386 E2.55164
G1 X163.305 Y96.726 E2.5898
G1 X163.668 Y97.139 E2.63369
G1 X164.686 Y98.419 E2.76424
G1 X164.789 Y98.557 E2.77799
G1 X164.994 Y98.851 E2.8066
G1 X165.145 Y99.099 E2.82978
G1 X165.272 Y99.342 E2.85166
G1 X165.584 Y100.06 E2.91415
G1 X165.588 Y100.06 E2.91447
G1 X165.764 Y100.453 E2.94885
G1 X166.241 Y101.316 E3.02756
G1 X166.419 Y101.653 E3.05798
G1 X166.488 Y101.798 E3.0708
G1 X166.711 Y102.314 E3.11567
G1 X166.817 Y102.599 E3.13994
G1 X166.864 Y102.752 E3.15272
G1 X166.966 Y103.122 E3.18335
G1 X167.025 Y103.408 E3.20666
G1 X167.055 Y103.617 E3.22352
G1 X167.213 Y104.34 E3.28259
G1 X167.301 Y104.639 E3.30747
G1 X167.452 Y105.243 E3.35717
G1 X167.496 Y105.455 E3.37446
G1 X167.62 Y106.249 E3.4386
G1 X167.656 Y106.618 E3.4682
G1 X167.664 Y106.927 E3.49287
G1 X167.657 Y107.09 E3.5059
G1 X167.661 Y107.3 E3.52266
G1 X167.636 Y107.3 E3.52466
G1 X167.681 Y107.926 E3.57476
G1 X167.702 Y108.434 E3.61534
G1 X167.684 Y109.773 E3.72224
G1 X167.656 Y110.158 E3.75305
G1 X167.615 Y110.452 E3.77675
G1 X167.546 Y110.795 E3.80467
G1 X167.489 Y111.025 E3.82359
G1 X167.403 Y111.405 E3.85469
G1 X167.042 Y113.298 E4.00852
G1 X166.945 Y113.679 E4.0399
G1 X166.852 Y113.967 E4.06406
G1 X166.753 Y114.219 E4.08567
G1 X166.621 Y114.497 E4.11024
G1 X166.456 Y114.801 E4.13785
G1 X166.157 Y115.446 E4.1946
G1 X165.794 Y116.401 E4.27615
G1 X165.732 Y116.55 E4.28904
G1 X165.515 Y117.019 E4.33029
G1 X165.442 Y117.164 E4.34325
G1 X165.253 Y117.499 E4.37395
G1 X164.893 Y118.099 E4.4298
G1 X164.76 Y118.299 E4.44898
G1 X164.378 Y118.817 E4.50035
G1 X164.238 Y118.99 E4.51812
G1 X162.571 Y120.868 E4.71857
G1 X162.453 Y120.993 E4.73229
G1 X162.199 Y121.245 E4.76085
G1 X161.984 Y121.434 E4.7837
G1 X161.734 Y121.626 E4.80886
G1 X161.514 Y121.773 E4.82998
G1 X161.258 Y121.923 E4.85367
G1 X161.001 Y122.051 E4.87659
G1 X160.715 Y122.173 E4.90141
G1 X160.471 Y122.259 E4.92206
G1 X160.33 Y122.298 E4.93374
G1 X159.697 Y122.522 E4.98733
G1 X159.088 Y122.83 E5.04181
G1 X158.522 Y123.212 E5.09632
G1 X158.438 Y123.286 E5.10525
G1 X158.432 Y123.28 E5.10593
G1 X157.82 Y123.831 E5.17167
G1 X157.576 Y124.025 E5.19655
G1 X157.31 Y124.208 E5.22232
G1 X157.113 Y124.329 E5.24078
G1 X156.909 Y124.442 E5.25939
G1 X156.649 Y124.576 E5.28274
G1 X156.434 Y124.673 E5.30157
G1 X155.8 Y124.926 E5.35606
G1 X155.609 Y124.992 E5.37219
G1 X153.597 Y125.581 E5.53954
G1 X153.264 Y125.665 E5.56695
G1 X153.118 Y125.691 E5.57879
G1 X152.568 Y125.772 E5.62317
G1 X150.535 Y125.967 E5.78619
G1 X150.278 Y125.985 E5.80676
G1 X150.068 Y125.989 E5.82353
G1 X149.433 Y125.966 E5.87425
G1 X147.385 Y125.769 E6.03848
G1 X147.171 Y125.739 E6.05573
G1 X146.505 Y125.611 E6.10987
G1 X146.277 Y125.556 E6.12859
G1 X144.357 Y124.998 E6.28819
G1 X144.164 Y124.932 E6.30448
G1 X143.517 Y124.677 E6.35999
G1 X143.347 Y124.6 E6.37489
G1 X142.967 Y124.403 E6.40905
G1 X142.638 Y124.208 E6.43958
G1 X142.418 Y124.059 E6.46079
G1 X142.174 Y123.872 E6.48533
G1 X141.935 Y123.657 E6.51099
G1 X141.431 Y123.215 E6.5645
G1 X140.867 Y122.832 E6.61892
G1 X140.254 Y122.521 E6.67379
G1 X140.143 Y122.483 E6.68316
G1 X140.148 Y122.467 E6.6845
G1 X139.343 Y122.206 E6.75205
G1 X139.048 Y122.089 E6.77738
G1 X138.789 Y121.966 E6.80027
G1 X138.542 Y121.83 E6.82278
G1 X138.292 Y121.669 E6.84651
G1 X138.057 Y121.498 E6.86971
G1 X137.827 Y121.308 E6.89353
G1 X137.626 Y121.121 E6.91544
G1 X137.391 Y120.873 E6.94271
G1 X135.739 Y119.02 E7.14087
G1 X135.599 Y118.848 E7.15858
G1 X135.193 Y118.299 E7.21308
G1 X135.081 Y118.131 E7.2292
G1 X134.661 Y117.437 E7.29395
G1 X134.591 Y117.311 E7.30546
G1 X134.387 Y116.922 E7.34052
G1 X134.226 Y116.566 E7.37171
G1 X134.13 Y116.33 E7.39205
G1 X133.797 Y115.453 E7.46693
G1 X133.481 Y114.774 E7.52671
G1 X133.337 Y114.516 E7.5503
G1 X133.201 Y114.23 E7.57558
G1 X133.097 Y113.968 E7.59808
G1 X132.994 Y113.651 E7.62469
G1 X132.936 Y113.439 E7.64223
G1 X132.885 Y113.206 E7.66127
G1 X132.551 Y111.427 E7.80576
G1 X132.409 Y110.824 E7.85521
G1 X132.335 Y110.471 E7.884
G1 X132.295 Y110.191 E7.90658
G1 X132.257 Y109.628 E7.95162
G1 X132.248 Y108.414 E8.04853
G1 X132.263 Y108.037 E8.07865
G1 X132.278 Y107.834 E8.0949
G1 X132.288 Y107.271 E8.13984
G1 X132.277 Y106.962 E8.16453
G1 X132.286 Y106.662 E8.18848
G1 X132.325 Y106.251 E8.22144
G1 X132.345 Y106.096 E8.23391
G1 X132.464 Y105.379 E8.29193
G1 X132.539 Y105.021 E8.32113
G1 X132.581 Y104.858 E8.33457
G1 X132.712 Y104.415 E8.37144
G1 X132.782 Y104.09 E8.39798
G1 X132.801 Y104.094 E8.39953
G1 X132.971 Y103.208 E8.47154
G1 X133.094 Y102.744 E8.50986
G1 X133.18 Y102.473 E8.53256
G1 X133.344 Y102.059 E8.5681
G1 X133.4 Y101.933 E8.57911
G1 X133.627 Y101.471 E8.6202
G1 X134.193 Y100.438 E8.71422
G1 X134.309 Y100.18 E8.7368
G1 X134.319 Y100.183 E8.73764
G1 X134.638 Y99.437 E8.8024
G1 X134.771 Y99.171 E8.82614
G1 X134.93 Y98.904 E8.85095
G1 X135.263 Y98.427 E8.89738
G0 F9000 X136 Y97.505
G1 F1125 X136 Y119.312 E10.63811
G0 F9000 X137.6 Y121.093
G1 F1125 X137.6 Y95.668 E12.66765
G0 F9000 X139.2 Y94.279
G1 F1125 X139.2 Y122.149 E14.89235
G0 F9000 X140.8 Y122.798
G1 F1125 X140.8 Y93.251 E17.25092
G0 F9000 X142.4 Y92.459
G1 F1125 X142.4 Y124.045 E19.77225
G0 F9000 X144 Y124.867
G1 F1125 X144 Y91.714 E22.41867
G0 F9000 X145.6 Y91.182
G1 F1125 X145.6 Y125.359 E25.14682
G0 F9000 X147.2 Y125.743
G1 F1125 X147.2 Y90.838 E27.93309
G0 F9000 X148.8 Y90.699
G1 F1125 X148.8 Y125.905 E30.74339
G0 F9000 X150.4 Y125.977
G1 F1125 X150.4 Y90.642 E33.56398
G0 F9000 X152 Y90.772
G1 F1125 X152 Y125.827 E36.36222
G0 F9000 X153.6 Y125.581
G1 F1125 X153.6 Y90.998 E39.12279
G0 F9000 X155.2 Y91.414
G1 F1125 X155.2 Y125.112 E41.81271
G0 F9000 X156.8 Y124.499
G1 F1125 X156.8 Y92.14 E44.39574
G0 F9000 X158.4 Y92.835
G1 F1125 X158.4 Y123.309 E46.82831
G0 F9000 X160 Y122.415
G1 F1125 X160 Y93.795 E49.11288
G0 F9000 X161.6 Y94.918
G1 F1125 X161.6 Y121.716 E51.25201
G0 F9000 X163.2 Y120.16
G1 F1125 X163.2 Y96.62 E53.13108
G0 F9000 X164.8 Y98.573
G1 F1125 X164.8 Y118.239 E54.7009
G0 F9000 X166.4 Y114.922
G1 F1125 X166.4 Y101.618 E55.76288
G1 F2700 E50.76288
G0 F9000 X167.18 Y100.814
G0 X165.889 Y98.275
G0 X164.085 Y96.001
G0 X162.584 Y94.37
G0 X161.374 Y93.409
G0 X159.133 Y92.008
G0 X155.711 Y90.459
G0 X153.213 Y89.828
G0 X150.046 Y89.563
G0 X146.916 Y89.801
G0 X144.563 Y90.356
G0 X143.304 Y90.877
G0 X140.503 Y92.189
G0 X138.365 Y93.562
G0 X137.25 Y94.489
G0 X135.509 Y96.415
G0 X134.031 Y98.333
G0 X133.563 Y99.244
G0 X134.4 Y99.993
G1 F2700 E55.76288
G1 F1125 X134.4 Y116.946 E57.11615
G1 F2700 E52.11615
G0 F9000 X133.243 Y116.975
G0 X132.215 Y114.606
G0 X131.842 Y113.42
G0 X132.8 Y112.753
M104 S220
G1 F2700 E57.11615
G1 F1125 X132.8 Y104.094 E57.80734
G1 F2700 E52.80734
G0 F300 X132.8 Y104.094 Z0.54
G0 F9000 X131.915 Y103.061
G0 X132.256 Y101.936
G0 X133.563 Y99.244
G0 X134.855 Y99.222
;TIME_ELAPSED:48.144319
;LAYER:-5
M140 S60
;TYPE:SUPPORT
G1 F2700 E57.80734
G1 F1125 X134.732 Y99.47 E57.84187
G1 X134.374 Y100.307 E57.95542
G1 X134.363 Y100.303 E57.95688
G1 X134.325 Y100.384 E57.96803
G1 X157.72 Y123.779 E62.09464
G1 X157.509 Y123.948 E62.12836
G1 X157.257 Y124.123 E62.16663
G1 X157.066 Y124.24 E62.19456
G1 X156.861 Y124.353 E62.22376
G1 X156.687 Y124.443 E62.24819
G1 X133.731 Y101.487 E66.29737
G1 X133.714 Y101.518 E66.30178
G1 X133.49 Y101.976 E66.36537
G1 X133.429 Y102.111 E66.38385
G1 X133.273 Y102.508 E66.43705
G1 X133.22 Y102.673 E66.45866
G1 X155.473 Y124.926 E70.38384
G1 X154.162 Y125.312 E70.55429
G1 X132.908 Y104.058 E74.30325
G1 X132.879 Y104.211 E74.32268
G1 X132.858 Y104.207 E74.32534
G1 X132.808 Y104.441 E74.35519
G1 X132.68 Y104.873 E74.41138
G1 X132.635 Y105.045 E74.43356
G1 X132.561 Y105.398 E74.47854
G1 X132.559 Y105.406 E74.47957
G1 X152.79 Y125.638 E78.04818
G1 X152.57 Y125.67 E78.0759
G1 X151.252 Y125.797 E78.24105
G1 X132.376 Y106.92 E81.57065
G1 X132.376 Y106.961 E81.57577
G1 X132.387 Y107.269 E81.61421
G1 X132.377 Y107.839 E81.68531
G1 X132.362 Y108.043 E81.71082
G1 X132.347 Y108.417 E81.75751
G1 X132.347 Y108.588 E81.77884
G1 X149.632 Y125.873 E84.82771
G1 X149.447 Y125.867 E84.8508
G1 X147.766 Y125.705 E85.06143
G1 X132.417 Y110.356 E87.76882
G1 X132.431 Y110.45 E87.78067
G1 X132.506 Y110.8 E87.82532
G1 X132.647 Y111.406 E87.90292
G1 X132.85 Y112.485 E88.03986
G1 X145.627 Y125.263 E90.29366
G1 X144.367 Y124.896 E90.45735
G1 X144.207 Y124.842 E90.47841
G1 X143.575 Y124.592 E90.56318
G1 X143.387 Y124.508 E90.58886
G1 X143.013 Y124.315 E90.64136
G1 X142.936 Y124.269 E90.65254
G1 X133.718 Y115.051 E92.27849
G1 X133.887 Y115.413 E92.32832
G1 X134.222 Y116.292 E92.44565
G1 X134.317 Y116.526 E92.47715
G1 X134.469 Y116.862 E92.52314
G1 X134.678 Y117.262 E92.57943
G1 X134.754 Y117.398 E92.59886
G1 X135.168 Y118.083 E92.69869
G1 X135.286 Y118.257 E92.72491
G1 X135.449 Y118.478 E92.75917
G1 X138.86 Y121.889 E93.36083
G1 X138.841 Y121.881 E93.3634
G1 X138.585 Y121.739 E93.39991
G1 X138.352 Y121.589 E93.43447
G1 X138.108 Y121.412 E93.47207
G1 X137.895 Y121.235 E93.50661
G1 X137.7 Y121.053 E93.53988
G1 X137.464 Y120.806 E93.58249
G1 X135.811 Y118.953 E93.8922
G1 X135.675 Y118.785 E93.91916
G1 F2700 E88.91916
G0 F9000 X134.739 Y119.476
G0 X133.745 Y117.978
G0 X133.14 Y116.722
G0 X132.1 Y114.342
G0 X131.842 Y113.42
G0 X131.236 Y110.302
G0 X131.201 Y107.966
G0 X131.268 Y106.125
G0 X131.556 Y104.571
G0 X132.183 Y102.1
G0 X132.362 Y101.713
G0 X133.673 Y98.987
G0 X134.856 Y99.218
G1 F2700 E93.91916
G1 F1125 X158.646 Y123.008 E98.11544
G1 X159.036 Y122.743 E98.17425
G1 X159.657 Y122.429 E98.26105
G1 X159.736 Y122.401 E98.2715
G1 X135.555 Y98.22 E102.53675
G1 X136.311 Y97.279 E102.6873
G1 X160.981 Y121.949 E107.03881
G1 X161.201 Y121.839 E107.06949
G1 X161.452 Y121.693 E107.1057
G1 X161.686 Y121.535 E107.14092
G1 X161.92 Y121.356 E107.17766
G1 X162.008 Y121.278 E107.19233
G1 X137.117 Y96.388 E111.58273
G1 X137.471 Y95.992 E111.64898
G1 X137.658 Y95.752 E111.68693
G1 X137.84 Y95.545 E111.7213
G1 X137.907 Y95.48 E111.73295
G1 X162.84 Y120.413 E116.13084
G1 X163.637 Y119.514 E116.28069
G1 X138.81 Y94.686 E120.65998
G1 X139.051 Y94.501 E120.69787
G1 X139.189 Y94.405 E120.71884
G1 X139.82 Y93.999 E120.81242
G1 X164.416 Y118.595 E125.15087
G1 X164.688 Y118.224 E125.20825
G1 X164.803 Y118.053 E125.23395
G1 X165.091 Y117.574 E125.30366
G1 X140.853 Y93.335 E129.57906
G1 X140.915 Y93.294 E129.58833
G1 X141.069 Y93.206 E129.61045
G1 X141.606 Y92.92 E129.68633
G1 X141.755 Y92.848 E129.70697
G1 X141.97 Y92.755 E129.73619
G1 X165.665 Y116.45 E133.91572
G1 X165.701 Y116.362 E133.92758
G1 X166.064 Y115.406 E134.05512
G1 X166.144 Y115.232 E134.07901
G1 X143.153 Y92.242 E138.13427
G1 X143.272 Y92.189 E138.15051
G1 X143.278 Y92.203 E138.15241
G1 X144.106 Y91.77 E138.26896
G1 X144.297 Y91.689 E138.29483
G1 X166.696 Y114.088 E142.24576
G1 X166.758 Y113.93 E142.26693
G1 X166.85 Y113.644 E142.3044
G1 X166.94 Y113.29 E142.34996
G1 X167.045 Y112.739 E142.41992
G1 X145.593 Y91.287 E146.2038
G1 X146.422 Y91.078 E146.31044
G1 X146.615 Y91.037 E146.33504
G1 X146.976 Y90.973 E146.38077
G1 X167.319 Y111.316 E149.96904
G1 X167.391 Y111 E150.00947
G1 X167.448 Y110.771 E150.0389
G1 X167.515 Y110.433 E150.08188
G1 X167.553 Y110.15 E150.11749
G1 X167.575 Y109.875 E150.1519
G1 X148.52 Y90.82 E153.51298
G1 X149.445 Y90.743 E153.62875
G1 X149.598 Y90.735 E153.64786
G1 X150.05 Y90.728 E153.70425
G1 X150.126 Y90.729 E153.71373
G1 X167.592 Y108.195 E156.79453
G1 X167.581 Y107.944 E156.82586
G1 X167.528 Y107.199 E156.91902
G1 X167.558 Y107.199 E156.92276
G1 X167.556 Y107.089 E156.93648
G1 X167.562 Y106.925 E156.95695
G1 X167.556 Y106.63 E156.99375
G1 X167.538 Y106.444 E157.01706
G1 X151.962 Y90.868 E159.76449
G1 X152.635 Y90.923 E159.84871
G1 X153.237 Y91.015 E159.92467
G1 X153.439 Y91.059 E159.95045
G1 X153.99 Y91.199 E160.02136
G1 X167.104 Y104.313 E162.33452
G1 X166.956 Y103.634 E162.42119
G1 X166.926 Y103.429 E162.44703
G1 X166.866 Y103.137 E162.48422
G1 X166.771 Y102.793 E162.52873
G1 X166.72 Y102.629 E162.55015
G1 X166.677 Y102.502 E162.56687
G1 X166.617 Y102.35 E162.58725
G1 X166.448 Y101.96 E162.64027
G1 X156.706 Y92.218 E164.35864
G1 X156.711 Y92.22 E164.35932
G1 X156.715 Y92.211 E164.36054
G1 X158.284 Y92.889 E164.57373
G1 X158.775 Y93.137 E164.64234
G1 X159.043 Y93.299 E164.6814
G1 X160.273 Y94.088 E164.86366
G1 X164.376 Y98.19 E165.58729
G0 F9000 X163.583 Y97.193
G1 F1125 X163.222 Y96.783 E165.65543
G1 X162.895 Y96.454 E165.71328
G1 X162.389 Y95.873 E165.80938
G1 X162.328 Y95.791 E165.82212
G1 X162.153 Y95.588 E165.85555
G1 X161.894 Y95.321 E165.90195
G1 X161.552 Y95.008 E165.95977
G1 X161.259 Y94.758 E166.00781
G1 X160.809 Y94.431 E166.07719
G1 X160.273 Y94.088 E166.15656
G1 F2700 E161.15656
G0 F300 X160.273 Y94.088 Z0.74
G0 F9000 X160.901 Y93.106
G0 X159.133 Y92.008
G0 X155.711 Y90.459
G0 X153.213 Y89.828
G0 X151.092 Y89.639
G0 X150.538 Y90.5
;TIME_ELAPSED:97.180461
;LAYER:-4
;TYPE:SUPPORT-INTERFACE
G1 F2700 E166.15656
G1 F1500 X149.353 Y90.5 E166.20583
G1 X149.425 Y90.494 E166.20883
G1 X149.603 Y90.485 E166.21624
G1 X150.049 Y90.477 E166.23479
G1 X150.489 Y90.496 E166.2531
G0 F9000 X149.353 Y90.5
G1 F1500 X147.469 Y90.656 E166.33169
G1 X147.056 Y90.704 E166.34898
G1 X146.573 Y90.791 E166.36938
G1 X146.357 Y90.836 E166.37856
G1 X145.706 Y91 E166.40647
G1 X154.228 Y91 E166.76077
G1 X155.062 Y91.211 E166.79654
G1 X155.394 Y91.316 E166.81101
G1 X155.742 Y91.458 E166.82664
G1 X155.828 Y91.5 E166.83062
G1 X144.104 Y91.5 E167.31805
G1 X143.999 Y91.545 E167.3228
G1 X143.209 Y91.945 E167.35961
G1 X143.083 Y92 E167.36533
G1 X156.857 Y92 E167.93798
