;FLAVOR:Marlin
;TIME:13616
;Filament used: 10.9148m
;Layer height: 0.2
;MINX:96.05
;MINY:61.686
;MINZ:0.24
;MAXX:206.465
;MAXY:158.884
;MAXZ:32.29
;Generated with Cura_SteamEngine 4.4.1
M82 ;absolute extrusion mode
M201 X500.00 Y500.00 Z100.00 E5000.00 ;Setup machine max acceleration
M203 X500.00 Y500.00 Z10.00 E50.00 ;Setup machine max feedrate
M204 P500.00 R1000.00 T500.00 ;Setup Print/Retract/Travel acceleration
M205 X8.00 Y8.00 Z0.40 E5.00 ;Setup Jerk
M220 S100 ;Reset Feedrate
M221 S100 ;Reset Flowrate

G28 ;Home

G92 E0 ;Reset Extruder
M117 Getting the bed & Extruder up to temp!
M140 S60   ; Set Heat Bed temperature
M104 S220.0 ; Set Extruder temperature
M190 S60 ; Wait for Heat Bed temperature
M109 S220.0 ; Wait for Extruder temperature
M117 Bed & Extruder up to temp!

G1 Z2.0 F3000 ;Move Z Axis up
G1 X10.1 Y20 Z0.28 F5000.0 ;Move to start position
G1 X10.1 Y200.0 Z0.28 F1500.0 E15 ;Draw the first line
G1 X10.4 Y200.0 Z0.28 F5000.0 ;Move to side a little
G1 X10.4 Y20 Z0.28 F1500.0 E30 ;Draw the second line
G92 E0 ;Reset Extruder
G1 Z2.0 F3000 ;Move Z Axis up
G92 E0
G92 E0
G1 F1500 E-6.5
;LAYER_COUNT:156
;LAYER:-6
M107
G0 F9000 X104.189 Y63.906 Z0.24
;TYPE:SUPPORT-INTERFACE
G1 F1500 E0
G1 F1125 X104.312 Y63.727 E0.01734
G1 X104.519 Y63.458 E0.04443
G1 X104.665 Y63.289 E0.06226
G1 X104.829 Y63.138 E0.08005
G1 X105.097 Y62.915 E0.10788
G1 X105.288 Y62.775 E0.12679
G1 X105.477 Y62.665 E0.14424
G1 X105.811 Y62.498 E0.17405
G1 X106.025 Y62.406 E0.19265
G1 X106.219 Y62.347 E0.20883
G1 X106.601 Y62.255 E0.2402
G1 X106.835 Y62.213 E0.25917
G1 X106.97 Y62.199 E0.27001
G1 X107.343 Y62.182 E0.29981
G1 X201.845 Y62.18 E7.84337
G1 X202.217 Y62.185 E7.87307
G1 X202.499 Y62.203 E7.89563
G1 X202.74 Y62.243 E7.91513
G1 X203.083 Y62.317 E7.94314
G1 X203.282 Y62.373 E7.95964
G1 X203.486 Y62.454 E7.97716
G1 X203.834 Y62.616 E8.0078
G1 X204.012 Y62.711 E8.02391
G1 X204.21 Y62.847 E8.04308
G1 X204.486 Y63.06 E8.07091
G1 X204.631 Y63.185 E8.08619
G1 X204.786 Y63.353 E8.10444
G1 X205.024 Y63.639 E8.13414
G1 X205.155 Y63.818 E8.15184
G1 X205.268 Y64.013 E8.16984
G1 X205.432 Y64.341 E8.19911
G1 X205.524 Y64.555 E8.2177
G1 X205.583 Y64.749 E8.23389
G1 X205.675 Y65.131 E8.26525
G1 X205.717 Y65.365 E8.28423
G1 X205.73 Y65.491 E8.29434
G1 X205.748 Y65.86 E8.32383
G1 X205.75 Y153.936 E15.35444
G1 X205.739 Y154.424 E15.3934
G1 X205.727 Y154.568 E15.40494
G1 X205.685 Y154.815 E15.42494
G1 X205.613 Y155.144 E15.45182
G1 X205.554 Y155.358 E15.46954
G1 X205.472 Y155.564 E15.48724
G1 X205.32 Y155.891 E15.51602
G1 X205.217 Y156.085 E15.53356
G1 X205.095 Y156.263 E15.55078
G1 X204.875 Y156.549 E15.57959
G1 X204.724 Y156.723 E15.59798
G1 X204.572 Y156.862 E15.61442
G1 X204.273 Y157.108 E15.64533
G1 X204.091 Y157.239 E15.66323
G1 X203.905 Y157.346 E15.68035
G1 X203.593 Y157.5 E15.70813
G1 X203.394 Y157.586 E15.72543
G1 X203.168 Y157.654 E15.74427
G1 X202.805 Y157.743 E15.77411
G1 X202.567 Y157.788 E15.79344
G1 X202.428 Y157.802 E15.80459
G1 X202.055 Y157.819 E15.8344
G1 X106.524 Y157.82 E23.4601
G1 X106.161 Y157.799 E23.48912
G1 X105.741 Y157.725 E23.52316
G1 X105.395 Y157.609 E23.55229
G1 X105.346 Y157.587 E23.55658
G1 X105.014 Y157.411 E23.58658
G1 X104.963 Y157.377 E23.59147
G1 X104.677 Y157.162 E23.62003
G1 X104.477 Y156.977 E23.64178
G1 X104.359 Y156.849 E23.65567
G1 X104.263 Y156.735 E23.66757
G1 X104.021 Y156.393 E23.70101
G1 X103.834 Y156.009 E23.73511
G1 X103.725 Y155.653 E23.76483
G1 X103.71 Y155.581 E23.7707
G1 X103.661 Y155.234 E23.79867
G1 X103.65 Y154.995 E23.81777
G1 X103.65 Y128.457 E25.93615
G1 X103.608 Y127.789 E25.98958
G1 X103.479 Y127.118 E26.04412
G1 X103.266 Y126.469 E26.09864
G1 X102.974 Y125.852 E26.15313
G1 X102.606 Y125.277 E26.20763
G1 X102.168 Y124.753 E26.26214
G1 X101.668 Y124.289 E26.31659
G1 X101.117 Y123.893 E26.37076
G1 X100.767 Y123.692 E26.40298
G1 X100.477 Y123.54 E26.42911
G1 X100.254 Y123.394 E26.45039
G1 X99.348 Y122.735 E26.53982
G1 X99.192 Y122.61 E26.55577
G1 X99.074 Y122.509 E26.56817
G1 X98.784 Y122.21 E26.60142
G1 X98.537 Y121.852 E26.63614
G1 X98.372 Y121.51 E26.66645
G1 X98.309 Y121.342 E26.68077
G1 X98.254 Y121.176 E26.69473
G1 X97.764 Y119.462 E26.83703
G1 X97.716 Y119.264 E26.8533
G1 X97.684 Y119.109 E26.86593
G1 X97.643 Y118.715 E26.89755
G1 X97.659 Y118.419 E26.92121
G1 X97.654 Y117.779 E26.9723
G1 X97.638 Y117.551 E26.99055
G1 X97.644 Y117.172 E27.0208
G1 X97.723 Y116.412 E27.0818
G1 X97.713 Y116.412 E27.0826
G1 X97.72 Y116.335 E27.08877
G1 X97.71 Y115.885 E27.1247
G1 X97.721 Y115.401 E27.16334
G1 X97.727 Y115.363 E27.16641
G1 X97.798 Y114.696 E27.21996
G1 X97.794 Y114.494 E27.23608
G1 X97.826 Y114.494 E27.23864
G1 X97.768 Y113.803 E27.29399
G1 X97.774 Y113.411 E27.32529
G1 X97.791 Y113.229 E27.33988
G1 X97.792 Y113.162 E27.34523
G1 X97.805 Y113.162 E27.34626
G1 X97.815 Y112.366 E27.40981
G1 X97.81 Y112.305 E27.4147
G1 X97.823 Y112.304 E27.41574
G1 X97.778 Y111.64 E27.46886
G1 X97.779 Y111.528 E27.4778
G1 X97.745 Y110.857 E27.53143
G1 X97.603 Y110.109 E27.59221
G1 X97.217 Y108.646 E27.71299
G1 X97.175 Y108.454 E27.72868
G1 X97.15 Y108.308 E27.7405
G1 X97.114 Y107.913 E27.77216
G1 X97.148 Y107.492 E27.80588
G1 X97.189 Y107.253 E27.82523
G1 X97.233 Y107.058 E27.84119
G1 X97.635 Y105.632 E27.95946
G1 X97.702 Y105.428 E27.9766
G1 X97.749 Y105.301 E27.98741
G1 X97.93 Y104.921 E28.021
G1 X98.17 Y104.577 E28.05449
G1 X98.442 Y104.296 E28.0857
G1 X98.584 Y104.171 E28.10081
G1 X98.749 Y104.04 E28.11762
G1 X99.766 Y103.3 E28.21802
G1 X99.936 Y103.186 E28.23436
G1 X100.069 Y103.105 E28.24679
G1 X100.951 Y102.662 E28.32558
G1 X100.949 Y102.658 E28.32593
G1 X101.475 Y102.317 E28.37597
G1 X101.996 Y101.875 E28.43051
G1 X102.457 Y101.371 E28.48503
G1 X102.85 Y100.813 E28.53951
G1 X103.171 Y100.21 E28.59404
G1 X103.412 Y99.572 E28.64848
G1 X103.572 Y98.903 E28.70339
G1 X103.65 Y98.001 E28.77566
G1 X103.654 Y65.737 E31.35111
G1 X103.67 Y65.456 E31.37358
G1 X103.712 Y65.196 E31.3946
G1 X103.791 Y64.835 E31.4241
G1 X103.844 Y64.643 E31.44
G1 X103.923 Y64.445 E31.45702
G1 X104.083 Y64.101 E31.4873
G1 X104.189 Y63.906 E31.50502
G1 F1500 E25.00502
G0 F9000 X103.126 Y63.634
G0 X121.619 Y97.358
G0 X120.794 Y96.683
G1 F1500 E31.50502
G1 F1125 X120.395 Y97.239 E31.55965
G1 X120.071 Y97.839 E31.61408
G1 X119.825 Y98.475 E31.66851
G1 X119.659 Y99.144 E31.72354
G1 X119.575 Y100.083 E31.79879
G1 X119.576 Y136.912 E34.73864
G1 X119.618 Y137.58 E34.79207
G1 X119.747 Y138.251 E34.84661
G1 X119.96 Y138.901 E34.90121
G1 X120.252 Y139.517 E34.95563
G1 X120.62 Y140.092 E35.01012
G1 X121.058 Y140.616 E35.06464
G1 X121.558 Y141.081 E35.11914
G1 X122.114 Y141.479 E35.17372
G1 X122.714 Y141.803 E35.22816
G1 X123.35 Y142.049 E35.28259
G1 X124.019 Y142.215 E35.33761
G1 X124.958 Y142.299 E35.41287
G1 X188.288 Y142.299 E40.46814
G1 X188.956 Y142.257 E40.52157
G1 X189.627 Y142.128 E40.57611
G1 X190.276 Y141.915 E40.63064
G1 X190.893 Y141.623 E40.68512
G1 X191.468 Y141.255 E40.73962
G1 X191.992 Y140.817 E40.79414
G1 X192.456 Y140.317 E40.84859
G1 X192.855 Y139.761 E40.90321
G1 X193.179 Y139.161 E40.95764
G1 X193.425 Y138.525 E41.01208
G1 X193.591 Y137.856 E41.0671
G1 X193.675 Y136.917 E41.14235
G1 X193.674 Y100.088 E44.0822
G1 X193.632 Y99.42 E44.13563
G1 X193.503 Y98.749 E44.19018
G1 X193.29 Y98.099 E44.24478
G1 X192.998 Y97.483 E44.29919
G1 X192.63 Y96.908 E44.35369
G1 X192.192 Y96.384 E44.4082
G1 X191.692 Y95.919 E44.46271
G1 X191.136 Y95.521 E44.51729
G1 X190.536 Y95.197 E44.57172
G1 X189.9 Y94.951 E44.62615
G1 X189.231 Y94.785 E44.68118
G1 X188.292 Y94.701 E44.75643
G1 X124.962 Y94.701 E49.81171
G1 X124.294 Y94.743 E49.86513
G1 X123.623 Y94.872 E49.91968
G1 X122.974 Y95.085 E49.9742
G1 X122.357 Y95.377 E50.02869
G1 X121.782 Y95.745 E50.08318
G1 X121.258 Y96.183 E50.1377
G1 X120.794 Y96.683 E50.19215
G0 F9000 X121.6 Y95.898
G1 F1125 X121.6 Y62.181 E52.88359
G0 F9000 X120 Y62.181
G1 F1125 X120 Y98.023 E55.74465
G0 F9000 X123.2 Y95.011
G1 F1125 X123.2 Y62.181 E58.36528
G0 F9000 X124.8 Y62.181
G1 F1125 X124.8 Y94.712 E60.96205
G0 F9000 X126.4 Y94.701
G1 F1125 X126.4 Y62.181 E63.55793
G0 F9000 X128 Y62.181
G1 F1125 X128 Y94.701 E66.15382
G0 F9000 X129.6 Y94.701
G1 F1125 X129.6 Y62.181 E68.74971
G0 F9000 X131.2 Y62.181
G1 F1125 X131.2 Y94.701 E71.3456
G0 F9000 X132.8 Y94.701
G1 F1125 X132.8 Y62.181 E73.94148
G0 F9000 X134.4 Y62.181
G1 F1125 X134.4 Y94.701 E76.53737
G0 F9000 X136 Y94.701
G1 F1125 X136 Y62.181 E79.13326
G0 F9000 X137.6 Y62.181
G1 F1125 X137.6 Y94.701 E81.72914
G0 F9000 X139.2 Y94.701
G1 F1125 X139.2 Y62.181 E84.32503
G0 F9000 X140.8 Y62.181
G1 F1125 X140.8 Y94.701 E86.92092
G0 F9000 X142.4 Y94.701
G1 F1125 X142.4 Y62.181 E89.5168
G0 F9000 X144 Y62.181
G1 F1125 X144 Y94.701 E92.11269
G0 F9000 X145.6 Y94.701
G1 F1125 X145.6 Y62.181 E94.70858
G0 F9000 X147.2 Y62.181
G1 F1125 X147.2 Y94.701 E97.30447
G0 F9000 X148.8 Y94.701
G1 F1125 X148.8 Y62.181 E99.90035
G0 F9000 X150.4 Y62.181
G1 F1125 X150.4 Y94.701 E102.49624
G0 F9000 X152 Y94.701
G1 F1125 X152 Y62.181 E105.09213
G0 F9000 X153.6 Y62.181
G1 F1125 X153.6 Y94.701 E107.68801
G0 F9000 X155.2 Y94.701
G1 F1125 X155.2 Y62.18 E110.28398
G0 F9000 X156.8 Y62.18
G1 F1125 X156.8 Y94.701 E112.87995
G0 F9000 X158.4 Y94.701
G1 F1125 X158.4 Y62.18 E115.47591
G0 F9000 X160 Y62.18
G1 F1125 X160 Y94.701 E118.07188
G0 F9000 X161.6 Y94.701
G1 F1125 X161.6 Y62.18 E120.66785
G0 F9000 X163.2 Y62.18
G1 F1125 X163.2 Y94.701 E123.26382
G0 F9000 X164.8 Y94.701
G1 F1125 X164.8 Y62.18 E125.85978
G0 F9000 X166.4 Y62.18
G1 F1125 X166.4 Y94.701 E128.45575
G0 F9000 X168 Y94.701
G1 F1125 X168 Y62.18 E131.05172
G0 F9000 X169.6 Y62.18
G1 F1125 X169.6 Y94.701 E133.64768
G0 F9000 X171.2 Y94.701
G1 F1125 X171.2 Y62.18 E136.24365
G0 F9000 X172.8 Y62.18
G1 F1125 X172.8 Y94.701 E138.83962
G0 F9000 X174.4 Y94.701
G1 F1125 X174.4 Y62.18 E141.43558
G0 F9000 X176 Y62.18
G1 F1125 X176 Y94.701 E144.03155
G0 F9000 X177.6 Y94.701
G1 F1125 X177.6 Y62.18 E146.62752
G0 F9000 X179.2 Y62.18
G1 F1125 X179.2 Y94.701 E149.22348
G0 F9000 X180.8 Y94.701
G1 F1125 X180.8 Y62.18 E151.81945
G0 F9000 X182.4 Y62.18
G1 F1125 X182.4 Y94.701 E154.41542
G0 F9000 X184 Y94.701
G1 F1125 X184 Y62.18 E157.01138
G0 F9000 X185.6 Y62.18
G1 F1125 X185.6 Y94.701 E159.60735
G0 F9000 X187.2 Y94.701
G1 F1125 X187.2 Y62.18 E162.20332
G0 F9000 X188.8 Y62.18
G1 F1125 X188.8 Y94.746 E164.80288
G0 F9000 X190.4 Y95.144
G1 F1125 X190.4 Y62.18 E167.43421
G0 F9000 X192 Y62.18
G1 F1125 X192 Y96.205 E170.15023
G0 F9000 X193.6 Y99.253
G1 F1125 X193.6 Y62.18 E173.10956
G0 F9000 X195.2 Y62.18
G1 F1125 X195.2 Y157.82 E180.74395
G0 F9000 X193.6 Y157.82
G1 F1125 X193.6 Y137.755 E182.34563
G0 F9000 X192 Y140.808
G1 F1125 X192 Y157.82 E183.7036
G0 F9000 X190.4 Y157.82
G1 F1125 X190.4 Y141.856 E184.97792
G0 F9000 X188.8 Y142.266
G1 F1125 X188.8 Y157.82 E186.2195
G0 F9000 X187.2 Y157.82
G1 F1125 X187.2 Y142.299 E187.45846
G0 F9000 X185.6 Y142.299
G1 F1125 X185.6 Y157.82 E188.69741
G0 F9000 X184 Y157.82
G1 F1125 X184 Y142.299 E189.93636
G0 F9000 X182.4 Y142.299
G1 F1125 X182.4 Y157.82 E191.17532
G0 F9000 X180.8 Y157.82
G1 F1125 X180.8 Y142.299 E192.41427
G0 F9000 X179.2 Y142.299
G1 F1125 X179.2 Y157.82 E193.65322
G0 F9000 X177.6 Y157.82
G1 F1125 X177.6 Y142.299 E194.89218
G0 F9000 X176 Y142.299
G1 F1125 X176 Y157.82 E196.13113
G0 F9000 X174.4 Y157.82
G1 F1125 X174.4 Y142.299 E197.37008
G0 F9000 X172.8 Y142.299
G1 F1125 X172.8 Y157.82 E198.60904
G0 F9000 X171.2 Y157.82
G1 F1125 X171.2 Y142.299 E199.84799
G0 F9000 X169.6 Y142.299
G1 F1125 X169.6 Y157.82 E201.08694
G0 F9000 X168 Y157.82
G1 F1125 X168 Y142.299 E202.3259
G0 F9000 X166.4 Y142.299
G1 F1125 X166.4 Y157.82 E203.56485
G0 F9000 X164.8 Y157.82
G1 F1125 X164.8 Y142.299 E204.8038
G0 F9000 X163.2 Y142.299
G1 F1125 X163.2 Y157.82 E206.04276
G0 F9000 X161.6 Y157.82
G1 F1125 X161.6 Y142.299 E207.28171
G0 F9000 X160 Y142.299
G1 F1125 X160 Y157.82 E208.52066
G0 F9000 X158.4 Y157.82
G1 F1125 X158.4 Y142.299 E209.75962
G0 F9000 X156.8 Y142.299
G1 F1125 X156.8 Y157.82 E210.99857
G0 F9000 X155.2 Y157.82
G1 F1125 X155.2 Y142.299 E212.23752
G0 F9000 X153.6 Y142.299
G1 F1125 X153.6 Y157.82 E213.47648
G0 F9000 X152 Y157.82
G1 F1125 X152 Y142.299 E214.71543
G0 F9000 X150.4 Y142.299
G1 F1125 X150.4 Y157.82 E215.95438
G0 F9000 X148.8 Y157.82
G1 F1125 X148.8 Y142.299 E217.19334
G0 F9000 X147.2 Y142.299
G1 F1125 X147.2 Y157.82 E218.43229
G0 F9000 X145.6 Y157.82
G1 F1125 X145.6 Y142.299 E219.67124
G0 F9000 X144 Y142.299
G1 F1125 X144 Y157.82 E220.9102
G0 F9000 X142.4 Y157.82
G1 F1125 X142.4 Y142.299 E222.14915
G0 F9000 X140.8 Y142.299
G1 F1125 X140.8 Y157.82 E223.3881
G0 F9000 X139.2 Y157.82
G1 F1125 X139.2 Y142.299 E224.62706
G0 F9000 X137.6 Y142.299
G1 F1125 X137.6 Y157.82 E225.86601
G0 F9000 X136 Y157.82
G1 F1125 X136 Y142.299 E227.10496
G0 F9000 X134.4 Y142.299
G1 F1125 X134.4 Y157.82 E228.34392
G0 F9000 X132.8 Y157.82
G1 F1125 X132.8 Y142.299 E229.58287
G0 F9000 X131.2 Y142.299
G1 F1125 X131.2 Y157.82 E230.82182
G0 F9000 X129.6 Y157.82
G1 F1125 X129.6 Y142.299 E232.06078
G0 F9000 X128 Y142.299
G1 F1125 X128 Y157.82 E233.29973
G0 F9000 X126.4 Y157.82
G1 F1125 X126.4 Y142.299 E234.53868
G0 F9000 X124.8 Y142.285
G1 F1125 X124.8 Y157.82 E235.77875
G0 F9000 X123.2 Y157.82
G1 F1125 X123.2 Y141.991 E237.04229
G0 F9000 X121.6 Y141.112
G1 F1125 X121.6 Y157.82 E238.376
G0 F9000 X120 Y157.82
G1 F1125 X120 Y138.986 E239.87941
G1 F1500 E233.37941
G0 F9000 X121.184 Y138.999
G0 X118.401 Y158.884
G0 X118.4 Y157.82
G1 F1500 E239.87941
G1 F1125 X118.4 Y62.181 E247.51373
G0 F9000 X116.8 Y62.181
G1 F1125 X116.8 Y157.82 E255.14805
G0 F9000 X115.2 Y157.82
G1 F1125 X115.2 Y62.181 E262.78237
G0 F9000 X113.6 Y62.181
G1 F1125 X113.6 Y157.82 E270.41668
G0 F9000 X112 Y157.82
G1 F1125 X112 Y62.181 E278.051
G0 F9000 X110.4 Y62.181
G1 F1125 X110.4 Y157.82 E285.68532
G0 F9000 X108.8 Y157.82
G1 F1125 X108.8 Y62.181 E293.31964
G0 F9000 X107.2 Y62.188
G1 F1125 X107.2 Y157.82 E300.9534
G0 F9000 X105.6 Y157.677
G1 F1125 X105.6 Y62.603 E308.54262
G0 F9000 X104 Y64.279
G1 F1125 X104 Y156.349 E315.89204
G1 F1500 E309.39204
G0 F9000 X102.828 Y156.357
G0 X102.625 Y155.447
G0 X101.742 Y125.902
G0 X102.4 Y125.03
G1 F1500 E315.89204
G1 F1125 X102.4 Y101.433 E317.77566
G0 F9000 X100.8 Y102.737
G1 F1125 X100.8 Y123.71 E319.44981
G0 F9000 X99.2 Y122.616
G1 F1125 X99.2 Y103.711 E320.95889
G0 F9000 X97.6 Y105.756
G1 F1125 X97.6 Y110.097 E321.30541
G1 F1500 E314.80541
G0 F9000 X96.564 Y110.343
G0 X96.582 Y118.835
G0 X102.694 Y155.919
G0 X103.085 Y156.902
G0 X103.772 Y157.777
G0 X104.47 Y158.327
G0 X105.442 Y158.748
G0 X106.295 Y158.857
G0 X196.801 Y158.884
G0 X196.8 Y157.82
G1 F1500 E321.30541
G1 F1125 X196.8 Y62.18 E328.93981
G0 F9000 X198.4 Y62.18
G1 F1125 X198.4 Y157.82 E336.57421
G0 F9000 X200 Y157.82
G1 F1125 X200 Y62.18 E344.2086
G0 F9000 X201.6 Y62.18
G1 F1125 X201.6 Y157.82 E351.843
G0 F9000 X203.2 Y157.645
G1 F1125 X203.2 Y62.35 E359.44986
G0 F9000 X204.8 Y63.37
M104 S220
G1 F1125 X204.8 Y156.636 E366.89476
G1 F1500 E360.39476
G0 F300 X204.8 Y156.636 Z0.54
G0 F9000 X205.701 Y157.22
G0 X189.578 Y95.968
G0 X189.929 Y94.854
;TIME_ELAPSED:269.485486
;LAYER:-5
M140 S60
;TYPE:SUPPORT
G1 F1500 E366.89476
G1 F1125 X190.577 Y95.106 E366.98148
G1 X191.188 Y95.436 E367.06809
G1 X191.754 Y95.841 E367.15489
G1 X192.263 Y96.315 E367.24164
G1 X192.709 Y96.848 E367.32833
G1 X193.083 Y97.433 E367.41493
G1 X193.382 Y98.061 E367.50168
G1 X193.52 Y98.485 E367.55729
G1 X205.648 Y110.613 E369.69653
G1 X205.648 Y112.31 E369.90819
G1 X193.773 Y100.435 E372.00281
G1 X193.773 Y102.132 E372.21446
G1 X205.648 Y114.007 E374.30908
G1 X205.648 Y115.704 E374.52074
G1 X193.773 Y103.829 E376.61535
G1 X193.773 Y105.526 E376.82701
G1 X205.648 Y117.401 E378.92162
G1 X205.648 Y119.098 E379.13328
G1 X193.773 Y107.223 E381.2279
G1 X193.773 Y108.92 E381.43956
G1 X205.648 Y120.795 E383.53417
G1 X205.648 Y122.492 E383.74583
G1 X193.773 Y110.617 E385.84044
G1 X193.773 Y112.314 E386.0521
G1 X205.648 Y124.189 E388.14671
G1 X205.649 Y125.887 E388.3585
G1 X193.773 Y114.011 E390.45329
G1 X193.773 Y115.708 E390.66495
G1 X205.649 Y127.584 E392.75974
G1 X205.649 Y129.281 E392.9714
