;FLAVOR:Marlin
;TIME:892
;Filament used: 0.624516m
;Layer height: 0.2
;MINX:141.335
;MINY:95.2
;MINZ:0.2
;MAXX:158.665
;MAXY:124.8
;MAXZ:7
;Generated with Cura_SteamEngine 4.3.0
M140 S60
M105
M190 S60
M104 S220
M105
M109 S220
M82 ;absolute extrusion mode
M201 X500.00 Y500.00 Z100.00 E5000.00 ;Setup machine max acceleration
M203 X500.00 Y500.00 Z10.00 E50.00 ;Setup machine max feedrate
M204 P500.00 R1000.00 T500.00 ;Setup Print/Retract/Travel acceleration
M205 X8.00 Y8.00 Z0.40 E5.00 ;Setup Jerk
M220 S100 ;Reset Feedrate
M221 S100 ;Reset Flowrate

G28 ;Home

G92 E0 ;Reset Extruder
G1 Z2.0 F3000 ;Move Z Axis up
G1 X10.1 Y20 Z0.28 F5000.0 ;Move to start position
G1 X10.1 Y200.0 Z0.28 F1500.0 E15 ;Draw the first line
G1 X10.4 Y200.0 Z0.28 F5000.0 ;Move to side a little
G1 X10.4 Y20 Z0.28 F1500.0 E30 ;Draw the second line
G92 E0 ;Reset Extruder
G1 Z2.0 F3000 ;Move Z Axis up

G92 E0
G92 E0
G1 F2700 E-5
;LAYER_COUNT:35
;LAYER:0
M107
;MESH:3030_M??trik.stl
G0 F6000 X149.468 Y114.375 Z0.2
;TYPE:WALL-INNER
G1 F2700 E0
G1 F1200 X150.532 Y114.375 E0.03539
G1 X151.563 Y114.121 E0.07071
G1 X152.503 Y113.628 E0.10601
G1 X153.3 Y112.923 E0.1414
G1 X153.902 Y112.048 E0.17672
G1 X154.279 Y111.056 E0.21202
G1 X154.407 Y110 E0.2474
G1 X154.279 Y108.944 E0.28278
G1 X153.902 Y107.952 E0.31808
G1 X153.3 Y107.077 E0.3534
G1 X152.503 Y106.372 E0.38879
G1 X151.563 Y105.879 E0.4241
G1 X150.532 Y105.625 E0.45941
G1 X149.468 Y105.625 E0.4948
G1 X148.437 Y105.879 E0.53012
G1 X147.497 Y106.372 E0.56542
G1 X146.7 Y107.077 E0.60081
G1 X146.098 Y107.952 E0.63614
G1 X145.721 Y108.944 E0.67143
G1 X145.593 Y110 E0.70681
G1 X145.721 Y111.056 E0.74219
G1 X146.098 Y112.048 E0.77749
G1 X146.7 Y112.923 E0.81282
G1 X147.497 Y113.628 E0.84821
G1 X148.437 Y114.121 E0.88351
G1 X149.468 Y114.375 E0.91883
G0 F6000 X149.517 Y113.975
G1 F1200 X150.483 Y113.975 E0.95096
G1 X151.42 Y113.744 E0.98305
G1 X152.274 Y113.296 E1.01513
G1 X152.998 Y112.656 E1.04727
G1 X153.545 Y111.861 E1.07937
G1 X153.888 Y110.959 E1.11146
G1 X154.004 Y110 E1.14359
G1 X153.888 Y109.041 E1.17572
G1 X153.545 Y108.139 E1.20782
G1 X152.998 Y107.344 E1.23991
G1 X152.274 Y106.704 E1.27205
G1 X151.42 Y106.256 E1.30413
G1 X150.483 Y106.025 E1.33623
G1 X149.517 Y106.025 E1.36835
G1 X148.58 Y106.256 E1.40045
G1 X147.726 Y106.704 E1.43253
G1 X147.002 Y107.344 E1.46467
G1 X146.455 Y108.139 E1.49676
G1 X146.112 Y109.041 E1.52886
G1 X145.996 Y110 E1.56099
G1 X146.112 Y110.959 E1.59312
G1 X146.455 Y111.861 E1.62522
G1 X147.002 Y112.656 E1.65731
G1 X147.726 Y113.296 E1.68945
G1 X148.58 Y113.744 E1.72153
G1 X149.517 Y113.975 E1.75362
G0 F6000 X149.566 Y113.575
;TYPE:WALL-OUTER
G1 F1200 X150.434 Y113.575 E1.78249
G1 X151.277 Y113.367 E1.81137
G1 X152.045 Y112.964 E1.84022
G1 X152.696 Y112.389 E1.86911
G1 X153.188 Y111.674 E1.89798
G1 X153.497 Y110.862 E1.92687
G1 X153.601 Y110 E1.95575
G1 X153.497 Y109.138 E1.98463
G1 X153.188 Y108.326 E2.01353
G1 X152.696 Y107.611 E2.04239
G1 X152.045 Y107.036 E2.07128
G1 X151.277 Y106.633 E2.10013
G1 X150.434 Y106.425 E2.12901
G1 X149.566 Y106.425 E2.15788
G1 X148.723 Y106.633 E2.18676
G1 X147.955 Y107.036 E2.2156
G1 X147.304 Y107.611 E2.24449
G1 X146.812 Y108.326 E2.27336
G1 X146.503 Y109.138 E2.30226
G1 X146.399 Y110 E2.33114
G1 X146.503 Y110.862 E2.36001
G1 X146.812 Y111.674 E2.38891
G1 X147.304 Y112.389 E2.41778
G1 X147.955 Y112.964 E2.44667
G1 X148.723 Y113.367 E2.47551
G1 X149.566 Y113.575 E2.50439
G0 F6000 X149.513 Y114.011
G1 F2700 E-2.49561
G0 F6000 X148.369 Y114.301
G0 X149.031 Y112.553
G0 X148.976 Y112.566
G0 X141.412 Y114.283
G0 X141.335 Y114.301
G0 X143.21 Y114.301
G0 X143 Y123.1
;TYPE:WALL-INNER
G1 F2700 E2.50439
G1 F1200 X143 Y96.9 E3.37581
G1 X156.801 Y96.899 E3.83483
G1 X157 Y96.899 E3.84145
G1 X157 Y97.098 E3.84573
G1 X157 Y123.1 E4.71056
G1 X143 Y123.1 E5.1762
G0 F6000 X142.6 Y123.5
G1 F1200 X142.6 Y96.5 E6.07423
G1 X157.201 Y96.499 E6.55986
G1 X157.4 Y96.499 E6.56648
G1 X157.4 Y96.698 E6.57076
G1 X157.4 Y123.5 E7.4622
G1 X142.6 Y123.5 E7.95445
G0 F6000 X142.2 Y123.9
;TYPE:WALL-OUTER
G1 F1200 X142.2 Y96.1 E8.87908
G1 X157.8 Y96.099 E9.39794
G1 X157.8 Y123.9 E10.3226
G1 X142.2 Y123.9 E10.84146
G0 F6000 X142.47 Y123.63
G0 X143.11 Y122.71
G0 X143.39 Y122.71
;TYPE:SKIN
G1 F1200 X143.39 Y97.29 E11.68693
G1 X156.61 Y97.289 E12.12663
G1 X156.61 Y122.71 E12.97214
G1 X143.39 Y122.71 E13.41184
G1 F2700 E8.41184
G0 F6000 X143.11 Y122.71
G0 X143.209 Y113.767
G0 X146.556 Y113.05
G0 X147.435 Y113.721
G0 X147.274 Y113.952
G1 F2700 E13.41184
G1 F1200 X148.298 Y114.488 E13.45028
G1 X149.421 Y114.765 E13.48875
G1 X150.579 Y114.765 E13.52727
G1 X151.702 Y114.488 E13.56574
G1 X152.726 Y113.952 E13.60418
G1 X153.594 Y113.184 E13.64273
G1 X154.249 Y112.231 E13.68119
G1 X154.661 Y111.15 E13.71966
G1 X154.799 Y110 E13.75819
G1 X154.661 Y108.85 E13.79671
G1 X154.249 Y107.769 E13.83519
G1 X153.594 Y106.816 E13.87365
G1 X152.726 Y106.048 E13.9122
G1 X151.702 Y105.512 E13.95064
G1 X150.579 Y105.235 E13.98911
G1 X149.421 Y105.235 E14.02763
G1 X148.298 Y105.512 E14.0661
G1 X147.274 Y106.048 E14.10454
G1 X146.406 Y106.816 E14.14309
G1 X145.751 Y107.769 E14.18155
G1 X145.339 Y108.85 E14.22003
G1 X145.201 Y110 E14.25855
G1 X145.339 Y111.15 E14.29707
G1 X145.751 Y112.231 E14.33555
G1 X146.406 Y113.184 E14.37401
G1 X147.274 Y113.952 E14.41256
G1 F2700 E9.41256
G0 F6000 X147.435 Y113.721
G0 X148.369 Y114.301
G0 X149.031 Y112.553
G0 X149.025 Y112.631
G0 X148.372 Y124.684
G0 X148.369 Y124.765
G0 X148.369 Y122.89
G0 X144.046 Y122.99
G0 X144.046 Y122.55
G1 F2700 E14.41256
G1 F1200 X143.549 Y122.052 E14.43596
G0 F6000 X143.549 Y121.487
G1 F1200 X144.611 Y122.55 E14.48594
G0 F6000 X145.177 Y122.55
G1 F1200 X143.549 Y120.921 E14.56254
G0 F6000 X143.549 Y120.355
G1 F1200 X145.743 Y122.55 E14.66576
G0 F6000 X146.308 Y122.55
G1 F1200 X143.549 Y119.79 E14.79556
G0 F6000 X143.549 Y119.224
G1 F1200 X146.874 Y122.55 E14.95198
G0 F6000 X147.44 Y122.55
G1 F1200 X143.549 Y118.658 E15.13502
G0 F6000 X143.549 Y118.093
G1 F1200 X148.005 Y122.55 E15.34464
G0 F6000 X148.571 Y122.55
G1 F1200 X143.549 Y117.527 E15.58089
G0 F6000 X143.549 Y116.961
G1 F1200 X149.137 Y122.55 E15.84375
G0 F6000 X149.702 Y122.55
G1 F1200 X143.549 Y116.396 E16.13319
G0 F6000 X143.549 Y115.83
G1 F1200 X150.268 Y122.55 E16.44926
G0 F6000 X150.834 Y122.55
G1 F1200 X143.549 Y115.264 E16.79195
G0 F6000 X143.549 Y114.699
G1 F1200 X151.4 Y122.55 E17.16123
G0 F6000 X151.965 Y122.55
G1 F1200 X143.549 Y114.133 E17.55712
G0 F6000 X143.549 Y113.567
G1 F1200 X152.531 Y122.55 E17.97963
G0 F6000 X153.097 Y122.55
G1 F1200 X143.549 Y113.002 E18.42874
G0 F6000 X143.549 Y112.436
G1 F1200 X153.662 Y122.55 E18.90445
G0 F6000 X154.228 Y122.55
G1 F1200 X143.549 Y111.87 E19.40678
G0 F6000 X143.549 Y111.304
G1 F1200 X154.794 Y122.55 E19.93573
G0 F6000 X155.359 Y122.55
G1 F1200 X143.549 Y110.739 E20.49126
G0 F6000 X143.549 Y110.173
G1 F1200 X145.56 Y112.185 E20.58588
G0 F6000 X145.212 Y111.271
G1 F1200 X143.549 Y109.607 E20.66412
G0 F6000 X143.549 Y109.042
G1 F1200 X145.112 Y110.605 E20.73764
G0 F6000 X145.043 Y109.971
G1 F1200 X143.549 Y108.476 E20.80794
G0 F6000 X143.549 Y107.91
G1 F1200 X145.104 Y109.466 E20.8811
G0 F6000 X145.164 Y108.96
G1 F1200 X143.549 Y107.345 E20.95707
G0 F6000 X143.549 Y106.779
G1 F1200 X145.292 Y108.522 E21.03905
G0 F6000 X145.448 Y108.113
G1 F1200 X143.549 Y106.213 E21.1284
G0 F6000 X143.549 Y105.648
G1 F1200 X145.604 Y107.703 E21.22506
G0 F6000 X145.833 Y107.367
G1 F1200 X143.549 Y105.082 E21.33252
G0 F6000 X143.549 Y104.516
G1 F1200 X146.063 Y107.031 E21.45079
G0 F6000 X146.295 Y106.697
G1 F1200 X143.549 Y103.951 E21.57995
G0 F6000 X143.549 Y103.385
G1 F1200 X146.595 Y106.432 E21.72325
G0 F6000 X146.895 Y106.166
G1 F1200 X143.549 Y102.819 E21.88066
G0 F6000 X143.549 Y102.254
G1 F1200 X147.199 Y105.904 E22.05235
G0 F6000 X147.571 Y105.71
G1 F1200 X143.549 Y101.688 E22.24153
G0 F6000 X143.549 Y101.122
G1 F1200 X147.943 Y105.516 E22.44821
G0 F6000 X148.33 Y105.338
G1 F1200 X143.549 Y100.556 E22.67312
G0 F6000 X143.549 Y99.991
G1 F1200 X148.784 Y105.226 E22.91935
G0 F6000 X149.238 Y105.114
G1 F1200 X143.549 Y99.425 E23.18695
G0 F6000 X143.549 Y98.859
G1 F1200 X149.764 Y105.075 E23.47931
G0 F6000 X150.33 Y105.075
G1 F1200 X143.549 Y98.294 E23.79826
G0 F6000 X143.549 Y97.728
G1 F1200 X150.993 Y105.172 E24.14841
G0 F6000 X151.743 Y105.357
G1 F1200 X143.836 Y97.449 E24.52035
G0 F6000 X144.401 Y97.449
G1 F1200 X153.245 Y106.293 E24.93634
G0 F6000 X153.829 Y106.877
G1 F1200 X156.449 Y109.497 E25.05958
G0 F6000 X156.449 Y110.063
G1 F1200 X154.582 Y108.196 E25.1474
G0 F6000 X154.84 Y109.02
G1 F1200 X156.449 Y110.628 E25.22306
G0 F6000 X156.449 Y111.194
G1 F1200 X154.917 Y109.663 E25.2951
G0 F6000 X154.929 Y110.24
G1 F1200 X156.449 Y111.76 E25.36659
G0 F6000 X156.449 Y112.326
G1 F1200 X154.869 Y110.745 E25.44093
G0 F6000 X154.797 Y111.239
G1 F1200 X156.449 Y112.891 E25.51864
G0 F6000 X156.449 Y113.457
G1 F1200 X154.641 Y111.649 E25.60368
G0 F6000 X154.485 Y112.058
G1 F1200 X156.449 Y114.023 E25.69609
G0 F6000 X156.449 Y114.588
G1 F1200 X154.299 Y112.438 E25.79721
G0 F6000 X154.068 Y112.773
G1 F1200 X156.449 Y115.154 E25.90921
G0 F6000 X156.449 Y115.72
G1 F1200 X153.838 Y113.108 E26.03205
G0 F6000 X153.576 Y113.412
G1 F1200 X156.449 Y116.285 E26.16718
G0 F6000 X156.449 Y116.851
G1 F1200 X153.276 Y113.678 E26.31643
G0 F6000 X152.976 Y113.943
G1 F1200 X156.449 Y117.417 E26.47981
G0 F6000 X156.449 Y117.982
G1 F1200 X152.643 Y114.176 E26.65884
G0 F6000 X152.271 Y114.37
G1 F1200 X156.449 Y118.548 E26.85536
G0 F6000 X156.449 Y119.114
G1 F1200 X151.899 Y114.564 E27.06938
G0 F6000 X151.477 Y114.707
G1 F1200 X156.449 Y119.679 E27.30324
G0 F6000 X156.449 Y120.245
G1 F1200 X151.023 Y114.819 E27.55847
G0 F6000 X150.563 Y114.925
G1 F1200 X156.449 Y120.811 E27.83533
G0 F6000 X156.449 Y121.377
G1 F1200 X149.997 Y114.925 E28.13881
G0 F6000 X149.432 Y114.925
G1 F1200 X156.449 Y121.942 E28.46887
G0 F6000 X156.449 Y122.508
G1 F1200 X148.69 Y114.749 E28.83383
G0 F6000 X147.765 Y114.39
G1 F1200 X155.925 Y122.55 E29.21765
G0 F6000 X155.925 Y122.99
G0 X156.818 Y122.918
G0 X156.89 Y108.931
G0 X156.449 Y108.931
G1 F1200 X144.967 Y97.449 E29.75772
G0 F6000 X145.533 Y97.449
G1 F1200 X156.449 Y108.366 E30.2712
G0 F6000 X156.449 Y107.8
G1 F1200 X146.098 Y97.449 E30.75808
G0 F6000 X146.664 Y97.449
G1 F1200 X156.449 Y107.234 E31.21834
G0 F6000 X156.449 Y106.669
G1 F1200 X147.23 Y97.449 E31.652
G0 F6000 X147.795 Y97.449
G1 F1200 X156.449 Y106.103 E32.05905
G0 F6000 X156.449 Y105.537
G1 F1200 X148.361 Y97.449 E32.43949
G0 F6000 X148.927 Y97.449
G1 F1200 X156.449 Y104.972 E32.79332
G0 F6000 X156.449 Y104.406
G1 F1200 X149.492 Y97.449 E33.12056
G0 F6000 X150.057 Y97.449
G1 F1200 X156.449 Y103.84 E33.4212
G0 F6000 X156.449 Y103.275
G1 F1200 X150.623 Y97.449 E33.69523
G0 F6000 X151.189 Y97.449
G1 F1200 X156.449 Y102.709 E33.94265
G0 F6000 X156.449 Y102.143
G1 F1200 X151.755 Y97.449 E34.16344
G0 F6000 X152.32 Y97.449
G1 F1200 X156.449 Y101.578 E34.35765
G0 F6000 X156.449 Y101.012
G1 F1200 X152.886 Y97.449 E34.52525
G0 F6000 X153.452 Y97.449
G1 F1200 X156.449 Y100.446 E34.66622
G0 F6000 X156.449 Y99.88
G1 F1200 X154.017 Y97.449 E34.78059
G0 F6000 X154.583 Y97.449
G1 F1200 X156.449 Y99.315 E34.86836
G0 F6000 X156.449 Y98.749
G1 F1200 X155.149 Y97.449 E34.92951
G0 F6000 X155.714 Y97.449
G1 F1200 X156.449 Y98.183 E34.96405
G0 F6000 X156.449 Y97.618
G1 F1200 X156.28 Y97.449 E34.972
G0 F6000 X156.28 Y96.709
G1 F2700 E29.972
;MESH:NONMESH
G0 F300 X156.28 Y96.709 Z0.4
G0 F6000 X156.291 Y97.104
G0 X156.79 Y114.176
G0 X153.444 Y113.05
G0 X149.493 Y114.176
;TIME_ELAPSED:68.504757
;LAYER:1
M140 S60
M106 S85
;TYPE:WALL-INNER
;MESH:3030_M??trik.stl
G1 F2700 E34.972
G1 F1350 X150.507 Y114.176 E35.00573
G1 X151.492 Y113.934 E35.03947
G1 X152.39 Y113.463 E35.07319
G1 X153.15 Y112.79 E35.10696
G1 X153.725 Y111.955 E35.14068
G1 X154.085 Y111.006 E35.17443
G1 X154.207 Y110 E35.20814
G1 X154.085 Y108.994 E35.24184
G1 X153.725 Y108.045 E35.2756
G1 X153.15 Y107.21 E35.30932
G1 X152.39 Y106.537 E35.34309
G1 X151.492 Y106.066 E35.37681
G1 X150.507 Y105.824 E35.41055
G1 X149.493 Y105.824 E35.44427
G1 X148.508 Y106.066 E35.47801
G1 X147.61 Y106.537 E35.51174
G1 X146.85 Y107.21 E35.5455
G1 X146.275 Y108.045 E35.57922
G1 X145.915 Y108.994 E35.61298
G1 X145.793 Y110 E35.64668
G1 X145.915 Y111.006 E35.68039
G1 X146.275 Y111.955 E35.71415
G1 X146.85 Y112.79 E35.74787
G1 X147.61 Y113.463 E35.78163
G1 X148.508 Y113.934 E35.81536
G1 X149.493 Y114.176 E35.84909
G0 F7500 X149.541 Y113.776
G1 F1350 X150.459 Y113.776 E35.87963
G1 X151.349 Y113.557 E35.91011
G1 X152.161 Y113.131 E35.94061
G1 X152.848 Y112.523 E35.97112
G1 X153.368 Y111.768 E36.00161
G1 X153.694 Y110.91 E36.03214
G1 X153.804 Y110 E36.06263
G1 X153.694 Y109.09 E36.09312
G1 X153.368 Y108.232 E36.12364
G1 X152.848 Y107.477 E36.15413
G1 X152.161 Y106.869 E36.18465
G1 X151.349 Y106.443 E36.21515
G1 X150.459 Y106.224 E36.24563
G1 X149.541 Y106.224 E36.27616
G1 X148.651 Y106.443 E36.30665
G1 X147.839 Y106.869 E36.33715
G1 X147.152 Y107.477 E36.36766
G1 X146.632 Y108.232 E36.39815
G1 X146.306 Y109.09 E36.42868
G1 X146.196 Y110 E36.45916
G1 X146.306 Y110.91 E36.48965
G1 X146.632 Y111.768 E36.52018
G1 X147.152 Y112.523 E36.55067
G1 X147.839 Y113.131 E36.58118
G1 X148.651 Y113.557 E36.61168
G1 X149.541 Y113.776 E36.64217
G0 F7500 X149.59 Y113.376
;TYPE:WALL-OUTER
G1 F1350 X150.41 Y113.376 E36.66944
G1 X151.206 Y113.18 E36.69671
G1 X151.932 Y112.799 E36.72398
G1 X152.546 Y112.256 E36.75124
G1 X153.011 Y111.581 E36.7785
G1 X153.303 Y110.814 E36.8058
G1 X153.401 Y110 E36.83307
G1 X153.303 Y109.186 E36.86034
G1 X153.011 Y108.419 E36.88763
G1 X152.546 Y107.744 E36.91489
G1 X151.932 Y107.201 E36.94216
G1 X151.206 Y106.82 E36.96943
G1 X150.41 Y106.624 E36.99669
G1 X149.59 Y106.624 E37.02397
G1 X148.794 Y106.82 E37.05123
G1 X148.068 Y107.201 E37.0785
G1 X147.454 Y107.744 E37.10576
G1 X146.989 Y108.419 E37.13303
G1 X146.697 Y109.186 E37.16032
G1 X146.599 Y110 E37.18759
G1 X146.697 Y110.814 E37.21486
G1 X146.989 Y111.581 E37.24216
G1 X147.454 Y112.256 E37.26942
G1 X148.068 Y112.799 E37.29668
G1 X148.794 Y113.18 E37.32395
G1 X149.59 Y113.376 E37.35122
G0 F7500 X149.537 Y113.812
G1 F2700 E32.35122
G0 F7500 X150.53 Y114.367
G0 X150.306 Y112.512
G0 X150.384 Y112.529
G0 X158.585 Y114.348
G0 X158.665 Y114.367
G0 X156.79 Y114.367
G0 X157 Y123.3
;TYPE:WALL-INNER
G1 F2700 E37.35122
G1 F1350 X143 Y123.3 E37.81686
G1 X143 Y96.7 E38.70158
G1 X156.801 Y96.699 E39.1606
G1 X157 Y96.699 E39.16722
G1 X157 Y96.898 E39.1715
G1 X157 Y123.3 E40.04964
G0 F7500 X157.4 Y123.7
G1 F1350 X142.6 Y123.7 E40.54189
G1 X142.6 Y96.3 E41.45321
G1 X157.201 Y96.299 E41.93885
G1 X157.4 Y96.299 E41.94546
G1 X157.4 Y96.498 E41.94975
G1 X157.4 Y123.7 E42.85449
G0 F7500 X157.618 Y124.1
;TYPE:WALL-OUTER
G1 F1350 X142.382 Y124.1 E43.36124
G1 X142.2 Y123.918 E43.3698
G1 X142.2 Y96.082 E44.29563
G1 X142.382 Y95.9 E44.30419
G1 X157.617 Y95.899 E44.81091
G1 X157.8 Y96.082 E44.81952
G1 X157.8 Y123.918 E45.74535
G1 X157.618 Y124.1 E45.75391
G0 F7500 X157.36 Y123.694
G0 X156.89 Y122.91
G0 X156.61 Y122.91
;TYPE:SKIN
G1 F1350 X143.39 Y122.91 E46.19361
G1 X143.39 Y97.09 E47.05238
G1 X156.61 Y97.089 E47.49208
G1 X156.61 Y122.91 E48.35089
G1 F2700 E43.35089
G0 F7500 X156.89 Y122.91
G0 X156.79 Y113.554
G0 X153.895 Y112.044
G0 X152.454 Y113.554
G0 X152.613 Y113.787
G1 F2700 E48.35089
G1 F1350 X153.444 Y113.051 E48.38781
G1 X154.072 Y112.138 E48.42467
G1 X154.467 Y111.1 E48.46161
G1 X154.599 Y110 E48.49846
G1 X154.467 Y108.9 E48.53531
G1 X154.072 Y107.862 E48.57224
G1 X153.444 Y106.949 E48.6091
G1 X152.613 Y106.213 E48.64602
G1 X151.631 Y105.699 E48.68289
G1 X150.554 Y105.434 E48.71978
G1 X149.446 Y105.434 E48.75663
G1 X148.369 Y105.699 E48.79352
G1 X147.387 Y106.213 E48.83038
G1 X146.556 Y106.949 E48.86731
G1 X145.928 Y107.862 E48.90416
G1 X145.533 Y108.9 E48.9411
G1 X145.401 Y110 E48.97795
G1 X145.533 Y111.1 E49.0148
G1 X145.928 Y112.138 E49.05174
G1 X146.556 Y113.051 E49.08859
G1 X147.387 Y113.787 E49.12552
G1 X148.369 Y114.301 E49.16238
G1 X149.446 Y114.566 E49.19927
G1 X150.554 Y114.566 E49.23612
