;FLAVOR:Marlin
;TIME:27328
;Filament used: 28.2692m
;Layer height: 0.28
;MINX:9
;MINY:19.126
;MINZ:0.28
;MAXX:289
;MAXY:187.628
;MAXZ:2.8
;Generated with Cura_SteamEngine 4.3.0
M140 S60
M105
M190 S60
M104 S220
M105
M109 S220
M82 ;absolute extrusion mode
M201 X500.00 Y500.00 Z100.00 E5000.00 ;Setup machine max acceleration
M203 X500.00 Y500.00 Z10.00 E50.00 ;Setup machine max feedrate
M204 P500.00 R1000.00 T500.00 ;Setup Print/Retract/Travel acceleration
M205 X8.00 Y8.00 Z0.40 E5.00 ;Setup Jerk
M220 S100 ;Reset Feedrate
M221 S100 ;Reset Flowrate

G28 ;Home

G92 E0 ;Reset Extruder
G1 Z2.0 F3000 ;Move Z Axis up
G1 X10.1 Y20 Z0.28 F5000.0 ;Move to start position
G1 X10.1 Y200.0 Z0.28 F1500.0 E15 ;Draw the first line
G1 X10.4 Y200.0 Z0.28 F5000.0 ;Move to side a little
G1 X10.4 Y20 Z0.28 F1500.0 E30 ;Draw the second line
G92 E0 ;Reset Extruder
G1 Z2.0 F3000 ;Move Z Axis up

G92 E0
G92 E0
G1 F2700 E-5
;LAYER_COUNT:10
;LAYER:0
M107
G0 F6000 X19.142 Y26.634 Z0.28
;TYPE:SKIRT
G1 F2700 E0
G1 F1200 X20.155 Y25.883 E0.05872
G1 X20.448 Y25.691 E0.07503
G1 X20.732 Y25.512 E0.09066
G1 X21.888 Y24.804 E0.15378
G1 X22.032 Y24.717 E0.16162
G1 X22.583 Y24.391 E0.19143
G1 X23.622 Y23.849 E0.246
G1 X23.916 Y23.715 E0.26104
G1 X24.261 Y23.565 E0.27856
G1 X25.504 Y23.049 E0.34123
G1 X25.657 Y22.986 E0.34893
G1 X26.306 Y22.728 E0.38145
G1 X27.508 Y22.329 E0.44042
G1 X27.79 Y22.253 E0.45402
G1 X28.081 Y22.179 E0.46801
G1 X29.412 Y21.859 E0.53175
G1 X29.549 Y21.827 E0.5383
G1 X30.21 Y21.677 E0.56986
G1 X31.466 Y21.467 E0.62916
G1 X31.791 Y21.432 E0.64438
G1 X32.1 Y21.403 E0.65883
G1 X33.413 Y21.299 E0.72016
G1 X33.568 Y21.288 E0.7274
G1 X34.291 Y21.241 E0.76113
G1 X34.797 Y21.22 E0.78471
G1 X35.327 Y21.21 E0.8094
G1 X35.535 Y21.208 E0.81908
G1 X124.293 Y21.208 E4.95203
G1 X124.449 Y21.209 E4.95929
G1 X125.155 Y21.219 E4.99217
G1 X125.64 Y21.237 E5.01477
G1 X126.154 Y21.267 E5.03874
G1 X126.385 Y21.283 E5.04953
G1 X127.529 Y21.374 E5.10296
G1 X127.671 Y21.386 E5.1096
G1 X128.373 Y21.451 E5.14243
G1 X128.833 Y21.503 E5.16398
G1 X131.337 Y21.842 E5.28164
G1 X133.826 Y22.109 E5.39821
G1 X136.343 Y22.307 E5.51577
G1 X138.861 Y22.434 E5.63317
G1 X141.349 Y22.488 E5.74905
G1 X143.907 Y22.472 E5.86816
G1 X146.393 Y22.386 E5.98399
G1 X148.892 Y22.228 E6.10059
G1 X151.425 Y21.997 E6.21902
G1 X153.952 Y21.694 E6.33753
G1 X156.412 Y21.328 E6.45334
G1 X158.874 Y20.889 E6.56979
G1 X161.366 Y20.373 E6.68829
G1 X162.9 Y20.018 E6.76161
G1 X163.891 Y19.781 E6.80905
G1 X164.023 Y19.75 E6.81537
G1 X164.716 Y19.593 E6.84845
G1 X165.998 Y19.381 E6.90896
G1 X166.322 Y19.347 E6.92413
G1 X166.601 Y19.321 E6.93718
G1 X167.914 Y19.217 E6.99851
G1 X168.068 Y19.206 E7.0057
G1 X168.79 Y19.159 E7.03939
G1 X169.297 Y19.138 E7.06302
G1 X169.827 Y19.128 E7.0877
G1 X170.035 Y19.126 E7.09738
G1 X258.794 Y19.126 E11.23038
G1 X258.95 Y19.127 E11.23764
G1 X259.656 Y19.137 E11.27052
G1 X260.158 Y19.156 E11.29391
G1 X260.692 Y19.188 E11.31882
G1 X260.902 Y19.202 E11.32862
G1 X262.027 Y19.291 E11.38117
G1 X262.187 Y19.305 E11.38865
G1 X262.869 Y19.369 E11.42054
G1 X264.059 Y19.547 E11.47657
G1 X264.399 Y19.617 E11.49273
G1 X264.746 Y19.694 E11.50928
G1 X266.022 Y20 E11.57039
G1 X266.181 Y20.04 E11.57802
G1 X266.85 Y20.211 E11.61017
G1 X268.044 Y20.59 E11.6685
G1 X268.385 Y20.72 E11.6855
G1 X268.668 Y20.832 E11.69967
G1 X269.873 Y21.33 E11.76038
G1 X270.03 Y21.396 E11.76831
G1 X270.658 Y21.667 E11.80016
G1 X271.74 Y22.206 E11.85645
G1 X272.03 Y22.371 E11.87199
G1 X272.336 Y22.552 E11.88854
G1 X273.428 Y23.221 E11.94817
G1 X273.565 Y23.306 E11.95568
G1 X274.197 Y23.706 E11.99051
G1 X275.19 Y24.415 E12.04732
G1 X275.436 Y24.612 E12.062
G1 X275.709 Y24.837 E12.07847
G1 X276.723 Y25.704 E12.14059
G1 X276.842 Y25.808 E12.14795
G1 X277.36 Y26.264 E12.18009
G1 X278.198 Y27.085 E12.23471
G1 X278.442 Y27.351 E12.25152
G1 X278.701 Y27.644 E12.26973
G1 X279.578 Y28.671 E12.33261
G1 X279.679 Y28.791 E12.33992
G1 X280.073 Y29.266 E12.36865
G1 X280.739 Y30.157 E12.42045
G1 X280.923 Y30.431 E12.43582
G1 X281.167 Y30.811 E12.45685
G1 X281.886 Y31.983 E12.52087
G1 X281.971 Y32.124 E12.52854
G1 X282.312 Y32.699 E12.55967
G1 X282.854 Y33.735 E12.61411
G1 X282.988 Y34.028 E12.62911
G1 X283.146 Y34.388 E12.64742
G1 X283.662 Y35.632 E12.71013
G1 X283.723 Y35.783 E12.71772
G1 X283.981 Y36.432 E12.75024
G1 X284.376 Y37.617 E12.8084
G1 X284.456 Y37.912 E12.82263
G1 X284.535 Y38.222 E12.83753
G1 X284.846 Y39.517 E12.89954
G1 X284.881 Y39.667 E12.90672
G1 X285.037 Y40.359 E12.93975
G1 X285.244 Y41.614 E12.99897
G1 X285.279 Y41.943 E13.01438
G1 X285.306 Y42.232 E13.0279
G1 X285.411 Y43.548 E13.08937
G1 X285.424 Y43.727 E13.09773
G1 X285.465 Y44.374 E13.12791
G1 X285.472 Y45.643 E13.187
G1 X285.421 Y46.62 E13.23256
G1 X285.409 Y46.823 E13.24203
G1 X285.375 Y47.304 E13.26448
G1 X285.363 Y47.448 E13.27121
G1 X285.306 Y48.127 E13.30294
G1 X285.189 Y49.054 E13.34645
G1 X285.103 Y49.559 E13.3703
G1 X285.075 Y49.713 E13.37759
G1 X284.755 Y51.443 E13.45951
G1 X284.363 Y53.951 E13.57771
G1 X284.047 Y56.434 E13.69426
G1 X283.797 Y58.959 E13.81241
G1 X283.621 Y61.472 E13.92971
G1 X283.516 Y63.969 E14.04609
G1 X283.482 Y66.486 E14.1633
G1 X283.52 Y69.015 E14.28108
G1 X283.627 Y71.525 E14.39806
G1 X283.806 Y74.024 E14.51472
G1 X284.059 Y76.556 E14.63321
G1 X284.378 Y79.033 E14.7495
G1 X284.771 Y81.527 E14.86706
G1 X285.232 Y84.004 E14.98438
G1 X285.755 Y86.423 E15.09962
G1 X286.363 Y88.898 E15.2183
G1 X287.028 Y91.308 E15.33471
G1 X287.352 Y92.344 E15.38526
G1 X287.405 Y92.518 E15.39373
G1 X287.806 Y93.878 E15.45975
G1 X287.871 Y94.109 E15.47092
G1 X287.954 Y94.415 E15.48569
G1 X288.033 Y94.721 E15.5004
G1 X288.344 Y96.013 E15.56228
G1 X288.38 Y96.171 E15.56983
G1 X288.536 Y96.864 E15.6029
G1 X288.741 Y98.093 E15.66092
G1 X288.778 Y98.434 E15.67689
G1 X288.808 Y98.762 E15.69223
G1 X288.909 Y100.051 E15.75243
G1 X288.92 Y100.191 E15.75897
G1 X288.967 Y100.909 E15.79248
G1 X288.988 Y101.422 E15.81639
G1 X288.998 Y101.956 E15.84126
G1 X289 Y102.162 E15.85085
G1 X289 Y160.921 E18.58691
G1 X288.999 Y161.077 E18.59418
G1 X288.989 Y161.782 E18.62701
G1 X288.971 Y162.277 E18.65007
G1 X288.941 Y162.783 E18.67368
G1 X288.926 Y162.997 E18.68367
G1 X288.835 Y164.151 E18.73757
G1 X288.821 Y164.315 E18.74523
G1 X288.757 Y164.996 E18.77708
G1 X288.58 Y166.179 E18.83278
G1 X288.51 Y166.52 E18.84899
G1 X288.432 Y166.873 E18.86582
G1 X288.126 Y168.149 E18.92692
G1 X288.087 Y168.305 E18.93441
G1 X287.917 Y168.971 E18.96642
G1 X287.549 Y170.138 E19.0234
G1 X287.433 Y170.445 E19.03868
G1 X287.308 Y170.761 E19.0545
G1 X286.81 Y171.965 E19.11517
G1 X286.746 Y172.116 E19.12281
G1 X286.458 Y172.784 E19.15668
G1 X285.91 Y173.883 E19.21386
G1 X285.741 Y174.179 E19.22973
G1 X285.566 Y174.474 E19.24571
G1 X284.891 Y175.575 E19.30584
G1 X284.812 Y175.702 E19.31281
G1 X284.424 Y176.316 E19.34663
G1 X283.728 Y177.295 E19.40256
G1 X283.524 Y177.551 E19.4178
G1 X283.286 Y177.839 E19.4352
G1 X282.427 Y178.845 E19.49679
G1 X282.322 Y178.966 E19.50425
G1 X281.877 Y179.472 E19.53563
G1 X281.068 Y180.3 E19.58953
G1 X280.828 Y180.521 E19.60473
G1 X280.529 Y180.786 E19.62333
G1 X279.537 Y181.635 E19.68413
G1 X279.41 Y181.743 E19.69189
G1 X278.834 Y182.221 E19.72675
G1 X277.833 Y182.96 E19.78468
G1 X277.587 Y183.121 E19.79837
G1 X277.32 Y183.29 E19.81309
G1 X276.156 Y184.005 E19.8767
G1 X276.006 Y184.096 E19.88487
G1 X275.422 Y184.442 E19.91647
G1 X274.387 Y184.983 E19.97085
G1 X274.12 Y185.105 E19.98452
G1 X273.765 Y185.259 E20.00254
G1 X272.469 Y185.797 E20.06788
G1 X272.305 Y185.864 E20.07613
G1 X271.702 Y186.103 E20.10633
G1 X270.598 Y186.474 E20.16057
G1 X270.289 Y186.56 E20.1755
G1 X269.915 Y186.657 E20.19349
G1 X268.636 Y186.965 E20.25475
G1 X268.492 Y186.999 E20.26164
G1 X267.777 Y187.161 E20.29578
G1 X266.526 Y187.369 E20.35483
G1 X266.211 Y187.403 E20.36958
G1 X265.9 Y187.433 E20.38413
G1 X264.587 Y187.537 E20.44546
G1 X264.432 Y187.548 E20.4527
G1 X263.709 Y187.595 E20.48643
G1 X263.203 Y187.616 E20.51002
G1 X262.674 Y187.626 E20.53465
G1 X262.466 Y187.628 E20.54434
G1 X173.707 Y187.628 E24.67733
G1 X173.551 Y187.627 E24.68459
G1 X172.845 Y187.617 E24.71747
G1 X172.343 Y187.598 E24.74086
G1 X171.809 Y187.566 E24.76577
G1 X171.599 Y187.552 E24.77557
G1 X170.474 Y187.463 E24.82812
G1 X170.314 Y187.449 E24.8356
G1 X169.632 Y187.385 E24.8675
G1 X168.441 Y187.207 E24.92357
G1 X168.106 Y187.138 E24.9395
G1 X167.755 Y187.06 E24.95624
G1 X166.444 Y186.745 E25.01902
G1 X166.282 Y186.704 E25.0268
G1 X165.658 Y186.544 E25.0568
G1 X165.379 Y186.469 E25.07025
G1 X164.887 Y186.329 E25.09407
G1 X164.728 Y186.282 E25.10179
G1 X163.053 Y185.778 E25.18324
G1 X160.602 Y185.116 E25.30146
G1 X158.169 Y184.531 E25.41798
G1 X155.71 Y184.017 E25.53495
G1 X153.208 Y183.565 E25.65334
G1 X150.748 Y183.191 E25.76921
G1 X148.254 Y182.885 E25.88621
G1 X145.712 Y182.645 E26.0051
G1 X143.219 Y182.481 E26.12144
G1 X140.733 Y182.388 E26.23728
G1 X138.173 Y182.364 E26.35649
G1 X135.682 Y182.412 E26.4725
G1 X133.527 Y182.517 E26.57297
G1 X133.389 Y182.523 E26.5794
G1 X132.781 Y182.545 E26.60773
G1 X132.504 Y182.551 E26.62063
G1 X132.14 Y182.555 E26.63758
G1 X132.019 Y182.556 E26.64321
G1 X43.258 Y182.556 E30.7763
G1 X43.102 Y182.555 E30.78356
G1 X42.397 Y182.545 E30.81639
G1 X41.913 Y182.527 E30.83894
G1 X41.398 Y182.497 E30.86297
G1 X41.165 Y182.481 E30.87384
G1 X40.022 Y182.39 E30.92723
G1 X39.883 Y182.378 E30.93373
G1 X39.201 Y182.315 E30.96562
G1 X37.964 Y182.13 E31.02386
G1 X37.624 Y182.059 E31.04003
G1 X37.304 Y181.987 E31.05531
G1 X36.03 Y181.681 E31.11632
G1 X35.871 Y181.641 E31.12395
G1 X35.203 Y181.47 E31.15606
G1 X34.096 Y181.124 E31.21007
G1 X33.768 Y181.002 E31.22636
G1 X33.395 Y180.855 E31.24503
G1 X32.173 Y180.349 E31.30662
G1 X32.017 Y180.283 E31.3145
G1 X31.383 Y180.009 E31.34666
G1 X30.31 Y179.475 E31.40247
G1 X30.062 Y179.334 E31.41576
G1 X29.757 Y179.153 E31.43227
G1 X28.61 Y178.451 E31.49489
G1 X28.476 Y178.368 E31.50223
G1 X27.862 Y177.98 E31.53605
G1 X26.853 Y177.26 E31.59377
G1 X26.625 Y177.077 E31.60738
G1 X26.374 Y176.869 E31.62256
G1 X25.378 Y176.02 E31.6835
G1 X25.234 Y175.895 E31.69238
G1 X24.662 Y175.39 E31.72791
G1 X23.843 Y174.587 E31.78132
G1 X23.65 Y174.377 E31.7946
G1 X23.379 Y174.072 E31.8136
G1 X22.527 Y173.073 E31.87474
G1 X22.436 Y172.964 E31.88135
G1 X21.965 Y172.397 E31.91567
G1 X21.235 Y171.411 E31.9728
G1 X21.043 Y171.119 E31.98907
G1 X20.856 Y170.824 E32.00533
G1 X20.164 Y169.695 E32.06699
G1 X20.078 Y169.554 E32.07468
G1 X19.732 Y168.97 E32.10629
G1 X19.173 Y167.895 E32.16271
G1 X19.055 Y167.634 E32.17605
G1 X18.92 Y167.323 E32.19184
G1 X18.411 Y166.098 E32.2536
G1 X18.352 Y165.952 E32.26094
G1 X18.078 Y165.265 E32.29538
G1 X17.677 Y164.064 E32.35434
G1 X17.595 Y163.761 E32.36895
G1 X17.519 Y163.463 E32.38327
G1 X17.208 Y162.172 E32.44511
G1 X17.171 Y162.012 E32.45275
G1 X17.015 Y161.319 E32.48583
G1 X16.808 Y160.07 E32.54478
G1 X16.773 Y159.742 E32.56014
G1 X16.746 Y159.45 E32.5738
G1 X16.641 Y158.134 E32.63527
G1 X16.629 Y157.967 E32.64307
G1 X16.587 Y157.316 E32.67344
G1 X16.579 Y156.031 E32.73328
G1 X16.676 Y154.184 E32.8194
G1 X16.678 Y154.151 E32.82094
G1 X16.767 Y152.546 E32.89579
G1 X16.836 Y150.02 E33.01346
G1 X16.834 Y147.496 E33.13098
G1 X16.761 Y145.01 E33.24679
G1 X16.615 Y142.478 E33.36489
G1 X16.399 Y139.96 E33.48257
G1 X16.112 Y137.469 E33.59933
G1 X15.753 Y134.959 E33.71739
G1 X15.329 Y132.5 E33.83358
G1 X14.839 Y130.067 E33.94915
G1 X14.264 Y127.582 E34.06792
G1 X13.621 Y125.12 E34.1864
G1 X12.926 Y122.738 E34.30194
G1 X12.148 Y120.325 E34.42
G1 X11.302 Y117.938 E34.53792
G1 X10.511 Y115.877 E34.64072
G1 X10.25 Y115.116 E34.67818
G1 X10.135 Y114.735 E34.69671
G1 X9.971 Y114.127 E34.72603
G1 X9.651 Y112.796 E34.78978
G1 X9.617 Y112.654 E34.79658
G1 X9.466 Y111.987 E34.82842
G1 X9.257 Y110.724 E34.88803
G1 X9.223 Y110.405 E34.90297
G1 X9.195 Y110.108 E34.91686
G1 X9.091 Y108.795 E34.97819
G1 X9.08 Y108.64 E34.98542
G1 X9.033 Y107.917 E35.01916
G1 X9.012 Y107.411 E35.04274
G1 X9.002 Y106.881 E35.06743
G1 X9 Y106.673 E35.07711
G1 X9 Y47.915 E37.81313
G1 X9.001 Y47.759 E37.8204
G1 X9.011 Y47.052 E37.85332
G1 X9.03 Y46.549 E37.87676
G1 X9.062 Y46.016 E37.90162
G1 X9.076 Y45.807 E37.91138
G1 X9.165 Y44.682 E37.96392
G1 X9.179 Y44.521 E37.97145
G1 X9.243 Y43.84 E38.0033
G1 X9.42 Y42.657 E38.059
G1 X9.49 Y42.316 E38.07521
G1 X9.568 Y41.963 E38.09204
G1 X9.874 Y40.687 E38.15314
G1 X9.913 Y40.531 E38.16063
G1 X10.083 Y39.865 E38.19263
G1 X10.461 Y38.671 E38.25095
G1 X10.592 Y38.327 E38.26809
G1 X10.706 Y38.041 E38.28243
G1 X11.204 Y36.836 E38.34314
G1 X11.266 Y36.688 E38.35061
G1 X11.538 Y36.056 E38.38265
G1 X12.1 Y34.933 E38.44113
G1 X12.264 Y34.647 E38.45648
G1 X12.428 Y34.369 E38.47151
G1 X13.111 Y33.255 E38.53235
G1 X13.191 Y33.127 E38.53938
G1 X13.576 Y32.518 E38.57293
G1 X14.284 Y31.524 E38.62976
G1 X14.488 Y31.269 E38.64496
G1 X14.719 Y30.991 E38.66179
G1 X15.594 Y29.968 E38.72447
G1 X15.685 Y29.863 E38.73094
G1 X16.115 Y29.373 E38.7613
G1 X16.89 Y28.574 E38.81313
G1 X17.134 Y28.347 E38.82865
G1 X17.488 Y28.032 E38.85072
G1 X18.481 Y27.185 E38.91149
G1 X18.578 Y27.104 E38.91737
G1 X19.142 Y26.634 E38.95156
G0 F6000 X19.398 Y26.941
G1 F1200 X20.374 Y26.218 E39.00812
G1 X20.667 Y26.026 E39.02443
G1 X20.941 Y25.853 E39.03952
G1 X22.097 Y25.145 E39.10264
G1 X22.235 Y25.061 E39.11016
G1 X22.786 Y24.735 E39.13997
G1 X23.788 Y24.213 E39.19258
G1 X24.082 Y24.079 E39.20763
G1 X24.414 Y23.934 E39.2245
G1 X25.657 Y23.418 E39.28716
G1 X25.805 Y23.358 E39.2946
G1 X26.454 Y23.1 E39.32712
G1 X27.612 Y22.715 E39.38394
G1 X27.894 Y22.639 E39.39754
G1 X28.174 Y22.568 E39.41099
G1 X29.505 Y22.248 E39.47474
G1 X29.637 Y22.217 E39.48105
G1 X30.298 Y22.067 E39.51261
G1 X31.509 Y21.865 E39.56978
G1 X31.834 Y21.83 E39.585
G1 X32.132 Y21.802 E39.59894
G1 X33.445 Y21.698 E39.66027
G1 X33.594 Y21.687 E39.66723
G1 X34.317 Y21.64 E39.70096
G1 X34.805 Y21.62 E39.72371
G1 X35.335 Y21.61 E39.74839
G1 X35.535 Y21.608 E39.7577
G1 X124.293 Y21.608 E43.89065
G1 X124.443 Y21.609 E43.89763
G1 X125.149 Y21.619 E43.93051
G1 X125.617 Y21.636 E43.95232
G1 X126.131 Y21.666 E43.97629
G1 X126.354 Y21.681 E43.9867
G1 X127.498 Y21.772 E44.04014
G1 X127.634 Y21.784 E44.04649
G1 X128.336 Y21.849 E44.07932
G1 X128.779 Y21.9 E44.10008
G1 X131.273 Y22.237 E44.21727
G1 X133.791 Y22.508 E44.3352
G1 X136.29 Y22.704 E44.45192
G1 X138.868 Y22.834 E44.57211
G1 X141.343 Y22.888 E44.68739
G1 X143.889 Y22.872 E44.80594
G1 X146.432 Y22.784 E44.92443
G1 X148.953 Y22.625 E45.04205
G1 X151.472 Y22.395 E45.15983
G1 X153.957 Y22.097 E45.27637
G1 X156.469 Y21.723 E45.39463
G1 X158.988 Y21.275 E45.51377
G1 X161.45 Y20.764 E45.63085
G1 X162.99 Y20.408 E45.70445
G1 X163.984 Y20.17 E45.75204
G1 X164.111 Y20.14 E45.75812
G1 X164.804 Y19.983 E45.79121
G1 X166.04 Y19.779 E45.84954
G1 X166.364 Y19.745 E45.86471
G1 X166.633 Y19.72 E45.87729
G1 X167.946 Y19.616 E45.93862
G1 X168.094 Y19.605 E45.94553
G1 X168.816 Y19.558 E45.97922
G1 X169.305 Y19.538 E46.00201
G1 X169.835 Y19.528 E46.02669
G1 X170.035 Y19.526 E46.036
G1 X258.794 Y19.526 E50.169
G1 X258.944 Y19.527 E50.17598
G1 X259.65 Y19.537 E50.20886
G1 X260.134 Y19.555 E50.23141
G1 X260.668 Y19.587 E50.25632
G1 X260.87 Y19.601 E50.26575
G1 X261.995 Y19.69 E50.3183
G1 X262.149 Y19.703 E50.32549
G1 X262.831 Y19.767 E50.35739
G1 X263.979 Y19.939 E50.41144
G1 X264.319 Y20.009 E50.42761
G1 X264.653 Y20.083 E50.44354
G1 X265.929 Y20.389 E50.50464
G1 X266.082 Y20.427 E50.51198
G1 X266.751 Y20.598 E50.54413
G1 X267.902 Y20.963 E50.60036
G1 X268.243 Y21.093 E50.61735
G1 X268.516 Y21.202 E50.63104
G1 X269.721 Y21.7 E50.69175
G1 X269.872 Y21.764 E50.69939
G1 X270.5 Y22.035 E50.73123
G1 X271.542 Y22.554 E50.78544
G1 X271.832 Y22.719 E50.80098
G1 X272.127 Y22.893 E50.81692
G1 X273.219 Y23.562 E50.87656
G1 X273.351 Y23.644 E50.88379
G1 X273.983 Y24.044 E50.91862
G1 X274.94 Y24.727 E50.97337
G1 X275.186 Y24.924 E50.98804
G1 X275.449 Y25.141 E51.00392
G1 X276.463 Y26.008 E51.06604
G1 X276.578 Y26.109 E51.07317
G1 X277.096 Y26.565 E51.1053
G1 X277.903 Y27.356 E51.15792
G1 X278.147 Y27.622 E51.17473
G1 X278.397 Y27.903 E51.19224
