;FLAVOR:Marlin
;TIME:34773
;Filament used: 28.4127m
;Layer height: 0.3
;MINX:31.901
;MINY:67.76
;MINZ:0.15
;MAXX:285.329
;MAXY:231.849
;MAXZ:34.95
;Generated with Cura_SteamEngine 4.3.0
M140 S60
M105
M190 S60
M104 S200
M105
M109 S200
M82 ;absolute extrusion mode
G21 ;metric values
 G90 ;absolute positioning
 M82 ;set extruder to absolute mode
 M107 ;start with the fan off
 G28 X0 Y0 ;move X/Y to min endstops
 G28 Z0 ;move Z to min endstops
 G1 Z15.0 F120 ;move the platform down 15mm
 G92 E0 ;zero the extruded length
 G1 F200 E6 ;extrude 6 mm of feed stock
 G92 E0 ;zero the extruded length again
 G1 F120 
 ;Put printing message on LCD screen
 M117 Printing...
G92 E0
G92 E0
G1 F1500 E-6.5
;LAYER_COUNT:117
;LAYER:0
M107
G0 F3600 X59.569 Y74.503 Z0.15
;TYPE:SKIRT
G1 F1500 E0
G1 F900 X59.843 Y74.298 E0.00854
G1 X60.062 Y74.152 E0.0151
G1 X60.157 Y74.092 E0.0179
G1 X61.319 Y73.375 E0.05196
G1 X61.359 Y73.35 E0.05314
G1 X61.989 Y72.974 E0.07144
G1 X62.314 Y72.805 E0.08058
G1 X62.609 Y72.672 E0.08865
G1 X62.694 Y72.635 E0.09097
G1 X63.897 Y72.134 E0.12347
G1 X63.936 Y72.118 E0.12452
G1 X64.609 Y71.848 E0.14261
G1 X64.954 Y71.732 E0.15169
G1 X65.246 Y71.652 E0.15924
G1 X65.335 Y71.629 E0.16154
G1 X66.629 Y71.314 E0.19476
G1 X66.672 Y71.304 E0.19586
G1 X67.367 Y71.145 E0.21365
G1 X67.731 Y71.083 E0.22286
G1 X68.04 Y71.049 E0.23061
G1 X68.131 Y71.041 E0.23289
G1 X69.485 Y70.931 E0.26678
G1 X69.534 Y70.927 E0.268
G1 X70.218 Y70.882 E0.2851
G1 X70.302 Y70.877 E0.2872
G1 X70.53 Y70.868 E0.29289
G1 X70.639 Y70.866 E0.29561
G1 X71.579 Y70.861 E0.31906
G1 X129.8 Y70.861 E1.77139
G1 X130.506 Y70.871 E1.789
G1 X130.653 Y70.877 E1.79267
G1 X131.235 Y70.912 E1.80722
G1 X131.292 Y70.916 E1.80864
G1 X132.318 Y70.996 E1.83431
G1 X132.362 Y70.999 E1.83541
G1 X133.057 Y71.063 E1.85282
G1 X133.411 Y71.116 E1.86175
G1 X133.76 Y71.188 E1.87064
G1 X133.854 Y71.209 E1.87305
G1 X135.144 Y71.516 E1.90612
G1 X135.186 Y71.526 E1.9072
G1 X135.816 Y71.685 E1.92341
G1 X135.911 Y71.711 E1.92587
G1 X136.524 Y71.886 E1.94177
G1 X136.561 Y71.897 E1.94273
G1 X138.074 Y72.348 E1.98211
G1 X140.739 Y73.062 E2.05094
G1 X143.401 Y73.695 E2.11919
G1 X146.091 Y74.257 E2.18774
G1 X148.748 Y74.731 E2.25507
G1 X151.48 Y75.14 E2.32398
G1 X154.219 Y75.471 E2.3928
G1 X156.887 Y75.718 E2.45964
G1 X159.67 Y75.895 E2.5292
G1 X162.388 Y75.992 E2.59704
G1 X165.14 Y76.013 E2.6657
G1 X167.859 Y75.955 E2.73354
G1 X170.608 Y75.82 E2.80219
G1 X173.319 Y75.609 E2.87002
G1 X176.056 Y75.318 E2.93868
G1 X178.749 Y74.955 E3.00647
G1 X181.476 Y74.508 E3.0754
G1 X184.138 Y73.994 E3.14303
G1 X186.831 Y73.395 E3.21185
G1 X189.473 Y72.728 E3.27982
G1 X192.106 Y71.984 E3.34808
G1 X194.732 Y71.162 E3.41672
G1 X197.319 Y70.269 E3.48499
G1 X200.465 Y69.072 E3.56895
G1 X201.283 Y68.746 E3.59092
G1 X201.619 Y68.633 E3.59976
G1 X201.906 Y68.554 E3.60719
G1 X201.997 Y68.53 E3.60953
G1 X203.293 Y68.214 E3.64281
G1 X203.335 Y68.204 E3.64389
G1 X204.015 Y68.048 E3.66129
G1 X204.367 Y67.988 E3.6702
G1 X204.725 Y67.947 E3.67919
G1 X204.832 Y67.936 E3.68187
G1 X206.135 Y67.831 E3.71448
G1 X206.177 Y67.828 E3.71553
G1 X206.876 Y67.781 E3.733
G1 X206.977 Y67.776 E3.73553
G1 X207.202 Y67.768 E3.74114
G1 X207.296 Y67.766 E3.74349
G1 X208.243 Y67.76 E3.76711
G1 X266.467 Y67.76 E5.21952
G1 X267.173 Y67.77 E5.23713
G1 X267.322 Y67.776 E5.24085
G1 X267.898 Y67.811 E5.25524
G1 X267.954 Y67.815 E5.25664
G1 X269.002 Y67.897 E5.28287
G1 X269.048 Y67.901 E5.28402
G1 X269.63 Y67.955 E5.2986
G1 X270.008 Y68.013 E5.30814
G1 X271.135 Y68.256 E5.3369
G1 X271.197 Y68.27 E5.33848
G1 X271.764 Y68.404 E5.35302
G1 X271.817 Y68.417 E5.35438
G1 X272.513 Y68.594 E5.37229
G1 X272.852 Y68.7 E5.38115
G1 X273.184 Y68.825 E5.39
G1 X273.272 Y68.86 E5.39236
G1 X274.47 Y69.352 E5.42467
G1 X274.513 Y69.37 E5.42583
G1 X275.151 Y69.643 E5.44314
G1 X275.465 Y69.798 E5.45188
G1 X275.713 Y69.938 E5.45898
G1 X275.786 Y69.981 E5.4611
G1 X275.961 Y70.086 E5.46619
G1 X275.98 Y70.097 E5.46673
G1 X276.935 Y70.679 E5.49463
G1 X276.977 Y70.705 E5.49586
G1 X277.621 Y71.111 E5.51485
G1 X277.908 Y71.315 E5.52364
G1 X278.159 Y71.515 E5.53164
G1 X278.238 Y71.581 E5.53421
G1 X279.256 Y72.447 E5.56755
G1 X279.291 Y72.476 E5.56869
G1 X279.804 Y72.925 E5.58569
G1 X280.064 Y73.18 E5.59478
G1 X280.304 Y73.444 E5.60368
G1 X280.363 Y73.512 E5.60592
G1 X281.242 Y74.535 E5.63957
G1 X281.273 Y74.571 E5.64075
G1 X281.664 Y75.04 E5.65598
G1 X281.851 Y75.288 E5.66373
G1 X282.028 Y75.548 E5.67158
G1 X282.106 Y75.668 E5.67515
G1 X282.814 Y76.815 E5.70877
G1 X283.207 Y77.47 E5.72783
G1 X283.384 Y77.81 E5.73739
G1 X283.511 Y78.094 E5.74515
G1 X283.543 Y78.167 E5.74714
G1 X284.054 Y79.391 E5.78022
G1 X284.07 Y79.431 E5.7813
G1 X284.338 Y80.098 E5.79923
G1 X284.454 Y80.44 E5.80824
G1 X284.545 Y80.77 E5.81678
G1 X284.57 Y80.866 E5.81925
G1 X284.876 Y82.126 E5.8516
G1 X284.887 Y82.173 E5.8528
G1 X285.044 Y82.865 E5.8705
G1 X285.103 Y83.211 E5.87926
G1 X285.142 Y83.554 E5.88787
G1 X285.152 Y83.658 E5.89047
G1 X285.259 Y84.98 E5.92356
G1 X285.262 Y85.02 E5.92456
G1 X285.308 Y85.693 E5.94139
G1 X285.314 Y85.832 E5.94486
G1 X285.326 Y86.318 E5.95698
G1 X285.327 Y86.388 E5.95873
G1 X285.329 Y87.085 E5.97612
G1 X285.329 Y145.298 E7.42825
G1 X285.319 Y146.003 E7.44584
G1 X285.314 Y146.143 E7.44933
G1 X285.285 Y146.644 E7.46185
G1 X285.195 Y147.796 E7.49067
G1 X285.191 Y147.842 E7.49182
G1 X285.133 Y148.468 E7.50751
G1 X285.075 Y148.848 E7.5171
G1 X284.836 Y149.956 E7.54537
G1 X284.822 Y150.02 E7.547
G1 X284.692 Y150.568 E7.56105
G1 X284.68 Y150.615 E7.56226
G1 X284.495 Y151.345 E7.58105
G1 X284.39 Y151.68 E7.58981
G1 X284.277 Y151.982 E7.59785
G1 X284.24 Y152.077 E7.60039
G1 X283.737 Y153.301 E7.6334
G1 X283.718 Y153.347 E7.63465
G1 X283.446 Y153.981 E7.65186
G1 X283.41 Y154.06 E7.65402
G1 X282.892 Y155.182 E7.68485
G1 X281.757 Y157.735 E7.75454
G1 X280.715 Y160.26 E7.82268
G1 X279.749 Y162.818 E7.89089
G1 X278.851 Y165.409 E7.95929
G1 X278.025 Y168.028 E8.0278
G1 X277.278 Y170.656 E8.09595
G1 X276.605 Y173.298 E8.16396
G1 X275.995 Y176.012 E8.23335
G1 X275.485 Y178.641 E8.30015
G1 X275.032 Y181.379 E8.36938
G1 X274.669 Y184.029 E8.4361
G1 X274.369 Y186.812 E8.50593
G1 X274.154 Y189.521 E8.57372
G1 X274.014 Y192.274 E8.64248
G1 X273.952 Y194.989 E8.71022
G1 X273.968 Y197.745 E8.77897
G1 X274.059 Y200.458 E8.84669
G1 X274.23 Y203.204 E8.91532
G1 X274.48 Y205.953 E8.98418
G1 X274.799 Y208.626 E9.05133
G1 X274.913 Y209.379 E9.07032
G1 X274.92 Y209.428 E9.07156
G1 X275.106 Y210.801 E9.10612
G1 X275.115 Y210.872 E9.10791
G1 X275.155 Y211.226 E9.11679
G1 X275.165 Y211.328 E9.11935
G1 X275.272 Y212.654 E9.15254
G1 X275.275 Y212.698 E9.15364
G1 X275.315 Y213.297 E9.16861
G1 X275.317 Y213.68 E9.17816
G1 X275.256 Y214.829 E9.20687
G1 X275.252 Y214.901 E9.20867
G1 X275.205 Y215.52 E9.22415
G1 X275.201 Y215.565 E9.22528
G1 X275.142 Y216.22 E9.24168
G1 X275.098 Y216.533 E9.24957
G1 X275.047 Y216.8 E9.25635
G1 X275.018 Y216.937 E9.25984
G1 X274.694 Y218.305 E9.29491
G1 X274.681 Y218.356 E9.29622
G1 X274.513 Y219.017 E9.31324
G1 X274.413 Y219.34 E9.32167
G1 X274.282 Y219.694 E9.33109
G1 X274.24 Y219.801 E9.33395
G1 X273.758 Y220.972 E9.36554
G1 X273.742 Y221.011 E9.36659
G1 X273.461 Y221.669 E9.38444
G1 X273.304 Y221.986 E9.39327
G1 X273.16 Y222.241 E9.40057
G1 X273.108 Y222.33 E9.40314
G1 X272.425 Y223.453 E9.43593
G1 X272.401 Y223.492 E9.43707
G1 X271.997 Y224.135 E9.45602
G1 X271.786 Y224.432 E9.4651
G1 X271.578 Y224.692 E9.47341
G1 X271.518 Y224.765 E9.47577
G1 X270.659 Y225.776 E9.50886
G1 X270.628 Y225.811 E9.51003
G1 X270.18 Y226.323 E9.527
G1 X269.926 Y226.583 E9.53606
G1 X269.67 Y226.816 E9.5447
G1 X269.599 Y226.878 E9.54705
G1 X268.587 Y227.746 E9.58031
G1 X268.553 Y227.775 E9.58142
G1 X268.037 Y228.205 E9.59818
G1 X267.766 Y228.408 E9.60663
G1 X267.534 Y228.563 E9.61359
G1 X267.437 Y228.625 E9.61646
G1 X266.28 Y229.339 E9.65037
G1 X266.244 Y229.361 E9.65142
G1 X265.63 Y229.729 E9.66928
G1 X265.299 Y229.902 E9.6786
G1 X265.008 Y230.033 E9.68656
G1 X264.926 Y230.068 E9.68878
G1 X263.699 Y230.58 E9.72195
G1 X263.659 Y230.597 E9.72303
G1 X263.006 Y230.859 E9.74058
G1 X262.659 Y230.976 E9.74972
G1 X262.363 Y231.057 E9.75737
G1 X262.276 Y231.079 E9.75961
G1 X260.98 Y231.395 E9.79289
G1 X260.933 Y231.406 E9.79409
G1 X260.24 Y231.564 E9.81182
G1 X259.879 Y231.625 E9.82096
G1 X259.543 Y231.662 E9.82939
G1 X259.453 Y231.67 E9.83164
G1 X258.14 Y231.777 E9.8645
G1 X258.095 Y231.781 E9.86563
G1 X257.396 Y231.828 E9.88311
G1 X257.295 Y231.833 E9.88563
G1 X257.07 Y231.841 E9.89124
G1 X256.976 Y231.843 E9.89359
G1 X256.029 Y231.849 E9.91721
G1 X197.805 Y231.849 E11.36962
G1 X197.1 Y231.839 E11.3872
G1 X196.951 Y231.833 E11.39092
G1 X196.374 Y231.798 E11.40534
G1 X196.318 Y231.794 E11.40675
G1 X195.27 Y231.712 E11.43297
G1 X195.224 Y231.708 E11.43412
G1 X194.642 Y231.654 E11.4487
G1 X194.264 Y231.596 E11.45824
G1 X193.137 Y231.353 E11.487
G1 X193.075 Y231.339 E11.48858
G1 X192.508 Y231.205 E11.50312
G1 X192.455 Y231.192 E11.50448
G1 X191.759 Y231.015 E11.52239
G1 X191.42 Y230.909 E11.53125
G1 X191.088 Y230.784 E11.5401
G1 X191.001 Y230.749 E11.54244
G1 X189.8 Y230.256 E11.57483
G1 X189.755 Y230.237 E11.57605
G1 X188.468 Y229.686 E11.61097
G1 X185.944 Y228.648 E11.67905
G1 X183.343 Y227.663 E11.74842
G1 X180.778 Y226.773 E11.81615
G1 X178.167 Y225.951 E11.88443
G1 X175.511 Y225.195 E11.95332
G1 X172.87 Y224.524 E12.02129
G1 X170.171 Y223.917 E12.0903
G1 X167.534 Y223.406 E12.15731
G1 X164.822 Y222.957 E12.22588
G1 X162.106 Y222.587 E12.29425
G1 X159.363 Y222.291 E12.36308
G1 X156.654 Y222.076 E12.43086
G1 X153.901 Y221.936 E12.49963
G1 X151.188 Y221.875 E12.56732
G1 X148.434 Y221.891 E12.63602
G1 X145.716 Y221.983 E12.70386
G1 X142.971 Y222.154 E12.77247
G1 X140.222 Y222.404 E12.84132
G1 X137.528 Y222.725 E12.909
G1 X134.841 Y223.124 E12.97676
G1 X132.119 Y223.607 E13.04573
G1 X129.422 Y224.164 E13.11442
G1 X126.802 Y224.782 E13.18157
G1 X124.155 Y225.487 E13.2499
G1 X121.502 Y226.275 E13.31894
G1 X118.885 Y227.132 E13.38763
G1 X116.968 Y227.814 E13.43839
G1 X115.868 Y228.218 E13.46762
G1 X115.609 Y228.301 E13.47441
G1 X115.32 Y228.38 E13.48188
G1 X115.233 Y228.402 E13.48412
G1 X113.936 Y228.718 E13.51742
G1 X113.89 Y228.729 E13.5186
G1 X113.197 Y228.887 E13.53633
G1 X112.84 Y228.947 E13.54536
G1 X112.499 Y228.985 E13.55392
G1 X112.403 Y228.995 E13.55632
G1 X111.081 Y229.102 E13.58941
G1 X111.041 Y229.105 E13.59041
G1 X110.367 Y229.151 E13.60726
G1 X110.228 Y229.157 E13.61073
G1 X109.743 Y229.169 E13.62284
G1 X109.673 Y229.17 E13.62458
G1 X108.976 Y229.172 E13.64197
G1 X50.763 Y229.172 E15.0941
G1 X50.058 Y229.162 E15.11169
G1 X49.918 Y229.157 E15.11518
G1 X49.417 Y229.128 E15.1277
G1 X48.265 Y229.038 E15.15652
G1 X48.215 Y229.034 E15.15777
G1 X47.596 Y228.976 E15.17328
G1 X47.221 Y228.918 E15.18275
G1 X46.056 Y228.667 E15.21248
G1 X45.994 Y228.653 E15.21406
G1 X45.465 Y228.528 E15.22762
G1 X45.412 Y228.515 E15.22898
G1 X44.716 Y228.338 E15.2469
G1 X44.383 Y228.234 E15.2556
G1 X44.065 Y228.115 E15.26407
G1 X43.97 Y228.078 E15.26661
G1 X42.722 Y227.565 E15.30027
G1 X42.684 Y227.549 E15.3013
G1 X42.086 Y227.294 E15.31752
G1 X41.749 Y227.126 E15.32691
G1 X41.47 Y226.966 E15.33493
G1 X41.398 Y226.923 E15.33702
G1 X40.296 Y226.252 E15.36921
G1 X40.254 Y226.226 E15.37044
G1 X39.608 Y225.819 E15.38949
G1 X39.314 Y225.61 E15.39849
G1 X39.063 Y225.409 E15.40651
G1 X38.993 Y225.351 E15.40877
G1 X38.011 Y224.518 E15.4409
G1 X37.975 Y224.487 E15.44208
G1 X37.419 Y224.001 E15.4605
G1 X37.154 Y223.741 E15.46976
G1 X36.941 Y223.506 E15.47768
G1 X36.885 Y223.443 E15.47978
G1 X36.005 Y222.419 E15.51346
G1 X35.974 Y222.382 E15.51466
G1 X35.543 Y221.865 E15.53145
G1 X35.338 Y221.591 E15.53999
G1 X35.192 Y221.372 E15.54655
G1 X35.132 Y221.277 E15.54936
G1 X34.415 Y220.115 E15.58342
G1 X34.39 Y220.075 E15.58459
G1 X34.014 Y219.445 E15.6029
G1 X33.845 Y219.12 E15.61203
G1 X33.712 Y218.825 E15.62011
G1 X33.675 Y218.74 E15.62242
G1 X33.174 Y217.537 E15.65493
G1 X33.159 Y217.501 E15.6559
G1 X32.888 Y216.827 E15.67402
G1 X32.767 Y216.464 E15.68356
G1 X32.685 Y216.159 E15.69144
G1 X32.666 Y216.087 E15.6933
G1 X32.35 Y214.792 E15.72655
G1 X32.339 Y214.746 E15.72773
G1 X32.185 Y214.072 E15.74498
G1 X32.125 Y213.712 E15.75408
G1 X32.089 Y213.388 E15.76221
G1 X32.079 Y213.293 E15.7646
G1 X31.972 Y211.968 E15.79776
G1 X31.969 Y211.923 E15.79888
G1 X31.922 Y211.217 E15.81653
G1 X31.916 Y211.092 E15.81965
G1 X31.904 Y210.658 E15.83048
G1 X31.903 Y210.579 E15.83246
G1 X31.901 Y209.847 E15.85072
G1 X31.901 Y151.634 E17.30284
G1 X31.911 Y150.927 E17.32048
G1 X31.916 Y150.792 E17.32385
G1 X31.943 Y150.313 E17.33582
G1 X31.948 Y150.244 E17.33755
G1 X32.039 Y149.077 E17.36675
G1 X32.043 Y149.028 E17.36797
G1 X32.105 Y148.364 E17.38461
G1 X32.158 Y148.012 E17.39349
G1 X32.23 Y147.665 E17.40233
G1 X32.25 Y147.575 E17.40463
G1 X32.551 Y146.309 E17.43709
G1 X32.563 Y146.26 E17.43835
G1 X32.73 Y145.604 E17.45523
G1 X32.834 Y145.27 E17.46396
G1 X32.97 Y144.907 E17.47363
G1 X33.007 Y144.814 E17.47612
G1 X33.493 Y143.631 E17.50803
G1 X33.513 Y143.584 E17.5093
G1 X33.788 Y142.944 E17.52668
G1 X33.94 Y142.636 E17.53525
G1 X34.095 Y142.361 E17.54312
G1 X34.15 Y142.267 E17.54584
G1 X34.82 Y141.167 E17.57797
G1 X34.844 Y141.128 E17.57911
G1 X35.263 Y140.462 E17.59874
G1 X35.311 Y140.388 E17.60094
G1 X35.984 Y139.381 E17.63115
G1 X37.466 Y137.098 E17.69905
G1 X38.9 Y134.744 E17.7678
G1 X40.268 Y132.349 E17.83661
G1 X41.546 Y129.959 E17.90421
G1 X42.768 Y127.504 E17.97262
G1 X43.916 Y125.028 E18.0407
G1 X45.003 Y122.5 E18.10935
G1 X46.025 Y119.923 E18.1785
G1 X46.943 Y117.4 E18.24547
G1 X47.807 Y114.798 E18.31386
G1 X48.606 Y112.15 E18.38286
G1 X49.321 Y109.507 E18.45116
G1 X49.953 Y106.881 E18.51854
G1 X50.529 Y104.158 E18.58797
G1 X51.009 Y101.502 E18.65529
G1 X51.425 Y98.772 E18.72418
G1 X51.759 Y96.07 E18.79209
G1 X52.018 Y93.344 E18.8604
G1 X52.232 Y89.97 E18.94473
G1 X52.294 Y88.616 E18.97855
G1 X52.3 Y88.521 E18.98092
G1 X52.4 Y87.201 E19.01394
G1 X52.404 Y87.16 E19.01497
G1 X52.465 Y86.474 E19.03215
G1 X52.524 Y86.08 E19.04209
G1 X52.634 Y85.572 E19.05505
G1 X52.648 Y85.511 E19.05661
G1 X52.906 Y84.423 E19.08451
G1 X52.918 Y84.373 E19.08579
G1 X53.094 Y83.68 E19.10363
G1 X53.199 Y83.347 E19.11234
G1 X53.319 Y83.026 E19.12088
G1 X53.356 Y82.93 E19.12345
G1 X53.869 Y81.682 E19.15711
G1 X53.889 Y81.635 E19.15838
G1 X54.144 Y81.042 E19.17449
G1 X54.292 Y80.743 E19.18281
G1 X54.451 Y80.459 E19.19093
G1 X54.51 Y80.358 E19.19385
G1 X55.181 Y79.256 E19.22603
G1 X55.206 Y79.215 E19.22723
G1 X55.611 Y78.572 E19.24618
G1 X55.824 Y78.273 E19.25534
G1 X56.028 Y78.019 E19.26347
G1 X56.083 Y77.953 E19.26561
G1 X56.916 Y76.971 E19.29773
G1 X56.949 Y76.933 E19.29899
G1 X57.435 Y76.378 E19.31739
G1 X57.687 Y76.12 E19.32639
G1 X57.922 Y75.906 E19.33432
G1 X57.991 Y75.845 E19.33661
G1 X59.015 Y74.965 E19.37029
G1 X59.052 Y74.934 E19.3715
G1 X59.569 Y74.503 E19.38829
G1 F1500 E12.88829
;MESH:3030_vinkel.stl(2)
G0 F3600 X61.148 Y76.476
G0 X61.985 Y77.45
G0 X68.302 Y85.929
G0 X68.358 Y86.011
;TYPE:WALL-INNER
G1 F1500 E19.38829
G1 F900 X67.689 Y86.604 E19.41059
G1 X67.182 Y87.339 E19.43286
G1 X66.865 Y88.175 E19.45516
G1 X66.758 Y89.061 E19.47743
G1 X66.865 Y89.946 E19.49966
G1 X67.182 Y90.782 E19.52197
G1 X67.689 Y91.517 E19.54424
G1 X68.358 Y92.11 E19.56654
G1 X69.149 Y92.524 E19.58881
G1 X70.015 Y92.738 E19.61106
G1 X70.909 Y92.738 E19.63337
G1 X71.775 Y92.524 E19.65562
G1 X72.566 Y92.11 E19.67789
G1 X73.235 Y91.517 E19.70019
G1 X73.742 Y90.782 E19.72246
G1 X74.059 Y89.946 E19.74477
G1 X74.166 Y89.061 E19.767
G1 X74.059 Y88.175 E19.78926
G1 X73.742 Y87.339 E19.81157
G1 X73.235 Y86.604 E19.83384
G1 X72.566 Y86.011 E19.85614
G1 X71.775 Y85.597 E19.87841
G1 X70.909 Y85.383 E19.90066
G1 X70.015 Y85.383 E19.92297
G1 X69.149 Y85.597 E19.94522
G1 X68.358 Y86.011 E19.96749
G0 F3600 X68.302 Y85.929
G0 X69.135 Y85.56
G0 X70.011 Y85.344
G0 X98.302 Y85.929
G0 X98.358 Y86.011
G1 F900 X97.689 Y86.604 E19.98979
G1 X97.182 Y87.339 E20.01206
G1 X96.865 Y88.175 E20.03437
G1 X96.758 Y89.061 E20.05663
G1 X96.865 Y89.946 E20.07886
G1 X97.182 Y90.782 E20.10117
