;FLAVOR:Marlin
;TIME:31332
;Filament used: 22.9909m
;Layer height: 0.3
;MINX:16.8
;MINY:66.926
;MINZ:0.15
;MAXX:281.2
;MAXY:219.828
;MAXZ:2.85
;Generated with Cura_SteamEngine 4.3.0
M140 S60
M105
M190 S60
M104 S200
M105
M109 S200
M82 ;absolute extrusion mode
G21 ;metric values
 G90 ;absolute positioning
 M82 ;set extruder to absolute mode
 M107 ;start with the fan off
 G28 X0 Y0 ;move X/Y to min endstops
 G28 Z0 ;move Z to min endstops
 G1 Z15.0 F120 ;move the platform down 15mm
 G92 E0 ;zero the extruded length
 G1 F200 E6 ;extrude 6 mm of feed stock
 G92 E0 ;zero the extruded length again
 G1 F120 
 ;Put printing message on LCD screen
 M117 Printing...
G92 E0
G92 E0
G1 F1500 E-6.5
;LAYER_COUNT:10
;LAYER:0
M107
G0 F3600 X28.381 Y70.304 Z0.15
;TYPE:SKIRT
G1 F1500 E0
G1 F900 X28.424 Y70.287 E0.00115
G1 X29.114 Y70.009 E0.01971
G1 X29.467 Y69.89 E0.029
G1 X29.782 Y69.804 E0.03715
G1 X29.864 Y69.783 E0.03926
G1 X31.106 Y69.479 E0.07116
G1 X31.146 Y69.469 E0.07218
G1 X31.881 Y69.299 E0.091
G1 X32.249 Y69.237 E0.10031
G1 X32.555 Y69.203 E0.10799
G1 X32.641 Y69.194 E0.11015
G1 X33.993 Y69.081 E0.14399
G1 X34.043 Y69.077 E0.14524
G1 X34.719 Y69.031 E0.16215
G1 X34.885 Y69.024 E0.16629
G1 X35.514 Y69.014 E0.18198
G1 X35.565 Y69.014 E0.18325
G1 X122.75 Y69.008 E2.35809
G1 X124.338 Y69.008 E2.39771
G1 X125.044 Y69.018 E2.41532
G1 X125.191 Y69.024 E2.41899
G1 X125.723 Y69.056 E2.43228
G1 X125.781 Y69.06 E2.43373
G1 X126.866 Y69.145 E2.46088
G1 X126.906 Y69.148 E2.46188
G1 X127.543 Y69.206 E2.47784
G1 X127.681 Y69.222 E2.4813
G1 X130.466 Y69.598 E2.55141
G1 X133.203 Y69.889 E2.62007
G1 X135.919 Y70.101 E2.68802
G1 X138.668 Y70.237 E2.75668
G1 X141.383 Y70.295 E2.82442
G1 X144.137 Y70.274 E2.89312
G1 X146.852 Y70.178 E2.96089
G1 X149.605 Y70.003 E3.0297
G1 X152.336 Y69.752 E3.09812
G1 X155.049 Y69.423 E3.16629
G1 X157.763 Y69.018 E3.23474
G1 X160.443 Y68.538 E3.30266
G1 X163.125 Y67.98 E3.37099
G1 X165.058 Y67.53 E3.4205
G1 X165.656 Y67.384 E3.43585
G1 X165.703 Y67.373 E3.43706
G1 X166.389 Y67.216 E3.45461
G1 X166.75 Y67.155 E3.46375
G1 X167.056 Y67.121 E3.47143
G1 X167.142 Y67.112 E3.47358
G1 X168.494 Y66.999 E3.50743
G1 X168.544 Y66.995 E3.50868
G1 X169.22 Y66.949 E3.52558
G1 X169.386 Y66.942 E3.52972
G1 X170.015 Y66.932 E3.54542
G1 X170.066 Y66.932 E3.54669
G1 X257.251 Y66.926 E5.72153
G1 X258.839 Y66.926 E5.76114
G1 X259.545 Y66.936 E5.77875
G1 X259.691 Y66.942 E5.7824
G1 X260.244 Y66.975 E5.79622
G1 X260.302 Y66.979 E5.79767
G1 X261.3 Y67.057 E5.82264
G1 X261.349 Y67.061 E5.82387
G1 X262.001 Y67.122 E5.8402
G1 X262.371 Y67.179 E5.84954
G1 X263.429 Y67.405 E5.87653
G1 X263.498 Y67.42 E5.87829
G1 X264.111 Y67.565 E5.894
G1 X264.153 Y67.575 E5.89508
G1 X264.85 Y67.75 E5.91301
G1 X265.19 Y67.856 E5.92189
G1 X265.506 Y67.974 E5.9303
G1 X265.598 Y68.01 E5.93277
G1 X266.838 Y68.517 E5.96619
G1 X266.885 Y68.536 E5.96745
G1 X267.491 Y68.795 E5.98389
G1 X267.791 Y68.943 E5.99223
G1 X268.087 Y69.108 E6.00069
G1 X268.19 Y69.168 E6.00366
G1 X269.303 Y69.844 E6.03614
G1 X269.343 Y69.869 E6.03732
G1 X269.958 Y70.255 E6.05543
G1 X270.251 Y70.462 E6.06438
G1 X270.502 Y70.662 E6.07239
G1 X270.576 Y70.723 E6.07478
G1 X271.574 Y71.568 E6.1074
G1 X271.614 Y71.602 E6.10871
G1 X272.159 Y72.079 E6.12678
G1 X272.405 Y72.32 E6.13537
G1 X272.625 Y72.559 E6.14347
G1 X272.694 Y72.635 E6.14603
G1 X273.531 Y73.605 E6.17799
G1 X273.56 Y73.64 E6.17913
G1 X274.043 Y74.216 E6.19788
G1 X274.258 Y74.504 E6.20684
G1 X274.427 Y74.759 E6.21447
G1 X274.482 Y74.844 E6.217
G1 X275.185 Y75.981 E6.25034
G1 X275.209 Y76.022 E6.25153
G1 X275.569 Y76.624 E6.26903
G1 X275.739 Y76.948 E6.27815
G1 X275.875 Y77.249 E6.28639
G1 X275.91 Y77.328 E6.28855
G1 X276.405 Y78.507 E6.32045
G1 X276.421 Y78.547 E6.32152
G1 X276.699 Y79.235 E6.34003
G1 X276.816 Y79.581 E6.34914
G1 X276.907 Y79.91 E6.35766
G1 X276.932 Y80.004 E6.36008
G1 X277.243 Y81.278 E6.3928
G1 X277.253 Y81.323 E6.39395
G1 X277.409 Y82.005 E6.4114
G1 X277.47 Y82.358 E6.42034
G1 X277.503 Y82.649 E6.42764
G1 X277.512 Y82.742 E6.42997
G1 X277.627 Y84.111 E6.46424
G1 X277.63 Y84.16 E6.46547
G1 X277.674 Y84.801 E6.48149
G1 X277.678 Y85.17 E6.4907
G1 X277.636 Y86.065 E6.51305
G1 X277.633 Y86.121 E6.51445
G1 X277.599 Y86.647 E6.5276
G1 X277.596 Y86.697 E6.52885
G1 X277.538 Y87.421 E6.54696
G1 X277.497 Y87.735 E6.55486
G1 X276.976 Y90.617 E6.62792
G1 X276.567 Y93.322 E6.69616
G1 X276.236 Y96.023 E6.76404
G1 X275.979 Y98.766 E6.83277
G1 X275.802 Y101.475 E6.90049
G1 X275.7 Y104.23 E6.96926
G1 X275.675 Y106.981 E7.03789
G1 X275.729 Y109.7 E7.10573
G1 X275.859 Y112.416 E7.17355
G1 X276.068 Y115.157 E7.24213
G1 X276.355 Y117.897 E7.31085
G1 X276.717 Y120.602 E7.37893
G1 X277.156 Y123.309 E7.44734
G1 X277.675 Y126.015 E7.51607
G1 X278.256 Y128.641 E7.58316
G1 X278.93 Y131.331 E7.65234
G1 X279.941 Y134.86 E7.74391
G1 X280.293 Y136.006 E7.77381
G1 X280.318 Y136.093 E7.77607
G1 X280.406 Y136.411 E7.7843
G1 X280.431 Y136.504 E7.7867
G1 X280.734 Y137.744 E7.81855
G1 X280.744 Y137.79 E7.81972
G1 X280.908 Y138.506 E7.83804
G1 X280.968 Y138.856 E7.8469
G1 X281.007 Y139.197 E7.85546
G1 X281.017 Y139.297 E7.85797
G1 X281.127 Y140.624 E7.89119
G1 X281.13 Y140.668 E7.89229
G1 X281.176 Y141.337 E7.90901
G1 X281.184 Y141.507 E7.91326
G1 X281.194 Y142.142 E7.9291
G1 X281.194 Y142.192 E7.93035
G1 X281.2 Y200.117 E9.37529
G1 X281.2 Y200.966 E9.39647
G1 X281.19 Y201.672 E9.41409
G1 X281.184 Y201.819 E9.41776
G1 X281.152 Y202.351 E9.43105
G1 X281.148 Y202.406 E9.43243
G1 X281.069 Y203.425 E9.45792
G1 X281.065 Y203.476 E9.4592
G1 X281.004 Y204.128 E9.47553
G1 X280.947 Y204.499 E9.4849
G1 X280.726 Y205.533 E9.51127
G1 X280.712 Y205.597 E9.51291
G1 X280.562 Y206.234 E9.52923
G1 X280.551 Y206.278 E9.53036
G1 X280.377 Y206.973 E9.54823
G1 X280.272 Y207.313 E9.55711
G1 X280.164 Y207.603 E9.56483
G1 X280.127 Y207.697 E9.56735
G1 X279.639 Y208.891 E9.59953
G1 X279.62 Y208.935 E9.60072
G1 X279.327 Y209.622 E9.61935
G1 X279.172 Y209.938 E9.62813
G1 X279.012 Y210.222 E9.63626
G1 X278.96 Y210.311 E9.63883
G1 X278.275 Y211.44 E9.67178
G1 X278.251 Y211.479 E9.67292
G1 X277.885 Y212.063 E9.69011
G1 X277.69 Y212.341 E9.69858
G1 X277.452 Y212.644 E9.70819
G1 X277.377 Y212.735 E9.71113
G1 X276.569 Y213.689 E9.74232
G1 X276.538 Y213.725 E9.74351
G1 X276.051 Y214.283 E9.76198
G1 X275.805 Y214.536 E9.77078
G1 X275.559 Y214.762 E9.77912
G1 X275.483 Y214.829 E9.78164
G1 X274.508 Y215.669 E9.81375
G1 X274.474 Y215.698 E9.81486
G1 X273.914 Y216.167 E9.83308
G1 X273.627 Y216.382 E9.84203
G1 X273.381 Y216.545 E9.84939
G1 X273.298 Y216.597 E9.85183
G1 X272.15 Y217.308 E9.88552
G1 X272.107 Y217.334 E9.88677
G1 X271.5 Y217.697 E9.90441
G1 X271.175 Y217.868 E9.91357
G1 X270.876 Y218.003 E9.92176
G1 X270.798 Y218.037 E9.92388
G1 X269.619 Y218.532 E9.95578
G1 X269.576 Y218.549 E9.95693
G1 X268.886 Y218.827 E9.97549
G1 X268.533 Y218.946 E9.98478
G1 X268.218 Y219.032 E9.99293
G1 X268.136 Y219.053 E9.99504
G1 X266.894 Y219.357 E10.02693
G1 X266.854 Y219.367 E10.02796
G1 X266.119 Y219.537 E10.04678
G1 X265.751 Y219.599 E10.05609
G1 X265.445 Y219.633 E10.06377
G1 X265.359 Y219.642 E10.06593
G1 X264.007 Y219.755 E10.09977
G1 X263.957 Y219.759 E10.10102
G1 X263.281 Y219.805 E10.11792
G1 X263.115 Y219.812 E10.12207
G1 X262.486 Y219.822 E10.13776
G1 X262.435 Y219.822 E10.13903
G1 X175.25 Y219.828 E12.31387
G1 X173.662 Y219.828 E12.35348
G1 X172.956 Y219.818 E12.3711
G1 X172.81 Y219.812 E12.37474
G1 X172.257 Y219.779 E12.38856
G1 X172.199 Y219.775 E12.39001
G1 X171.201 Y219.697 E12.41498
G1 X171.153 Y219.693 E12.41618
G1 X170.509 Y219.633 E12.43232
G1 X170.135 Y219.576 E12.44176
G1 X169.026 Y219.338 E12.47005
G1 X168.961 Y219.323 E12.47171
G1 X168.394 Y219.189 E12.48625
G1 X168.348 Y219.178 E12.48743
G1 X167.658 Y219.004 E12.50518
G1 X167.531 Y218.969 E12.50846
G1 X164.87 Y218.181 E12.57769
G1 X162.241 Y217.481 E12.64556
G1 X159.53 Y216.839 E12.71505
G1 X156.903 Y216.299 E12.78196
G1 X154.198 Y215.819 E12.85049
G1 X151.446 Y215.412 E12.91988
G1 X148.775 Y215.092 E12.98699
G1 X146.038 Y214.844 E13.05554
G1 X143.288 Y214.673 E13.12427
G1 X140.571 Y214.581 E13.19209
G1 X137.817 Y214.565 E13.26079
G1 X135.114 Y214.625 E13.32823
G1 X133.783 Y214.696 E13.36148
G1 X133.743 Y214.697 E13.36248
G1 X132.68 Y214.74 E13.38902
G1 X132.591 Y214.743 E13.39124
G1 X132.03 Y214.75 E13.40523
G1 X131.99 Y214.75 E13.40623
G1 X44.802 Y214.756 E15.58114
G1 X43.213 Y214.756 E15.62078
G1 X42.508 Y214.746 E15.63837
G1 X42.361 Y214.74 E15.64204
G1 X41.828 Y214.708 E15.65536
G1 X41.77 Y214.704 E15.65681
G1 X40.686 Y214.619 E15.68393
G1 X40.646 Y214.616 E15.68493
G1 X40.074 Y214.564 E15.69926
G1 X39.691 Y214.505 E15.70893
G1 X38.585 Y214.267 E15.73715
G1 X38.523 Y214.253 E15.73873
G1 X37.917 Y214.11 E15.75427
G1 X37.871 Y214.099 E15.75545
G1 X37.215 Y213.934 E15.77232
G1 X36.899 Y213.837 E15.78057
G1 X36.581 Y213.721 E15.78901
G1 X36.466 Y213.677 E15.79208
G1 X35.212 Y213.164 E15.82588
G1 X35.165 Y213.144 E15.82715
G1 X34.56 Y212.885 E15.84357
G1 X34.255 Y212.735 E15.85205
G1 X33.957 Y212.568 E15.86057
G1 X33.862 Y212.513 E15.86331
G1 X32.707 Y211.813 E15.897
G1 X32.665 Y211.787 E15.89823
G1 X32.104 Y211.435 E15.91475
G1 X31.818 Y211.232 E15.9235
G1 X31.553 Y211.022 E15.93193
G1 X31.472 Y210.956 E15.93454
G1 X30.48 Y210.116 E15.96696
G1 X30.445 Y210.086 E15.96811
G1 X29.89 Y209.602 E15.98648
G1 X29.626 Y209.344 E15.99569
G1 X29.414 Y209.111 E16.00355
G1 X29.357 Y209.046 E16.00571
G1 X28.542 Y208.1 E16.03685
G1 X28.514 Y208.067 E16.03793
G1 X28.006 Y207.461 E16.05766
G1 X27.787 Y207.167 E16.0668
G1 X27.628 Y206.926 E16.07401
G1 X27.578 Y206.847 E16.07634
G1 X26.866 Y205.696 E16.1101
G1 X26.842 Y205.658 E16.11122
G1 X26.483 Y205.059 E16.12864
G1 X26.311 Y204.73 E16.1379
G1 X26.168 Y204.413 E16.14658
G1 X26.134 Y204.335 E16.1487
G1 X25.633 Y203.141 E16.181
G1 X25.616 Y203.099 E16.18213
G1 X25.35 Y202.439 E16.19988
G1 X25.232 Y202.091 E16.20905
G1 X25.143 Y201.767 E16.21743
G1 X25.12 Y201.678 E16.21972
G1 X24.809 Y200.404 E16.25244
G1 X24.799 Y200.362 E16.25351
G1 X24.642 Y199.679 E16.27099
G1 X24.58 Y199.314 E16.28023
G1 X24.548 Y199.025 E16.28748
G1 X24.54 Y198.941 E16.28959
G1 X24.425 Y197.572 E16.32386
G1 X24.422 Y197.523 E16.32508
G1 X24.378 Y196.883 E16.34108
G1 X24.374 Y196.513 E16.35032
G1 X24.418 Y195.58 E16.37361
G1 X24.421 Y195.522 E16.37506
G1 X24.445 Y195.152 E16.38431
G1 X24.586 Y192.367 E16.45387
G1 X24.647 Y189.649 E16.52169
G1 X24.63 Y186.899 E16.59029
G1 X24.536 Y184.178 E16.65821
G1 X24.364 Y181.435 E16.72677
G1 X24.113 Y178.686 E16.79563
G1 X23.791 Y175.997 E16.86318
G1 X23.389 Y173.293 E16.93138
G1 X22.909 Y170.589 E16.99988
G1 X22.357 Y167.919 E17.06789
G1 X21.725 Y165.246 E17.13641
G1 X21.02 Y162.603 E17.20465
G1 X20.234 Y159.956 E17.27352
G1 X19.387 Y157.379 E17.34119
G1 X18.441 Y154.751 E17.41087
G1 X17.784 Y153.049 E17.45638
G1 X17.684 Y152.749 E17.46426
G1 X17.597 Y152.434 E17.47242
G1 X17.574 Y152.345 E17.47471
G1 X17.268 Y151.098 E17.50674
G1 X17.257 Y151.052 E17.50792
G1 X17.09 Y150.326 E17.5265
G1 X17.028 Y149.959 E17.53579
G1 X16.994 Y149.65 E17.54354
G1 X16.986 Y149.567 E17.54562
G1 X16.873 Y148.215 E17.57946
G1 X16.869 Y148.164 E17.58074
G1 X16.823 Y147.483 E17.59777
G1 X16.816 Y147.318 E17.60189
G1 X16.806 Y146.694 E17.61745
G1 X16.806 Y146.643 E17.61873
G1 X16.8 Y88.718 E19.06367
G1 X16.8 Y87.87 E19.08482
G1 X16.81 Y87.163 E19.10246
G1 X16.816 Y87.017 E19.10611
G1 X16.849 Y86.465 E19.1199
G1 X16.853 Y86.407 E19.12135
G1 X16.931 Y85.409 E19.14632
G1 X16.935 Y85.36 E19.14755
G1 X16.996 Y84.708 E19.16388
G1 X17.053 Y84.338 E19.17322
G1 X17.279 Y83.28 E19.20021
G1 X17.294 Y83.211 E19.20197
G1 X17.441 Y82.59 E19.21789
G1 X17.451 Y82.549 E19.21894
G1 X17.625 Y81.855 E19.23679
G1 X17.734 Y81.506 E19.24591
G1 X17.851 Y81.195 E19.2542
G1 X17.884 Y81.111 E19.25645
G1 X18.391 Y79.871 E19.28987
G1 X18.41 Y79.824 E19.29113
G1 X18.669 Y79.218 E19.30757
G1 X18.813 Y78.925 E19.31572
G1 X18.977 Y78.629 E19.32416
G1 X19.043 Y78.516 E19.32742
G1 X19.748 Y77.358 E19.36124
G1 X19.771 Y77.32 E19.36235
G1 X20.129 Y76.75 E19.37914
G1 X20.335 Y76.459 E19.38803
G1 X20.561 Y76.175 E19.39709
G1 X20.624 Y76.098 E19.39957
G1 X21.438 Y75.138 E19.43097
G1 X21.468 Y75.104 E19.4321
G1 X21.953 Y74.548 E19.4505
G1 X22.201 Y74.294 E19.45936
G1 X22.43 Y74.084 E19.46711
G1 X22.505 Y74.017 E19.46962
G1 X23.464 Y73.191 E19.50119
G1 X23.498 Y73.162 E19.5023
G1 X24.099 Y72.659 E19.52185
G1 X24.391 Y72.442 E19.53093
G1 X24.629 Y72.285 E19.53804
G1 X24.707 Y72.235 E19.54035
G1 X25.861 Y71.521 E19.5742
G1 X25.901 Y71.497 E19.57537
G1 X26.497 Y71.14 E19.5927
G1 X26.828 Y70.967 E19.60201
G1 X27.128 Y70.832 E19.61022
G1 X27.202 Y70.799 E19.61224
G1 X28.381 Y70.304 E19.64414
G1 F1500 E13.14414
;MESH:3030_vinkel.stl(2)
G0 F3600 X29.361 Y72.644
G0 X29.85 Y73.809
G0 X32.153 Y84.685
G0 X32.227 Y84.751
;TYPE:WALL-INNER
G1 F1500 E19.64414
G1 F900 X31.72 Y85.486 E19.66641
G1 X31.403 Y86.322 E19.68872
G1 X31.296 Y87.208 E19.71098
G1 X31.403 Y88.094 E19.73324
G1 X31.72 Y88.93 E19.75554
G1 X32.227 Y89.665 E19.77782
G1 X32.896 Y90.257 E19.8001
G1 X33.687 Y90.672 E19.82238
G1 X34.554 Y90.885 E19.84465
G1 X35.446 Y90.885 E19.8669
G1 X36.313 Y90.672 E19.88917
G1 X37.104 Y90.257 E19.91146
G1 X37.773 Y89.665 E19.93374
G1 X38.28 Y88.93 E19.95601
G1 X38.597 Y88.094 E19.97832
G1 X38.704 Y87.208 E20.00058
G1 X38.597 Y86.322 E20.02284
G1 X38.28 Y85.486 E20.04514
G1 X37.773 Y84.751 E20.06742
G1 X37.104 Y84.159 E20.0897
G1 X36.313 Y83.745 E20.11197
G1 X35.447 Y83.531 E20.13422
G1 X34.553 Y83.531 E20.15653
G1 X33.687 Y83.745 E20.17878
G1 X32.896 Y84.159 E20.20105
G1 X32.227 Y84.751 E20.22333
G0 F3600 X32.153 Y84.685
G0 X31.685 Y85.468
G0 X31.365 Y86.313
G0 X32.153 Y114.685
G0 X32.227 Y114.751
G1 F900 X31.72 Y115.486 E20.24561
G1 X31.403 Y116.322 E20.26791
G1 X31.296 Y117.208 E20.29017
G1 X31.403 Y118.094 E20.31243
G1 X31.72 Y118.93 E20.33474
G1 X32.227 Y119.665 E20.35701
G1 X32.896 Y120.257 E20.37929
G1 X33.687 Y120.672 E20.40158
G1 X34.554 Y120.885 E20.42385
G1 X35.446 Y120.885 E20.4461
G1 X36.313 Y120.672 E20.46837
G1 X37.104 Y120.257 E20.49065
G1 X37.773 Y119.665 E20.51293
G1 X38.28 Y118.93 E20.53521
G1 X38.597 Y118.094 E20.55751
G1 X38.704 Y117.208 E20.57977
G1 X38.597 Y116.322 E20.60204
G1 X38.28 Y115.486 E20.62434
G1 X37.773 Y114.751 E20.64661
G1 X37.104 Y114.159 E20.6689
G1 X36.313 Y113.745 E20.69117
G1 X35.447 Y113.531 E20.71342
G1 X34.553 Y113.531 E20.73572
G1 X33.687 Y113.745 E20.75797
G1 X32.896 Y114.159 E20.78024
G1 X32.227 Y114.751 E20.80253
G0 F3600 X32.153 Y114.685
G0 X31.685 Y115.468
G0 X31.365 Y116.313
G0 X32.153 Y144.685
G0 X32.227 Y144.751
G1 F900 X31.72 Y145.486 E20.8248
G1 X31.403 Y146.322 E20.8471
G1 X31.296 Y147.208 E20.86937
G1 X31.403 Y148.094 E20.89163
G1 X31.72 Y148.93 E20.91393
G1 X32.227 Y149.665 E20.9362
G1 X32.896 Y150.257 E20.95849
G1 X33.687 Y150.672 E20.98077
G1 X34.554 Y150.885 E21.00304
G1 X35.446 Y150.885 E21.02529
G1 X36.313 Y150.672 E21.04756
G1 X37.104 Y150.257 E21.06984
G1 X37.773 Y149.665 E21.09213
G1 X38.28 Y148.93 E21.1144
G1 X38.597 Y148.094 E21.1367
G1 X38.704 Y147.208 E21.15897
G1 X38.597 Y146.322 E21.18123
G1 X38.28 Y145.486 E21.20353
G1 X37.773 Y144.751 E21.22581
G1 X37.104 Y144.159 E21.24809
G1 X36.313 Y143.745 E21.27036
G1 X35.447 Y143.531 E21.29261
G1 X34.553 Y143.531 E21.31491
G1 X33.687 Y143.745 E21.33717
G1 X32.896 Y144.159 E21.35944
G1 X32.227 Y144.751 E21.38172
G0 F3600 X32.153 Y144.685
G0 X61.685 Y85.468
G0 X62.153 Y84.685
G0 X62.227 Y84.751
G1 F900 X61.72 Y85.486 E21.40399
G1 X61.403 Y86.322 E21.4263
G1 X61.296 Y87.208 E21.44856
G1 X61.403 Y88.094 E21.47082
G1 X61.72 Y88.93 E21.49312
G1 X62.227 Y89.665 E21.5154
G1 X62.896 Y90.257 E21.53768
G1 X63.687 Y90.672 E21.55996
G1 X64.554 Y90.885 E21.58223
G1 X65.446 Y90.885 E21.60449
G1 X66.313 Y90.672 E21.62676
G1 X67.104 Y90.257 E21.64904
G1 X67.773 Y89.665 E21.67132
G1 X68.28 Y88.93 E21.6936
G1 X68.597 Y88.094 E21.7159
G1 X68.704 Y87.208 E21.73816
G1 X68.597 Y86.322 E21.76042
G1 X68.28 Y85.486 E21.78273
G1 X67.773 Y84.751 E21.805
G1 X67.104 Y84.159 E21.82728
G1 X66.313 Y83.745 E21.84955
G1 X65.447 Y83.531 E21.87181
