;FLAVOR:Marlin
;TIME:35617
;Filament used: 33.6265m
;Layer height: 0.3
;MINX:25.239
;MINY:84.199
;MINZ:0.18
;MAXX:274.76
;MAXY:215.8
;MAXZ:26.13
;Generated with Cura_SteamEngine 4.3.0
M140 S60
M105
M190 S60
M104 S220
M105
M109 S220
M82 ;absolute extrusion mode
G21 ;metric values
 G90 ;absolute positioning
 M82 ;set extruder to absolute mode
 M107 ;start with the fan off
 G28 X0 Y0 ;move X/Y to min endstops
 G28 Z0 ;move Z to min endstops
 G1 Z15.0 F120 ;move the platform down 15mm
 G92 E0 ;zero the extruded length
 G1 F200 E6 ;extrude 6 mm of feed stock
 G92 E0 ;zero the extruded length again
 G1 F120 
 ;Put printing message on LCD screen
 M117 Printing...
G92 E0
G92 E0
G1 F1500 E-6.5
;LAYER_COUNT:83
;LAYER:-5
M107
G0 F7200 X37.027 Y86.123 Z0.18
;TYPE:SUPPORT-INTERFACE
G1 F1500 E0
G1 F675 X38.062 Y85.713 E0.06665
G1 X39.089 Y85.352 E0.13182
G1 X39.981 Y85.073 E0.18777
G1 X40.155 Y85.025 E0.19858
G1 X41.014 Y84.824 E0.2514
G1 X41.195 Y84.789 E0.26243
G1 X42.32 Y84.616 E0.33058
G1 X43.412 Y84.494 E0.39636
G1 X44.509 Y84.412 E0.46222
G1 X45.091 Y84.401 E0.49707
G1 X254.921 Y84.4 E13.05922
G1 X254.955 Y84.401 E13.06126
G1 X256.059 Y84.443 E13.1274
G1 X256.577 Y84.49 E13.15854
G1 X257.743 Y84.623 E13.2288
G1 X258.82 Y84.79 E13.29405
G1 X259.663 Y84.98 E13.34578
G1 X259.889 Y85.04 E13.35978
G1 X260.916 Y85.354 E13.42408
G1 X261.945 Y85.714 E13.48934
G1 X262.829 Y86.058 E13.54613
G1 X262.994 Y86.13 E13.55691
G1 X263.786 Y86.506 E13.6094
G1 X263.951 Y86.592 E13.62054
G1 X264.941 Y87.164 E13.68899
G1 X265.857 Y87.74 E13.75377
G1 X266.619 Y88.255 E13.80883
G1 X266.747 Y88.348 E13.8183
G1 X267.468 Y88.918 E13.87333
G1 X267.595 Y89.027 E13.88335
G1 X268.424 Y89.793 E13.95092
G1 X269.18 Y90.548 E14.01489
G1 X269.819 Y91.232 E14.07092
G1 X269.955 Y91.39 E14.08341
G1 X270.505 Y92.073 E14.1359
G1 X270.603 Y92.204 E14.1457
G1 X271.229 Y93.118 E14.21202
G1 X271.791 Y94.005 E14.27489
G1 X272.363 Y94.996 E14.34339
G1 X272.762 Y95.816 E14.39799
G1 X272.837 Y95.987 E14.40916
G1 X273.255 Y97.044 E14.47721
G1 X273.608 Y98.049 E14.54099
G1 X273.887 Y98.941 E14.59694
G1 X273.935 Y99.115 E14.60775
G1 X274.136 Y99.974 E14.66056
G1 X274.171 Y100.155 E14.6716
G1 X274.343 Y101.271 E14.7392
G1 X274.467 Y102.364 E14.80506
G1 X274.548 Y103.459 E14.87079
G1 X274.559 Y104.047 E14.906
G1 X274.56 Y195.981 E20.40993
G1 X274.559 Y195.991 E20.41053
G1 X274.517 Y197.104 E20.47721
G1 X274.472 Y197.597 E20.50685
G1 X274.343 Y198.74 E20.57571
G1 X274.208 Y199.656 E20.63114
G1 X274.174 Y199.843 E20.64252
G1 X273.979 Y200.723 E20.69648
G1 X273.942 Y200.86 E20.70498
G1 X273.608 Y201.952 E20.77334
G1 X273.263 Y202.944 E20.83622
G1 X272.904 Y203.865 E20.8954
G1 X272.832 Y204.03 E20.90618
G1 X272.454 Y204.825 E20.95888
G1 X272.367 Y204.992 E20.97015
G1 X271.83 Y205.928 E21.03476
G1 X271.228 Y206.886 E21.1025
G1 X270.718 Y207.64 E21.15699
G1 X270.608 Y207.791 E21.16818
G1 X270.055 Y208.492 E21.22163
G1 X269.955 Y208.61 E21.23089
G1 X269.224 Y209.404 E21.29551
G1 X268.413 Y210.218 E21.3643
G1 X267.729 Y210.859 E21.42042
G1 X267.586 Y210.983 E21.43175
G1 X266.912 Y211.526 E21.48357
G1 X266.747 Y211.649 E21.49589
G1 X265.824 Y212.283 E21.56293
G1 X264.926 Y212.848 E21.62644
G1 X264.082 Y213.337 E21.68484
G1 X263.946 Y213.41 E21.69408
G1 X263.135 Y213.805 E21.74809
G1 X262.981 Y213.874 E21.75819
G1 X261.991 Y214.267 E21.82196
G1 X260.944 Y214.638 E21.88846
G1 X260.025 Y214.924 E21.94608
G1 X259.846 Y214.973 E21.95719
G1 X258.988 Y215.175 E22.00996
G1 X258.814 Y215.209 E22.02058
G1 X257.706 Y215.378 E22.08768
G1 X256.618 Y215.503 E22.15324
G1 X255.507 Y215.586 E22.21994
G1 X254.97 Y215.598 E22.2521
G1 X254.348 Y215.6 E22.28934
G1 X45.08 Y215.6 E34.81785
G1 X45.045 Y215.599 E34.81994
G1 X43.906 Y215.554 E34.88819
G1 X43.392 Y215.505 E34.9191
G1 X42.311 Y215.385 E34.98421
G1 X41.18 Y215.211 E35.05272
G1 X40.283 Y215.009 E35.10777
G1 X40.155 Y214.975 E35.1157
G1 X39.088 Y214.647 E35.18253
G1 X38.055 Y214.286 E35.24804
G1 X37.168 Y213.941 E35.30502
G1 X37.006 Y213.87 E35.3156
G1 X36.214 Y213.494 E35.36809
G1 X36.045 Y213.406 E35.3795
G1 X35.059 Y212.836 E35.44768
G1 X34.143 Y212.26 E35.51246
G1 X33.381 Y211.745 E35.56753
G1 X33.249 Y211.649 E35.5773
G1 X32.532 Y211.082 E35.63202
G1 X32.405 Y210.973 E35.64204
G1 X31.57 Y210.201 E35.71012
G1 X30.794 Y209.425 E35.77583
G1 X30.179 Y208.765 E35.82983
G1 X30.045 Y208.61 E35.8421
G1 X29.495 Y207.927 E35.8946
G1 X29.395 Y207.793 E35.90461
G1 X28.771 Y206.882 E35.97072
G1 X28.201 Y205.982 E36.0345
G1 X27.637 Y205.004 E36.10209
G1 X27.238 Y204.184 E36.15668
G1 X27.163 Y204.013 E36.16786
G1 X26.743 Y202.949 E36.23634
G1 X26.389 Y201.942 E36.30025
G1 X26.106 Y201.035 E36.35713
G1 X26.065 Y200.885 E36.36644
G1 X25.864 Y200.026 E36.41925
G1 X25.829 Y199.845 E36.43029
G1 X25.656 Y198.72 E36.49844
G1 X25.532 Y197.607 E36.56548
G1 X25.452 Y196.531 E36.63008
G1 X25.441 Y195.953 E36.66469
G1 X25.44 Y104.019 E42.16861
G1 X25.483 Y102.889 E42.23631
G1 X25.53 Y102.378 E42.26704
G1 X25.661 Y101.232 E42.33609
G1 X25.829 Y100.141 E42.40218
G1 X26.023 Y99.28 E42.45502
G1 X26.072 Y99.093 E42.46659
G1 X26.407 Y98.009 E42.53452
G1 X26.771 Y96.971 E42.60037
G1 X27.096 Y96.136 E42.65401
G1 X27.173 Y95.959 E42.66557
G1 X27.553 Y95.158 E42.71865
G1 X27.622 Y95.026 E42.72756
G1 X28.234 Y93.969 E42.80068
G1 X28.78 Y93.103 E42.86198
G1 X29.295 Y92.341 E42.91704
G1 X29.388 Y92.213 E42.92651
G1 X29.97 Y91.477 E42.98268
G1 X30.067 Y91.364 E42.9916
G1 X30.839 Y90.53 E43.05964
G1 X31.588 Y89.78 E43.12309
G1 X32.272 Y89.141 E43.17913
G1 X32.43 Y89.005 E43.19161
G1 X33.113 Y88.455 E43.24411
G1 X33.244 Y88.357 E43.25391
G1 X34.158 Y87.731 E43.32023
G1 X35.059 Y87.161 E43.38406
G1 X36.036 Y86.597 E43.4516
G1 X36.856 Y86.198 E43.50619
G1 X37.027 Y86.123 E43.51737
G0 F7200 X67.422 Y124.276
G1 F675 X66.847 Y124.644 E43.55824
G1 X66.323 Y125.082 E43.59913
G1 X65.859 Y125.582 E43.63997
G1 X65.46 Y126.138 E43.68094
G1 X65.136 Y126.738 E43.72176
G1 X64.89 Y127.374 E43.76259
G1 X64.724 Y128.043 E43.80386
G1 X64.64 Y128.982 E43.8603
G1 X64.64 Y171.013 E46.37662
G1 X64.682 Y171.681 E46.41669
G1 X64.811 Y172.352 E46.4576
G1 X65.024 Y173.001 E46.49849
G1 X65.316 Y173.618 E46.53936
G1 X65.684 Y174.193 E46.58023
G1 X66.122 Y174.717 E46.62111
G1 X66.622 Y175.181 E46.66195
G1 X67.178 Y175.58 E46.70292
G1 X67.778 Y175.904 E46.74375
G1 X68.414 Y176.15 E46.78457
G1 X69.083 Y176.316 E46.82584
G1 X70.022 Y176.4 E46.88228
G1 X229.973 Y176.4 E56.45826
G1 X230.641 Y176.358 E56.49833
G1 X231.312 Y176.229 E56.53924
G1 X231.961 Y176.016 E56.58014
G1 X232.578 Y175.724 E56.621
G1 X233.153 Y175.356 E56.66187
G1 X233.677 Y174.918 E56.70276
G1 X234.141 Y174.418 E56.7436
G1 X234.54 Y173.862 E56.78457
G1 X234.864 Y173.262 E56.82539
G1 X235.11 Y172.626 E56.86622
G1 X235.276 Y171.957 E56.90748
G1 X235.36 Y171.018 E56.96392
G1 X235.36 Y128.987 E59.48025
G1 X235.318 Y128.319 E59.52032
G1 X235.189 Y127.648 E59.56122
G1 X234.976 Y126.999 E59.60212
G1 X234.684 Y126.382 E59.64299
G1 X234.316 Y125.807 E59.68386
G1 X233.878 Y125.283 E59.72474
G1 X233.378 Y124.819 E59.76558
G1 X232.822 Y124.42 E59.80655
G1 X232.222 Y124.096 E59.84738
G1 X231.586 Y123.85 E59.8882
G1 X230.917 Y123.684 E59.92947
G1 X229.978 Y123.6 E59.98591
G1 X70.027 Y123.6 E69.56189
G1 X69.359 Y123.642 E69.60196
G1 X68.688 Y123.771 E69.64287
G1 X68.039 Y123.984 E69.68376
G1 X67.422 Y124.276 E69.72463
G0 F7200 X67.2 Y124.419
G1 F675 X67.2 Y84.4 E72.1205
G0 F7200 X65.6 Y84.4
G1 F675 X65.6 Y125.943 E74.6076
G0 F7200 X68.8 Y123.75
G1 F675 X68.8 Y84.4 E76.96342
G0 F7200 X70.4 Y84.4
G1 F675 X70.4 Y123.6 E79.31026
G0 F7200 X72 Y123.6
G1 F675 X72 Y84.4 E81.65709
G0 F7200 X73.6 Y84.4
G1 F675 X73.6 Y123.6 E84.00393
G0 F7200 X75.2 Y123.6
G1 F675 X75.2 Y84.4 E86.35076
G0 F7200 X76.8 Y84.4
G1 F675 X76.8 Y123.6 E88.6976
G0 F7200 X78.4 Y123.6
G1 F675 X78.4 Y84.4 E91.04443
G0 F7200 X80 Y84.4
G1 F675 X80 Y123.6 E93.39127
G0 F7200 X81.6 Y123.6
G1 F675 X81.6 Y84.4 E95.7381
G0 F7200 X83.2 Y84.4
G1 F675 X83.2 Y123.6 E98.08494
G0 F7200 X84.8 Y123.6
G1 F675 X84.8 Y84.4 E100.43177
G0 F7200 X86.4 Y84.4
G1 F675 X86.4 Y123.6 E102.77861
G0 F7200 X88 Y123.6
G1 F675 X88 Y84.4 E105.12544
G0 F7200 X89.6 Y84.4
G1 F675 X89.6 Y123.6 E107.47228
G0 F7200 X91.2 Y123.6
G1 F675 X91.2 Y84.4 E109.81911
G0 F7200 X92.8 Y84.4
G1 F675 X92.8 Y123.6 E112.16595
G0 F7200 X94.4 Y123.6
G1 F675 X94.4 Y84.4 E114.51278
G0 F7200 X96 Y84.4
G1 F675 X96 Y123.6 E116.85962
G0 F7200 X97.6 Y123.6
G1 F675 X97.6 Y84.4 E119.20645
G0 F7200 X99.2 Y84.4
G1 F675 X99.2 Y123.6 E121.55329
G0 F7200 X100.8 Y123.6
G1 F675 X100.8 Y84.4 E123.90012
G0 F7200 X102.4 Y84.4
G1 F675 X102.4 Y123.6 E126.24696
G0 F7200 X104 Y123.6
G1 F675 X104 Y84.4 E128.59379
G0 F7200 X105.6 Y84.4
G1 F675 X105.6 Y123.6 E130.94063
G0 F7200 X107.2 Y123.6
G1 F675 X107.2 Y84.4 E133.28746
G0 F7200 X108.8 Y84.4
G1 F675 X108.8 Y123.6 E135.6343
G0 F7200 X110.4 Y123.6
G1 F675 X110.4 Y84.4 E137.98113
G0 F7200 X112 Y84.4
G1 F675 X112 Y123.6 E140.32797
G0 F7200 X113.6 Y123.6
G1 F675 X113.6 Y84.4 E142.6748
G0 F7200 X115.2 Y84.4
G1 F675 X115.2 Y123.6 E145.02164
G0 F7200 X116.8 Y123.6
G1 F675 X116.8 Y84.4 E147.36847
G0 F7200 X118.4 Y84.4
G1 F675 X118.4 Y123.6 E149.71531
G0 F7200 X120 Y123.6
G1 F675 X120 Y84.4 E152.06214
G0 F7200 X121.6 Y84.4
G1 F675 X121.6 Y123.6 E154.40898
G0 F7200 X123.2 Y123.6
G1 F675 X123.2 Y84.4 E156.75581
G0 F7200 X124.8 Y84.4
G1 F675 X124.8 Y123.6 E159.10265
G0 F7200 X126.4 Y123.6
G1 F675 X126.4 Y84.4 E161.44948
G0 F7200 X128 Y84.4
G1 F675 X128 Y123.6 E163.79632
G0 F7200 X129.6 Y123.6
G1 F675 X129.6 Y84.4 E166.14315
G0 F7200 X131.2 Y84.4
G1 F675 X131.2 Y123.6 E168.48999
G0 F7200 X132.8 Y123.6
G1 F675 X132.8 Y84.4 E170.83683
G0 F7200 X134.4 Y84.4
G1 F675 X134.4 Y123.6 E173.18366
G0 F7200 X136 Y123.6
G1 F675 X136 Y84.4 E175.5305
G0 F7200 X137.6 Y84.4
G1 F675 X137.6 Y123.6 E177.87733
G0 F7200 X139.2 Y123.6
G1 F675 X139.2 Y84.4 E180.22417
G0 F7200 X140.8 Y84.4
G1 F675 X140.8 Y123.6 E182.571
G0 F7200 X142.4 Y123.6
G1 F675 X142.4 Y84.4 E184.91784
G0 F7200 X144 Y84.4
G1 F675 X144 Y123.6 E187.26467
G0 F7200 X145.6 Y123.6
G1 F675 X145.6 Y84.4 E189.61151
G0 F7200 X147.2 Y84.4
G1 F675 X147.2 Y123.6 E191.95834
G0 F7200 X148.8 Y123.6
G1 F675 X148.8 Y84.4 E194.30518
G0 F7200 X150.4 Y84.4
G1 F675 X150.4 Y123.6 E196.65201
G0 F7200 X152 Y123.6
G1 F675 X152 Y84.4 E198.99885
G0 F7200 X153.6 Y84.4
G1 F675 X153.6 Y123.6 E201.34568
G0 F7200 X155.2 Y123.6
G1 F675 X155.2 Y84.4 E203.69252
G0 F7200 X156.8 Y84.4
G1 F675 X156.8 Y123.6 E206.03935
G0 F7200 X158.4 Y123.6
G1 F675 X158.4 Y84.4 E208.38619
G0 F7200 X160 Y84.4
G1 F675 X160 Y123.6 E210.73302
G0 F7200 X161.6 Y123.6
G1 F675 X161.6 Y84.4 E213.07986
G0 F7200 X163.2 Y84.4
G1 F675 X163.2 Y123.6 E215.42669
G0 F7200 X164.8 Y123.6
G1 F675 X164.8 Y84.4 E217.77353
G0 F7200 X166.4 Y84.4
G1 F675 X166.4 Y123.6 E220.12036
G0 F7200 X168 Y123.6
G1 F675 X168 Y84.4 E222.4672
G0 F7200 X169.6 Y84.4
G1 F675 X169.6 Y123.6 E224.81403
G0 F7200 X171.2 Y123.6
G1 F675 X171.2 Y84.4 E227.16087
G0 F7200 X172.8 Y84.4
G1 F675 X172.8 Y123.6 E229.5077
G0 F7200 X174.4 Y123.6
G1 F675 X174.4 Y84.4 E231.85454
G0 F7200 X176 Y84.4
G1 F675 X176 Y123.6 E234.20137
G0 F7200 X177.6 Y123.6
G1 F675 X177.6 Y84.4 E236.54821
G0 F7200 X179.2 Y84.4
G1 F675 X179.2 Y123.6 E238.89504
G0 F7200 X180.8 Y123.6
G1 F675 X180.8 Y84.4 E241.24188
G0 F7200 X182.4 Y84.4
G1 F675 X182.4 Y123.6 E243.58871
G0 F7200 X184 Y123.6
G1 F675 X184 Y84.4 E245.93555
G0 F7200 X185.6 Y84.4
G1 F675 X185.6 Y123.6 E248.28238
G0 F7200 X187.2 Y123.6
G1 F675 X187.2 Y84.4 E250.62922
G0 F7200 X188.8 Y84.4
G1 F675 X188.8 Y123.6 E252.97605
G0 F7200 X190.4 Y123.6
G1 F675 X190.4 Y84.4 E255.32289
G0 F7200 X192 Y84.4
G1 F675 X192 Y123.6 E257.66972
G0 F7200 X193.6 Y123.6
G1 F675 X193.6 Y84.4 E260.01656
G0 F7200 X195.2 Y84.4
G1 F675 X195.2 Y123.6 E262.3634
G0 F7200 X196.8 Y123.6
G1 F675 X196.8 Y84.4 E264.71023
G0 F7200 X198.4 Y84.4
G1 F675 X198.4 Y123.6 E267.05707
G0 F7200 X200 Y123.6
G1 F675 X200 Y84.4 E269.4039
G0 F7200 X201.6 Y84.4
G1 F675 X201.6 Y123.6 E271.75074
G0 F7200 X203.2 Y123.6
G1 F675 X203.2 Y84.4 E274.09757
G0 F7200 X204.8 Y84.4
G1 F675 X204.8 Y123.6 E276.44441
G0 F7200 X206.4 Y123.6
G1 F675 X206.4 Y84.4 E278.79124
G0 F7200 X208 Y84.4
G1 F675 X208 Y123.6 E281.13808
G0 F7200 X209.6 Y123.6
G1 F675 X209.6 Y84.4 E283.48491
G0 F7200 X211.2 Y84.4
G1 F675 X211.2 Y123.6 E285.83175
G0 F7200 X212.8 Y123.6
G1 F675 X212.8 Y84.4 E288.17858
G0 F7200 X214.4 Y84.4
G1 F675 X214.4 Y123.6 E290.52542
G0 F7200 X216 Y123.6
G1 F675 X216 Y84.4 E292.87225
G0 F7200 X217.6 Y84.4
G1 F675 X217.6 Y123.6 E295.21909
G0 F7200 X219.2 Y123.6
G1 F675 X219.2 Y84.4 E297.56592
G0 F7200 X220.8 Y84.4
G1 F675 X220.8 Y123.6 E299.91276
G0 F7200 X222.4 Y123.6
G1 F675 X222.4 Y84.4 E302.25959
G0 F7200 X224 Y84.4
G1 F675 X224 Y123.6 E304.60643
G0 F7200 X225.6 Y123.6
G1 F675 X225.6 Y84.4 E306.95326
G0 F7200 X227.2 Y84.4
G1 F675 X227.2 Y123.6 E309.3001
G0 F7200 X228.8 Y123.6
G1 F675 X228.8 Y84.4 E311.64693
G0 F7200 X230.4 Y84.4
G1 F675 X230.4 Y123.637 E313.99598
G0 F7200 X232 Y124.01
G1 F675 X232 Y84.4 E316.36736
G0 F7200 X233.6 Y84.4
G1 F675 X233.6 Y125.025 E318.79951
G0 F7200 X235.2 Y127.705
G1 F675 X235.2 Y84.4 E321.39211
G0 F7200 X236.8 Y84.4
G1 F675 X236.8 Y215.6 E329.24682
G0 F7200 X235.2 Y215.6
G1 F675 X235.2 Y172.263 E331.84133
G0 F7200 X233.6 Y174.982
G1 F675 X233.6 Y215.6 E334.27306
G0 F7200 X232 Y215.6
G1 F675 X232 Y175.997 E336.64402
G0 F7200 X230.4 Y176.373
G1 F675 X230.4 Y215.6 E338.99247
G0 F7200 X228.8 Y215.6
G1 F675 X228.8 Y176.4 E341.33931
G0 F7200 X227.2 Y176.4
G1 F675 X227.2 Y215.6 E343.68614
G0 F7200 X225.6 Y215.6
G1 F675 X225.6 Y176.4 E346.03298
G0 F7200 X224 Y176.4
G1 F675 X224 Y215.6 E348.37981
G0 F7200 X222.4 Y215.6
G1 F675 X222.4 Y176.4 E350.72665
G0 F7200 X220.8 Y176.4
G1 F675 X220.8 Y215.6 E353.07348
G0 F7200 X219.2 Y215.6
G1 F675 X219.2 Y176.4 E355.42032
G0 F7200 X217.6 Y176.4
G1 F675 X217.6 Y215.6 E357.76715
G0 F7200 X216 Y215.6
G1 F675 X216 Y176.4 E360.11399
G0 F7200 X214.4 Y176.4
G1 F675 X214.4 Y215.6 E362.46082
G0 F7200 X212.8 Y215.6
G1 F675 X212.8 Y176.4 E364.80766
G0 F7200 X211.2 Y176.4
G1 F675 X211.2 Y215.6 E367.15449
G0 F7200 X209.6 Y215.6
G1 F675 X209.6 Y176.4 E369.50133
G0 F7200 X208 Y176.4
G1 F675 X208 Y215.6 E371.84816
G0 F7200 X206.4 Y215.6
G1 F675 X206.4 Y176.4 E374.195
G0 F7200 X204.8 Y176.4
G1 F675 X204.8 Y215.6 E376.54183
G0 F7200 X203.2 Y215.6
G1 F675 X203.2 Y176.4 E378.88867
G0 F7200 X201.6 Y176.4
G1 F675 X201.6 Y215.6 E381.2355
G0 F7200 X200 Y215.6
G1 F675 X200 Y176.4 E383.58234
G0 F7200 X198.4 Y176.4
G1 F675 X198.4 Y215.6 E385.92917
G0 F7200 X196.8 Y215.6
G1 F675 X196.8 Y176.4 E388.27601
G0 F7200 X195.2 Y176.4
G1 F675 X195.2 Y215.6 E390.62284
G0 F7200 X193.6 Y215.6
G1 F675 X193.6 Y176.4 E392.96968
G0 F7200 X192 Y176.4
G1 F675 X192 Y215.6 E395.31651
G0 F7200 X190.4 Y215.6
G1 F675 X190.4 Y176.4 E397.66335
G0 F7200 X188.8 Y176.4
G1 F675 X188.8 Y215.6 E400.01018
G0 F7200 X187.2 Y215.6
G1 F675 X187.2 Y176.4 E402.35702
G0 F7200 X185.6 Y176.4
G1 F675 X185.6 Y215.6 E404.70385
G0 F7200 X184 Y215.6
G1 F675 X184 Y176.4 E407.05069
G0 F7200 X182.4 Y176.4
G1 F675 X182.4 Y215.6 E409.39753
G0 F7200 X180.8 Y215.6
G1 F675 X180.8 Y176.4 E411.74436
G0 F7200 X179.2 Y176.4
G1 F675 X179.2 Y215.6 E414.0912
G0 F7200 X177.6 Y215.6
G1 F675 X177.6 Y176.4 E416.43803
G0 F7200 X176 Y176.4
G1 F675 X176 Y215.6 E418.78487
G0 F7200 X174.4 Y215.6
G1 F675 X174.4 Y176.4 E421.1317
G0 F7200 X172.8 Y176.4
G1 F675 X172.8 Y215.6 E423.47854
G0 F7200 X171.2 Y215.6
G1 F675 X171.2 Y176.4 E425.82537
G0 F7200 X169.6 Y176.4
G1 F675 X169.6 Y215.6 E428.17221
G0 F7200 X168 Y215.6
G1 F675 X168 Y176.4 E430.51904
G0 F7200 X166.4 Y176.4
G1 F675 X166.4 Y215.6 E432.86588
G0 F7200 X164.8 Y215.6
G1 F675 X164.8 Y176.4 E435.21271
G0 F7200 X163.2 Y176.4
G1 F675 X163.2 Y215.6 E437.55955
G0 F7200 X161.6 Y215.6
G1 F675 X161.6 Y176.4 E439.90638
G0 F7200 X160 Y176.4
G1 F675 X160 Y215.6 E442.25322
G0 F7200 X158.4 Y215.6
G1 F675 X158.4 Y176.4 E444.60005
G0 F7200 X156.8 Y176.4
G1 F675 X156.8 Y215.6 E446.94689
G0 F7200 X155.2 Y215.6
G1 F675 X155.2 Y176.4 E449.29372
G0 F7200 X153.6 Y176.4
G1 F675 X153.6 Y215.6 E451.64056
