;FLAVOR:Marlin
;TIME:15273
;Filament used: 13.2234m
;Layer height: 0.2
;MINX:25.519
;MINY:30.466
;MINZ:0.24
;MAXX:94.41
;MAXY:187.127
;MAXZ:11.09
;Generated with Cura_SteamEngine 4.4.1
M82 ;absolute extrusion mode
M201 X500.00 Y500.00 Z100.00 E5000.00 ;Setup machine max acceleration
M203 X500.00 Y500.00 Z10.00 E50.00 ;Setup machine max feedrate
M204 P500.00 R1000.00 T500.00 ;Setup Print/Retract/Travel acceleration
M205 X8.00 Y8.00 Z0.40 E5.00 ;Setup Jerk
M220 S100 ;Reset Feedrate
M221 S100 ;Reset Flowrate

G28 ;Home

G92 E0 ;Reset Extruder
M117 Getting the bed & Extruder up to temp!
M140 S60   ; Set Heat Bed temperature
M104 S220.0 ; Set Extruder temperature
M190 S60 ; Wait for Heat Bed temperature
M109 S220.0 ; Wait for Extruder temperature
M117 Bed & Extruder up to temp!

G1 Z2.0 F3000 ;Move Z Axis up
G1 X10.1 Y20 Z0.28 F5000.0 ;Move to start position
G1 X10.1 Y200.0 Z0.28 F1500.0 E15 ;Draw the first line
G1 X10.4 Y200.0 Z0.28 F5000.0 ;Move to side a little
G1 X10.4 Y20 Z0.28 F1500.0 E30 ;Draw the second line
G92 E0 ;Reset Extruder
G1 Z2.0 F3000 ;Move Z Axis up
G92 E0
G92 E0
G1 F1500 E-6.5
;LAYER_COUNT:50
;LAYER:-6
M107
G0 F9000 X31.624 Y35.941 Z0.24
;TYPE:SUPPORT-INTERFACE
G1 F1500 E0
G1 F1125 X31.927 Y35.678 E0.03203
G1 X33.682 Y34.319 E0.20921
G1 X33.888 Y34.181 E0.229
G1 X34.159 Y34.019 E0.25421
G1 X36.192 Y32.93 E0.4383
G1 X36.301 Y32.882 E0.44781
G1 X36.607 Y32.762 E0.47405
G1 X38.653 Y32.063 E0.64664
G1 X38.933 Y31.989 E0.66976
G1 X39.207 Y31.93 E0.69213
G1 X41.323 Y31.578 E0.86336
G1 X41.587 Y31.548 E0.88457
G1 X41.954 Y31.532 E0.91389
G1 X44.084 Y31.535 E1.08392
G1 X44.349 Y31.55 E1.1051
G1 X44.537 Y31.57 E1.1202
G1 X44.71 Y31.594 E1.13414
G1 X46.898 Y31.964 E1.31127
G1 X47.073 Y32.006 E1.32564
G1 X47.394 Y32.098 E1.35229
G1 X49.49 Y32.821 E1.52928
G1 X49.663 Y32.894 E1.54427
G1 X49.982 Y33.045 E1.57244
G1 X51.944 Y34.112 E1.75072
G1 X52.064 Y34.188 E1.76206
G1 X52.25 Y34.313 E1.77995
G1 X52.385 Y34.411 E1.79326
G1 X54.045 Y35.707 E1.96137
G1 X54.192 Y35.832 E1.97677
G1 X54.391 Y36.016 E1.99841
G1 X54.537 Y36.162 E2.01489
G1 X55.94 Y37.693 E2.18066
G1 X56.066 Y37.841 E2.19617
G1 X56.551 Y38.466 E2.25932
G1 X56.561 Y38.458 E2.26034
G1 X56.618 Y38.529 E2.26761
G1 X57.108 Y39.003 E2.32203
G1 X57.656 Y39.413 E2.37666
G1 X58.25 Y39.749 E2.43114
G1 X58.882 Y40.007 E2.48563
G1 X59.542 Y40.184 E2.54018
G1 X60.218 Y40.276 E2.59463
G1 X60.901 Y40.282 E2.64916
G1 X61.579 Y40.201 E2.70366
G1 X62.242 Y40.036 E2.7582
G1 X62.878 Y39.789 E2.81266
G1 X63.478 Y39.464 E2.86713
G1 X64.032 Y39.065 E2.92163
G1 X64.506 Y38.623 E2.97336
G1 X64.512 Y38.629 E2.97404
G1 X65.062 Y37.977 E3.04213
G1 X65.171 Y37.857 E3.05507
G1 X66.655 Y36.373 E3.2226
G1 X66.754 Y36.283 E3.23328
G1 X67.01 Y36.067 E3.26002
G1 X67.143 Y35.965 E3.2734
G1 X68.828 Y34.784 E3.43765
G1 X69.003 Y34.673 E3.45419
G1 X69.246 Y34.533 E3.47658
G1 X69.413 Y34.445 E3.49164
G1 X71.262 Y33.579 E3.65463
G1 X71.445 Y33.501 E3.67051
G1 X71.657 Y33.421 E3.68859
G1 X71.924 Y33.336 E3.71096
G1 X73.906 Y32.803 E3.87479
G1 X74.034 Y32.775 E3.88525
G1 X74.429 Y32.702 E3.91732
G1 X74.578 Y32.686 E3.92928
G1 X76.734 Y32.498 E4.10203
G1 X77.158 Y32.494 E4.13588
G1 X77.3 Y32.503 E4.14724
G1 X79.466 Y32.697 E4.32083
G1 X79.761 Y32.74 E4.34463
G1 X80.044 Y32.807 E4.36784
G1 X82.143 Y33.372 E4.54136
G1 X82.369 Y33.446 E4.56034
G1 X82.668 Y33.572 E4.58624
G1 X84.61 Y34.481 E4.7574
G1 X84.822 Y34.594 E4.77658
G1 X85.067 Y34.749 E4.79972
G1 X86.846 Y35.994 E4.97305
G1 X87.013 Y36.122 E4.98984
G1 X87.094 Y36.191 E4.99834
G1 X87.297 Y36.378 E5.02037
G1 X88.932 Y38.022 E5.20545
G1 X89.188 Y38.346 E5.23841
G1 X90.502 Y40.229 E5.4217
G1 X90.561 Y40.332 E5.43118
G1 X90.714 Y40.624 E5.45749
G1 X91.585 Y42.501 E5.62267
G1 X91.674 Y42.717 E5.64131
G1 X91.76 Y42.955 E5.66151
G1 X91.827 Y43.165 E5.67911
G1 X92.352 Y45.128 E5.84131
G1 X92.395 Y45.323 E5.85725
G1 X92.449 Y45.627 E5.8819
G1 X92.47 Y45.796 E5.89549
G1 X92.651 Y47.842 E6.05945
G1 X92.659 Y48.024 E6.07399
G1 X92.662 Y48.269 E6.09355
G1 X92.654 Y48.496 E6.11168
G1 X92.477 Y50.548 E6.27609
G1 X92.456 Y50.721 E6.29
G1 X92.414 Y50.979 E6.31087
G1 X92.356 Y51.245 E6.3326
G1 X91.829 Y53.218 E6.49561
G1 X91.783 Y53.367 E6.50806
G1 X91.598 Y53.856 E6.5498
G1 X90.737 Y55.706 E6.71268
G1 X90.654 Y55.87 E6.72735
G1 X90.488 Y56.165 E6.75437
G1 X90.387 Y56.318 E6.76901
G1 X89.133 Y58.105 E6.94327
G1 X89.027 Y58.24 E6.95697
G1 X88.782 Y58.514 E6.98631
G1 X87.244 Y60.05 E7.15982
G1 X86.881 Y60.354 E7.19762
G1 X86.776 Y60.43 E7.20797
G1 X84.913 Y61.727 E7.38917
G1 X84.751 Y61.821 E7.40412
G1 X84.524 Y61.936 E7.42443
G1 X82.595 Y62.835 E7.59431
G1 X82.37 Y62.929 E7.61378
G1 X82.011 Y63.041 E7.6438
G1 X80.969 Y63.322 E7.72995
G1 X80.335 Y63.536 E7.78336
G1 X79.72 Y63.835 E7.83795
G1 X79.149 Y64.209 E7.89243
G1 X78.629 Y64.652 E7.94696
G1 X78.169 Y65.156 E8.00143
G1 X77.777 Y65.716 E8.056
G1 X77.458 Y66.32 E8.11052
G1 X77.279 Y66.798 E8.15127
G1 X77.07 Y66.301 E8.1943
G1 X76.727 Y65.71 E8.24885
G1 X76.312 Y65.168 E8.30334
G1 X75.833 Y64.682 E8.35781
G1 X75.296 Y64.261 E8.41228
G1 X74.71 Y63.911 E8.46676
G1 X74.088 Y63.638 E8.52099
G1 X73.644 Y63.499 E8.55813
G1 X71.943 Y63.043 E8.6987
G1 X71.742 Y62.979 E8.71554
G1 X71.493 Y62.889 E8.73667
G1 X71.294 Y62.807 E8.75385
G1 X69.435 Y61.942 E8.91753
G1 X69.251 Y61.846 E8.93409
G1 X69.031 Y61.719 E8.95437
G1 X68.83 Y61.592 E8.97335
G1 X67.164 Y60.428 E9.13558
G1 X67.024 Y60.322 E9.1496
G1 X66.83 Y60.164 E9.16957
G1 X66.633 Y59.983 E9.19092
G1 X65.177 Y58.527 E9.35529
G1 X65.062 Y58.403 E9.36879
G1 X64.935 Y58.258 E9.38418
G1 X64.773 Y58.061 E9.40454
G1 X64.316 Y57.571 E9.45802
G1 X63.792 Y57.133 E9.51254
G1 X63.216 Y56.766 E9.56706
G1 X62.599 Y56.475 E9.62151
G1 X61.95 Y56.263 E9.67601
G1 X61.279 Y56.135 E9.73054
G1 X60.597 Y56.093 E9.78508
G1 X59.916 Y56.137 E9.83956
G1 X59.246 Y56.267 E9.89404
G1 X58.597 Y56.48 E9.94856
G1 X57.98 Y56.774 E10.00312
G1 X57.406 Y57.143 E10.05759
G1 X56.88 Y57.583 E10.11233
G1 X56.317 Y58.211 E10.17965
G1 X56.11 Y58.484 E10.207
G1 X55.857 Y58.779 E10.23802
G1 X54.552 Y60.201 E10.39209
G1 X54.409 Y60.346 E10.40835
G1 X54.255 Y60.491 E10.42523
G1 X53.952 Y60.744 E10.45674
G1 X52.385 Y61.966 E10.61536
G1 X52.267 Y62.051 E10.62697
G1 X52.074 Y62.182 E10.64559
G1 X51.748 Y62.375 E10.67583
G1 X49.991 Y63.327 E10.83535
G1 X49.867 Y63.388 E10.84638
G1 X49.551 Y63.529 E10.874
G1 X48.953 Y63.83 E10.92744
G1 X48.387 Y64.21 E10.98186
G1 X47.873 Y64.659 E11.03634
G1 X47.419 Y65.17 E11.0909
G1 X47.033 Y65.734 E11.14546
G1 X46.722 Y66.342 E11.19997
G1 X46.49 Y66.984 E11.25446
G1 X46.341 Y67.65 E11.30894
G1 X46.277 Y68.33 E11.36346
G1 X46.3 Y69.012 E11.41793
G1 X46.408 Y69.687 E11.4725
G1 X46.601 Y70.342 E11.52701
G1 X46.875 Y70.968 E11.58155
G1 X47.226 Y71.553 E11.63601
G1 X47.647 Y72.091 E11.69054
G1 X48.133 Y72.571 E11.74507
G1 X48.675 Y72.984 E11.79946
G1 X49.267 Y73.328 E11.85412
G1 X49.551 Y73.445 E11.87864
G1 X49.544 Y73.467 E11.88048
G1 X50.163 Y73.689 E11.93297
G1 X50.329 Y73.759 E11.94735
G1 X50.633 Y73.902 E11.97417
G1 X52.609 Y74.977 E12.15373
G1 X52.761 Y75.071 E12.168
G1 X53.043 Y75.267 E12.19541
G1 X54.779 Y76.621 E12.37115
G1 X54.917 Y76.744 E12.38591
G1 X55.07 Y76.888 E12.40268
G1 X55.208 Y77.028 E12.41837
G1 X56.611 Y78.558 E12.58408
G1 X56.737 Y78.707 E12.59966
G1 X57.228 Y79.338 E12.66348
G1 X57.238 Y79.33 E12.6645
G1 X57.298 Y79.404 E12.67211
G1 X57.79 Y79.878 E12.72664
G1 X58.337 Y80.286 E12.78111
G1 X58.933 Y80.621 E12.83569
G1 X59.565 Y80.879 E12.89018
G1 X60.225 Y81.054 E12.94468
G1 X60.902 Y81.146 E12.99922
G1 X61.585 Y81.15 E13.05374
G1 X62.262 Y81.069 E13.10817
G1 X62.924 Y80.903 E13.16265
G1 X63.56 Y80.654 E13.21717
G1 X64.159 Y80.328 E13.27161
G1 X64.714 Y79.929 E13.32617
G1 X65.182 Y79.491 E13.37734
G1 X65.188 Y79.497 E13.37801
G1 X65.724 Y78.861 E13.44441
G1 X65.868 Y78.703 E13.46147
G1 X67.301 Y77.271 E13.62318
G1 X67.461 Y77.124 E13.64053
G1 X67.661 Y76.957 E13.66133
G1 X67.83 Y76.826 E13.6784
G1 X69.503 Y75.654 E13.84145
G1 X69.678 Y75.543 E13.85799
G1 X69.921 Y75.403 E13.88038
G1 X70.094 Y75.312 E13.89598
G1 X71.937 Y74.449 E14.05843
G1 X72.12 Y74.371 E14.07431
G1 X72.332 Y74.291 E14.0924
G1 X72.599 Y74.206 E14.11476
G1 X73.65 Y73.924 E14.20163
G1 X74.285 Y73.71 E14.25512
G1 X74.899 Y73.412 E14.30959
G1 X75.47 Y73.038 E14.36408
G1 X75.99 Y72.595 E14.41861
G1 X76.451 Y72.091 E14.47313
G1 X76.843 Y71.532 E14.52763
G1 X77.163 Y70.928 E14.5822
G1 X77.343 Y70.447 E14.62319
G1 X77.553 Y70.947 E14.66648
G1 X77.897 Y71.537 E14.721
G1 X78.312 Y72.079 E14.77549
G1 X78.791 Y72.565 E14.82996
G1 X79.329 Y72.987 E14.88454
G1 X79.916 Y73.336 E14.93905
G1 X80.538 Y73.608 E14.99324
G1 X80.983 Y73.748 E15.03048
G1 X82.817 Y74.242 E15.1821
G1 X83.043 Y74.316 E15.20108
G1 X83.333 Y74.439 E15.22623
G1 X85.284 Y75.351 E15.39814
G1 X85.508 Y75.471 E15.41842
G1 X85.778 Y75.644 E15.44402
G1 X87.585 Y76.912 E15.62023
G1 X87.76 Y77.054 E15.63822
G1 X87.987 Y77.263 E15.66285
G1 X89.472 Y78.744 E15.83027
G1 X89.679 Y78.976 E15.85509
G1 X89.864 Y79.216 E15.87927
G1 X91.12 Y81.013 E16.05428
G1 X91.235 Y81.201 E16.07188
G1 X91.385 Y81.489 E16.0978
G1 X92.267 Y83.386 E16.26479
G1 X92.35 Y83.588 E16.28222
G1 X92.437 Y83.829 E16.30268
G1 X92.5 Y84.027 E16.31926
G1 X93.027 Y85.998 E16.48212
G1 X93.07 Y86.193 E16.49806
G1 X93.124 Y86.497 E16.52271
G1 X93.145 Y86.666 E16.5363
G1 X93.326 Y88.712 E16.70026
G1 X93.334 Y88.894 E16.7148
G1 X93.337 Y89.139 E16.73436
G1 X93.329 Y89.366 E16.75249
G1 X93.152 Y91.418 E16.9169
G1 X93.131 Y91.591 E16.93081
G1 X93.089 Y91.849 E16.95168
G1 X93.033 Y92.111 E16.97306
G1 X92.504 Y94.088 E17.13643
G1 X92.459 Y94.234 E17.14862
G1 X92.377 Y94.472 E17.16872
G1 X92.251 Y94.774 E17.19484
G1 X91.415 Y96.567 E17.35276
G1 X91.33 Y96.737 E17.36793
G1 X91.174 Y97.017 E17.39351
G1 X91.069 Y97.176 E17.40872
G1 X89.821 Y98.957 E17.58232
G1 X89.586 Y99.248 E17.61218
G1 X89.459 Y99.382 E17.62692
G1 X87.905 Y100.931 E17.80206
G1 X87.615 Y101.179 E17.83252
G1 X87.5 Y101.265 E17.84398
G1 X85.696 Y102.527 E18.01973
G1 X85.418 Y102.694 E18.04561
G1 X85.183 Y102.814 E18.06668
G1 X83.264 Y103.708 E18.23567
G1 X82.942 Y103.833 E18.26324
G1 X82.703 Y103.907 E18.28321
G1 X81.811 Y104.146 E18.35693
G1 X81.176 Y104.36 E18.41041
G1 X80.562 Y104.658 E18.46489
G1 X79.991 Y105.032 E18.51938
G1 X79.471 Y105.475 E18.57391
G1 X79.01 Y105.979 E18.62843
G1 X78.618 Y106.538 E18.68293
G1 X78.298 Y107.142 E18.7375
G1 X78.059 Y107.781 E18.79195
G1 X77.901 Y108.445 E18.84644
G1 X77.829 Y109.124 E18.90094
G1 X77.842 Y109.806 E18.95539
G1 X77.942 Y110.482 E19.00994
G1 X78.126 Y111.14 E19.06448
G1 X78.391 Y111.769 E19.11896
G1 X78.734 Y112.36 E19.17351
G1 X79.149 Y112.902 E19.228
G1 X79.628 Y113.388 E19.28247
G1 X80.165 Y113.809 E19.33694
G1 X80.751 Y114.159 E19.39142
G1 X81.373 Y114.432 E19.44565
G1 X81.82 Y114.572 E19.48304
G1 X82.827 Y114.841 E19.56624
G1 X83.213 Y114.963 E19.59855
G1 X83.503 Y115.086 E19.6237
G1 X85.447 Y115.994 E19.79497
G1 X85.678 Y116.118 E19.8159
G1 X85.948 Y116.291 E19.8415
G1 X87.749 Y117.555 E20.01713
G1 X87.938 Y117.708 E20.03654
G1 X88.141 Y117.895 E20.05857
G1 X89.702 Y119.458 E20.23491
G1 X89.791 Y119.556 E20.24547
G1 X90.026 Y119.854 E20.27577
G1 X91.34 Y121.737 E20.45906
G1 X91.399 Y121.838 E20.46839
G1 X91.558 Y122.14 E20.49564
G1 X92.432 Y124.022 E20.66128
G1 X92.512 Y124.213 E20.67781
G1 X92.607 Y124.475 E20.70005
G1 X92.67 Y124.677 E20.71694
G1 X93.193 Y126.632 E20.87849
G1 X93.239 Y126.838 E20.89534
G1 X93.288 Y127.117 E20.91795
G1 X93.316 Y127.324 E20.93462
G1 X93.496 Y129.361 E21.09786
G1 X93.504 Y129.522 E21.11073
G1 X93.507 Y129.784 E21.13164
G1 X93.496 Y130.056 E21.15337
G1 X93.32 Y132.074 E21.31507
G1 X93.298 Y132.253 E21.32946
G1 X93.257 Y132.498 E21.34929
G1 X93.2 Y132.76 E21.3707
G1 X92.63 Y134.877 E21.5457
G1 X92.481 Y135.286 E21.58045
G1 X92.443 Y135.371 E21.58788
G1 X91.572 Y137.241 E21.75255
G1 X91.499 Y137.385 E21.76544
G1 X91.41 Y137.548 E21.78026
G1 X91.217 Y137.855 E21.80921
G1 X89.991 Y139.603 E21.97964
G1 X89.782 Y139.864 E22.00633
G1 X89.642 Y140.013 E22.02265
G1 X88.07 Y141.583 E22.2
G1 X87.866 Y141.763 E22.22172
G1 X87.637 Y141.935 E22.24458
G1 X85.872 Y143.169 E22.41649
G1 X85.672 Y143.293 E22.43527
G1 X85.357 Y143.458 E22.46366
G1 X83.309 Y144.407 E22.64384
G1 X83.125 Y144.476 E22.65952
G1 X83.028 Y144.507 E22.66765
G1 X82.403 Y144.751 E22.72121
G1 X81.804 Y145.077 E22.77565
G1 X81.249 Y145.476 E22.83021
G1 X80.75 Y145.943 E22.88476
G1 X80.315 Y146.468 E22.93919
G1 X79.949 Y147.045 E22.99373
G1 X79.658 Y147.663 E23.04826
G1 X79.448 Y148.312 E23.10271
G1 X79.321 Y148.983 E23.15722
G1 X79.28 Y149.664 E23.21168
G1 X79.326 Y150.346 E23.26625
G1 X79.456 Y151.016 E23.32072
G1 X79.671 Y151.665 E23.3753
G1 X79.966 Y152.28 E23.42975
G1 X80.335 Y152.854 E23.48422
G1 X80.775 Y153.377 E23.53877
G1 X81.276 Y153.84 E23.59323
G1 X81.837 Y154.238 E23.64814
G1 X82.647 Y154.649 E23.72064
G1 X82.942 Y154.773 E23.74618
G1 X84.898 Y155.686 E23.91849
G1 X85.209 Y155.858 E23.94686
G1 X85.373 Y155.963 E23.96241
G1 X87.152 Y157.208 E24.13573
G1 X87.298 Y157.319 E24.15037
G1 X87.609 Y157.596 E24.18362
G1 X89.168 Y159.16 E24.3599
G1 X89.242 Y159.242 E24.36871
G1 X89.488 Y159.552 E24.4003
G1 X90.808 Y161.444 E24.58445
G1 X90.867 Y161.547 E24.59393
G1 X91.02 Y161.839 E24.62024
G1 X91.893 Y163.721 E24.78585
G1 X91.978 Y163.927 E24.80364
G1 X92.072 Y164.185 E24.82556
G1 X92.128 Y164.36 E24.84022
G1 X92.658 Y166.341 E25.00392
G1 X92.702 Y166.54 E25.02019
G1 X92.747 Y166.798 E25.04109
G1 X92.777 Y167.024 E25.05929
G1 X92.957 Y169.057 E25.22221
G1 X92.965 Y169.239 E25.23675
G1 X92.968 Y169.484 E25.25631
G1 X92.96 Y169.711 E25.27444
G1 X92.783 Y171.762 E25.43877
G1 X92.761 Y171.944 E25.4534
G1 X92.718 Y172.203 E25.47436
G1 X92.662 Y172.459 E25.49528
G1 X92.135 Y174.432 E25.65829
G1 X92.091 Y174.574 E25.67016
G1 X91.997 Y174.844 E25.69298
G1 X91.904 Y175.07 E25.71249
G1 X91.037 Y176.934 E25.87659
G1 X90.964 Y177.078 E25.88948
G1 X90.782 Y177.399 E25.91893
G1 X90.679 Y177.553 E25.93372
G1 X89.453 Y179.301 E26.10415
G1 X89.241 Y179.564 E26.13112
G1 X89.088 Y179.728 E26.14902
G1 X87.55 Y181.264 E26.32253
G1 X87.302 Y181.481 E26.34884
G1 X87.082 Y181.644 E26.37069
G1 X85.23 Y182.934 E26.55085
G1 X85.066 Y183.03 E26.56602
G1 X84.829 Y183.151 E26.58727
G1 X82.89 Y184.055 E26.75804
G1 X82.7 Y184.133 E26.77443
G1 X82.449 Y184.217 E26.79556
G1 X82.296 Y184.262 E26.80829
G1 X80.109 Y184.842 E26.9889
G1 X79.989 Y184.863 E26.99863
G1 X79.675 Y184.904 E27.02391
G1 X77.457 Y185.095 E27.20161
G1 X77.309 Y185.096 E27.21343
G1 X77.089 Y185.091 E27.23099
G1 X76.912 Y185.081 E27.24514
G1 X74.893 Y184.902 E27.40694
G1 X74.675 Y184.873 E27.4245
G1 X74.41 Y184.827 E27.44597
G1 X74.194 Y184.779 E27.46363
G1 X72.249 Y184.257 E27.62438
G1 X72.048 Y184.193 E27.64122
G1 X71.799 Y184.103 E27.66235
G1 X71.6 Y184.021 E27.67953
G1 X69.741 Y183.156 E27.84321
G1 X69.557 Y183.06 E27.85977
G1 X69.337 Y182.933 E27.88005
G1 X69.136 Y182.806 E27.89903
G1 X67.47 Y181.642 E28.06126
G1 X67.331 Y181.537 E28.07517
G1 X67.136 Y181.378 E28.09525
G1 X66.912 Y181.171 E28.1196
G1 X65.495 Y179.755 E28.2795
G1 X65.373 Y179.624 E28.29379
G1 X65.219 Y179.447 E28.31252
G1 X65.096 Y179.295 E28.32813
G1 X64.642 Y178.802 E28.38163
G1 X64.119 Y178.362 E28.43618
G1 X63.544 Y177.993 E28.49072
G1 X62.929 Y177.698 E28.54517
G1 X62.281 Y177.483 E28.59967
G1 X61.611 Y177.353 E28.65415
G1 X60.929 Y177.307 E28.70871
G1 X60.248 Y177.348 E28.76317
G1 X59.577 Y177.475 E28.81768
G1 X58.927 Y177.685 E28.87221
G1 X58.309 Y177.975 E28.9267
G1 X57.733 Y178.341 E28.98118
G1 X57.204 Y178.78 E29.03605
G1 X56.623 Y179.426 E29.10541
G1 X56.424 Y179.687 E29.13161
G1 X56.308 Y179.83 E29.1463
G1 X56.176 Y179.981 E29.16231
G1 X54.832 Y181.442 E29.32078
G1 X54.712 Y181.563 E29.33438
G1 X54.561 Y181.705 E29.35093
G1 X54.263 Y181.956 E29.38203
G1 X52.696 Y183.176 E29.54055
G1 X52.558 Y183.276 E29.55416
G1 X52.393 Y183.388 E29.57008
G1 X52.251 Y183.477 E29.58345
G1 X52.055 Y183.589 E29.60147
G1 X50.191 Y184.595 E29.77055
G1 X49.835 Y184.753 E29.80164
G1 X49.56 Y184.855 E29.82506
G1 X47.728 Y185.484 E29.97967
G1 X47.389 Y185.582 E30.00784
