;FLAVOR:Marlin
;TIME:7198
;Filament used: 5.83364m
;Layer height: 0.2
;MINX:115.071
;MINY:82.336
;MINZ:0.24
;MAXX:185.049
;MAXY:137.663
;MAXZ:33.09
;Generated with Cura_SteamEngine 4.5.0
M82 ;absolute extrusion mode
M201 X500.00 Y500.00 Z100.00 E5000.00 ;Setup machine max acceleration
M203 X500.00 Y500.00 Z10.00 E50.00 ;Setup machine max feedrate
M204 P500.00 R1000.00 T500.00 ;Setup Print/Retract/Travel acceleration
M205 X8.00 Y8.00 Z0.40 E5.00 ;Setup Jerk
M220 S100 ;Reset Feedrate
M221 S100 ;Reset Flowrate

G28 ;Home

G92 E0 ;Reset Extruder
M117 Getting the bed & Extruder up to temp!
M140 S60   ; Set Heat Bed temperature
M104 S220.0 ; Set Extruder temperature
M190 S60 ; Wait for Heat Bed temperature
M109 S220.0 ; Wait for Extruder temperature
M117 Bed & Extruder up to temp!

G1 Z2.0 F3000 ;Move Z Axis up
G1 X10.1 Y20 Z0.28 F5000.0 ;Move to start position
G1 X10.1 Y200.0 Z0.28 F1500.0 E15 ;Draw the first line
G1 X10.4 Y200.0 Z0.28 F5000.0 ;Move to side a little
G1 X10.4 Y20 Z0.28 F1500.0 E30 ;Draw the second line
G92 E0 ;Reset Extruder
G1 Z2.0 F3000 ;Move Z Axis up
G92 E0
G92 E0
G1 F1500 E-6.5
;LAYER_COUNT:160
;LAYER:-6
M107
G0 F9000 X119.904 Y99.983 Z0.24
;TYPE:SUPPORT-INTERFACE
G1 F1500 E0
G1 F1125 X120.202 Y99.663 E0.0349
G1 X120.342 Y99.526 E0.05054
G1 X120.532 Y99.36 E0.07068
G1 X121.936 Y98.203 E0.21591
G1 X122.052 Y98.114 E0.22758
G1 X122.394 Y97.866 E0.2613
G1 X122.59 Y97.739 E0.27994
G1 X122.828 Y97.604 E0.30178
G1 X124.531 Y96.694 E0.45591
G1 X124.931 Y96.512 E0.49099
G1 X125.133 Y96.431 E0.50837
G1 X125.383 Y96.348 E0.52939
G1 X127.245 Y95.784 E0.6847
G1 X127.658 Y95.686 E0.71858
G1 X127.874 Y95.647 E0.7361
G1 X128.161 Y95.611 E0.75919
G1 X130.095 Y95.422 E0.9143
G1 X130.581 Y95.401 E0.95313
G1 X131.655 Y95.401 E1.03887
G1 X132.323 Y95.359 E1.09229
G1 X132.994 Y95.23 E1.14684
G1 X133.643 Y95.017 E1.20136
G1 X134.26 Y94.725 E1.25585
G1 X134.835 Y94.357 E1.31034
G1 X135.359 Y93.919 E1.36486
G1 X135.823 Y93.419 E1.41931
G1 X136.225 Y92.859 E1.47434
G1 X136.335 Y92.642 E1.49376
G1 X136.359 Y92.654 E1.4959
G1 X136.733 Y91.863 E1.56574
G1 X136.873 Y91.609 E1.58889
G1 X137.021 Y91.377 E1.61086
G1 X137.194 Y91.14 E1.63428
G1 X137.385 Y90.91 E1.65815
G1 X137.583 Y90.7 E1.68119
G1 X137.807 Y90.492 E1.70559
G1 X138.06 Y90.283 E1.73178
G1 X138.179 Y90.192 E1.74374
G1 X139.587 Y89.171 E1.88257
G1 X139.93 Y88.953 E1.91502
G1 X140.177 Y88.817 E1.93752
G1 X140.442 Y88.693 E1.96088
G1 X140.593 Y88.633 E1.97385
G1 X141.199 Y88.347 E2.02734
G1 X141.774 Y87.98 E2.08179
G1 X142.299 Y87.543 E2.13632
G1 X142.765 Y87.044 E2.19082
G1 X143.136 Y86.529 E2.24148
G1 X143.145 Y86.534 E2.2423
G1 X143.559 Y85.788 E2.31041
G1 X143.696 Y85.573 E2.33076
G1 X143.894 Y85.307 E2.35723
G1 X144.198 Y84.953 E2.39448
G1 X144.331 Y84.809 E2.41012
G1 X144.438 Y84.709 E2.42181
G1 X144.733 Y84.45 E2.45315
G1 X144.948 Y84.283 E2.47488
G1 X145.179 Y84.127 E2.49713
G1 X145.447 Y83.969 E2.52197
G1 X145.704 Y83.839 E2.54496
G1 X145.974 Y83.723 E2.56841
G1 X146.23 Y83.631 E2.59013
G1 X146.522 Y83.547 E2.61438
G1 X146.783 Y83.491 E2.63569
G1 X147.103 Y83.443 E2.66152
G1 X147.571 Y83.407 E2.69899
G1 X147.763 Y83.4 E2.71432
G1 X177.562 Y83.404 E5.09301
G1 X177.947 Y83.425 E5.12379
G1 X178.358 Y83.468 E5.15677
G1 X178.495 Y83.488 E5.16783
G1 X178.898 Y83.558 E5.20048
G1 X179.122 Y83.61 E5.21883
G1 X179.467 Y83.712 E5.24755
G1 X179.897 Y83.864 E5.28396
G1 X180.287 Y84.027 E5.3177
G1 X180.488 Y84.124 E5.33551
G1 X180.806 Y84.301 E5.36457
G1 X181.198 Y84.549 E5.40159
G1 X181.521 Y84.777 E5.43315
G1 X181.71 Y84.928 E5.45246
G1 X182.015 Y85.203 E5.48524
G1 X182.319 Y85.509 E5.51968
G1 X182.585 Y85.806 E5.5515
G1 X182.739 Y85.999 E5.57121
G1 X182.977 Y86.339 E5.60434
G1 X183.21 Y86.716 E5.63972
G1 X183.399 Y87.061 E5.67112
G1 X183.504 Y87.28 E5.69051
G1 X183.651 Y87.645 E5.72192
G1 X183.739 Y87.89 E5.7427
G1 X183.795 Y88.063 E5.75721
G1 X183.895 Y88.406 E5.78573
G1 X183.962 Y88.695 E5.80941
G1 X184.023 Y89.076 E5.84021
G1 X184.055 Y89.348 E5.86207
G1 X184.07 Y89.522 E5.87602
G1 X184.094 Y89.909 E5.90697
G1 X184.099 Y90.075 E5.92022
G1 X184.096 Y130.062 E9.11216
G1 X184.063 Y130.577 E9.15335
G1 X184.014 Y130.986 E9.18623
G1 X183.942 Y131.398 E9.21962
G1 X183.89 Y131.622 E9.23798
G1 X183.788 Y131.967 E9.26669
G1 X183.636 Y132.397 E9.3031
G1 X183.474 Y132.785 E9.33666
G1 X183.379 Y132.983 E9.35419
G1 X183.205 Y133.295 E9.38271
G1 X183.028 Y133.583 E9.40969
G1 X182.951 Y133.698 E9.42074
G1 X182.723 Y134.021 E9.4523
G1 X182.572 Y134.21 E9.47161
G1 X182.294 Y134.518 E9.50473
G1 X181.982 Y134.827 E9.53978
G1 X181.694 Y135.085 E9.57065
G1 X181.483 Y135.253 E9.59218
G1 X181.278 Y135.398 E9.61222
G1 X181.151 Y135.484 E9.62447
G1 X180.929 Y135.624 E9.64542
G1 X180.772 Y135.716 E9.65994
G1 X180.445 Y135.896 E9.68974
G1 X180.212 Y136.007 E9.71034
G1 X179.997 Y136.097 E9.72894
G1 X179.61 Y136.239 E9.76185
G1 X179.437 Y136.295 E9.77637
G1 X179.094 Y136.395 E9.80488
G1 X178.804 Y136.462 E9.82864
G1 X178.413 Y136.524 E9.86024
G1 X178.152 Y136.555 E9.88123
G1 X177.978 Y136.57 E9.89517
G1 X177.591 Y136.594 E9.92612
G1 X177.414 Y136.599 E9.94025
G1 X138.708 Y136.597 E13.02993
G1 X138.334 Y136.578 E13.05983
G1 X138.176 Y136.564 E13.07249
G1 X136.878 Y136.423 E13.17671
G1 X136.486 Y136.357 E13.20844
G1 X136.244 Y136.302 E13.22825
G1 X135.912 Y136.206 E13.25584
G1 X134.683 Y135.788 E13.35946
G1 X134.275 Y135.62 E13.39468
G1 X134.085 Y135.53 E13.41146
G1 X133.78 Y135.363 E13.43922
G1 X132.669 Y134.692 E13.54283
G1 X132.319 Y134.451 E13.57675
G1 X132.143 Y134.314 E13.59455
G1 X131.858 Y134.064 E13.62481
G1 X130.902 Y133.151 E13.73034
G1 X130.481 Y132.692 E13.78005
G1 X119.28 Y119.337 E15.17142
G1 X119.019 Y118.989 E15.20614
G1 X118.154 Y117.754 E15.3265
G1 X118.039 Y117.574 E15.34355
G1 X117.718 Y117.02 E15.39466
G1 X117.635 Y116.861 E15.40898
G1 X116.993 Y115.49 E15.52983
G1 X116.907 Y115.282 E15.54779
G1 X116.693 Y114.693 E15.59782
G1 X116.63 Y114.495 E15.6144
G1 X116.25 Y113.082 E15.7312
G1 X116.196 Y112.837 E15.75123
G1 X116.092 Y112.254 E15.7985
G1 X116.061 Y112.012 E15.81797
G1 X115.931 Y110.549 E15.93522
G1 X115.921 Y110.322 E15.95336
G1 X115.925 Y109.655 E16.0066
G1 X115.936 Y109.428 E16.02474
G1 X116.123 Y107.56 E16.1746
G1 X116.193 Y107.129 E16.20945
G1 X116.233 Y106.939 E16.22495
G1 X116.301 Y106.684 E16.24602
G1 X116.873 Y104.803 E16.40296
G1 X117.016 Y104.421 E16.43552
G1 X117.112 Y104.197 E16.45497
G1 X117.235 Y103.95 E16.477
G1 X118.145 Y102.251 E16.63085
G1 X118.368 Y101.89 E16.66472
G1 X118.491 Y101.712 E16.68199
G1 X118.662 Y101.49 E16.70436
G1 X119.904 Y99.983 E16.86024
G0 F9000 X120 Y99.879
G1 F1125 X120 Y120.195 E18.48195
G0 F9000 X121.6 Y122.103
G1 F1125 X121.6 Y98.479 E20.36772
G0 F9000 X123.2 Y97.405
G1 F1125 X123.2 Y124.01 E22.49145
G0 F9000 X124.8 Y125.918
G1 F1125 X124.8 Y96.571 E24.83405
G0 F9000 X126.4 Y96.039
G1 F1125 X126.4 Y127.826 E27.37143
G0 F9000 X128 Y129.733
G1 F1125 X128 Y95.631 E30.0936
G0 F9000 X129.6 Y95.47
G1 F1125 X129.6 Y131.641 E32.98092
G0 F9000 X131.2 Y133.435
G1 F1125 X131.2 Y95.401 E36.01696
G0 F9000 X132.8 Y95.267
G1 F1125 X132.8 Y134.771 E39.17034
G0 F9000 X134.4 Y135.671
G1 F1125 X134.4 Y94.635 E42.44601
G0 F9000 X136 Y93.172
G1 F1125 X136 Y136.231 E45.88317
G0 F9000 X137.6 Y136.501
G1 F1125 X137.6 Y90.684 E49.54048
G0 F9000 X139.2 Y89.451
G1 F1125 X139.2 Y136.597 E53.30388
G0 F9000 X140.8 Y136.597
G1 F1125 X140.8 Y88.535 E57.14039
G0 F9000 X142.4 Y87.434
G1 F1125 X142.4 Y136.597 E61.0648
G0 F9000 X144 Y136.597
G1 F1125 X144 Y85.183 E65.16888
G0 F9000 X145.6 Y83.891
G1 F1125 X145.6 Y136.597 E69.37611
G0 F9000 X147.2 Y136.597
G1 F1125 X147.2 Y83.435 E73.61973
G0 F9000 X148.8 Y83.401
G1 F1125 X148.8 Y136.597 E77.86606
G0 F9000 X150.4 Y136.597
G1 F1125 X150.4 Y83.401 E82.1124
G0 F9000 X152 Y83.401
G1 F1125 X152 Y136.597 E86.35873
G0 F9000 X153.6 Y136.597
G1 F1125 X153.6 Y83.401 E90.60507
G0 F9000 X155.2 Y83.401
G1 F1125 X155.2 Y136.597 E94.8514
G0 F9000 X156.8 Y136.597
G1 F1125 X156.8 Y83.402 E99.09765
G0 F9000 X158.4 Y83.402
G1 F1125 X158.4 Y136.598 E103.34399
G0 F9000 X160 Y136.598
G1 F1125 X160 Y83.402 E107.59032
G0 F9000 X161.6 Y83.402
G1 F1125 X161.6 Y136.598 E111.83666
G0 F9000 X163.2 Y136.598
G1 F1125 X163.2 Y83.403 E116.08291
G0 F9000 X164.8 Y83.403
G1 F1125 X164.8 Y136.598 E120.32917
G0 F9000 X166.4 Y136.598
G1 F1125 X166.4 Y83.403 E124.57542
G0 F9000 X168 Y83.403
G1 F1125 X168 Y136.598 E128.82168
G0 F9000 X169.6 Y136.598
G1 F1125 X169.6 Y83.403 E133.06793
G0 F9000 X171.2 Y83.404
G1 F1125 X171.2 Y136.598 E137.31411
G0 F9000 X172.8 Y136.598
G1 F1125 X172.8 Y83.404 E141.56028
G0 F9000 X174.4 Y83.404
G1 F1125 X174.4 Y136.598 E145.80646
G0 F9000 X176 Y136.598
G1 F1125 X176 Y83.404 E150.05263
G0 F9000 X177.6 Y83.407
G1 F1125 X177.6 Y136.594 E154.29825
G0 F9000 X179.2 Y136.365
G1 F1125 X179.2 Y83.634 E158.50747
G0 F9000 X180.8 Y84.298
G1 F1125 X180.8 Y135.7 E162.6106
G0 F9000 X182.4 Y134.401
G1 F1125 X182.4 Y85.6 E166.5061
G0 F9000 X184 Y88.933
G1 F1125 X184 Y131.067 E169.86942
G1 F1500 E163.36942
G0 F9000 X185.049 Y131.247
G0 X184.798 Y132.306
G0 X184.32 Y133.481
G0 X183.57 Y134.665
G0 X182.711 Y135.604
G0 X181.739 Y136.371
G0 X180.384 Y137.089
G0 X179.025 Y137.504
G0 X177.434 Y137.663
G0 X138.257 Y137.639
G0 X136.274 Y137.4
G0 X134.288 Y136.776
G0 X133.239 Y136.28
G0 X131.468 Y135.137
G0 X129.713 Y133.432
G0 X118.15 Y119.604
G0 X117.529 Y118.715
G0 X118.4 Y118.105
G1 F1500 E169.86942
G1 F1125 X118.4 Y101.843 E171.16752
G0 F9000 X116.8 Y105.043
M104 S220
G1 F1125 X116.8 Y114.987 E171.9613
G1 F1500 E165.4613
G0 F300 X116.8 Y114.987 Z0.54
G0 F9000 X116.015 Y115.911
G0 X116.79 Y117.542
G0 X117.274 Y118.353
G0 X118.285 Y119.764
G0 X127.731 Y131.07
G0 X128.623 Y130.32
;TIME_ELAPSED:127.026940
;LAYER:-5
M140 S60
;TYPE:SUPPORT
G1 F1500 E171.9613
G1 F1125 X133.194 Y134.891 E172.76757
G1 X132.734 Y134.614 E172.83454
G1 X132.375 Y134.366 E172.88896
G1 X132.209 Y134.237 E172.91519
G1 X131.926 Y133.989 E172.96212
G1 X130.973 Y133.078 E173.12655
G1 X130.559 Y132.628 E173.20282
G0 F9000 X133.194 Y134.891
G1 F1125 X133.831 Y135.276 E173.29565
G1 X134.124 Y135.436 E173.33729
G1 X134.335 Y135.536 E173.36642
G1 X134.706 Y135.689 E173.41647
G1 X135.943 Y136.11 E173.57945
G1 X136.178 Y136.178 E173.60996
G1 X119.791 Y119.791 E176.50044
G1 X119.357 Y119.274 E176.58463
G1 X119.099 Y118.931 E176.63816
G1 X118.235 Y117.696 E176.82615
G1 X118.125 Y117.523 E176.85172
G1 X117.803 Y116.969 E176.93164
G1 X117.724 Y116.816 E176.95312
G1 X117.075 Y115.43 E177.144
G1 X117.038 Y115.341 E177.15602
G1 X138.159 Y136.462 E180.88152
G1 X138.189 Y136.465 E180.88528
G1 X138.71 Y136.497 E180.95039
G1 X139.891 Y136.497 E181.09769
G1 X116.315 Y112.921 E185.25623
G1 X116.292 Y112.814 E185.26988
G1 X116.19 Y112.24 E185.34259
G1 X116.159 Y112 E185.37277
G1 X116.068 Y110.977 E185.50087
G1 X141.588 Y136.497 E190.00231
G1 X143.285 Y136.497 E190.21396
G1 X116.051 Y109.263 E195.01773
G1 X116.206 Y107.721 E195.21102
G1 X144.982 Y136.497 E200.28678
G1 X146.679 Y136.497 E200.49844
G1 X116.511 Y106.329 E205.81973
G1 X116.904 Y105.025 E205.9896
G1 X148.376 Y136.497 E211.54089
G1 X150.073 Y136.497 E211.75255
G1 X117.409 Y103.832 E217.5142
G1 X118.001 Y102.728 E217.67044
G1 X151.77 Y136.497 E223.6269
G1 X153.467 Y136.497 E223.83856
G1 X118.644 Y101.674 E229.98094
G1 X118.739 Y101.552 E230.00023
G1 X119.407 Y100.74 E230.13137
G1 X155.164 Y136.497 E236.43849
G1 X156.861 Y136.497 E236.65015
G1 X120.187 Y99.822 E243.11911
G1 X120.273 Y99.731 E243.13473
G1 X120.413 Y99.595 E243.15907
G1 X120.594 Y99.436 E243.18912
G1 X121.09 Y99.028 E243.26923
G1 X158.559 Y136.497 E249.87833
G1 X160.256 Y136.497 E250.08999
G1 X122.021 Y98.262 E256.8342
G1 X122.12 Y98.187 E256.84969
G1 X122.446 Y97.949 E256.90004
G1 X122.643 Y97.822 E256.92927
G1 X122.868 Y97.695 E256.9615
G1 X123.052 Y97.596 E256.98756
G1 X161.953 Y136.497 E263.84924
G1 X163.65 Y136.497 E264.0609
G1 X124.16 Y97.007 E271.02649
G1 X124.589 Y96.777 E271.0872
G1 X124.959 Y96.607 E271.13798
G1 X125.164 Y96.526 E271.16548
G1 X125.323 Y96.473 E271.18638
G1 X165.347 Y136.497 E278.24615
G1 X167.044 Y136.497 E278.45781
G1 X126.624 Y96.077 E285.58744
G1 X127.26 Y95.884 E285.67033
G1 X127.678 Y95.784 E285.72394
G1 X127.897 Y95.745 E285.75169
G1 X127.979 Y95.735 E285.76199
G1 X168.741 Y136.497 E292.95194
G1 X170.438 Y136.497 E293.1636
G1 X129.52 Y95.578 E300.38115
G1 X130.101 Y95.521 E300.45396
G1 X130.582 Y95.501 E300.51401
G1 X131.139 Y95.501 E300.58348
G1 X172.135 Y136.497 E307.8147
G1 X173.833 Y136.497 E308.02649
G1 X132.719 Y95.384 E315.27843
G1 X133.018 Y95.327 E315.3164
G1 X133.679 Y95.109 E315.40321
G1 X133.993 Y94.961 E315.44651
G1 X175.53 Y136.497 E322.77307
G1 X177.227 Y136.497 E322.98473
G1 X135.043 Y94.313 E330.4255
G1 X135.427 Y93.99 E330.48808
G1 X135.9 Y93.482 E330.57466
G1 X135.903 Y93.477 E330.57539
G1 X178.789 Y136.362 E338.13989
G1 X178.796 Y136.362 E338.14077
G1 X179.061 Y136.299 E338.17474
G1 X179.405 Y136.2 E338.21939
G1 X179.578 Y136.143 E338.24211
G1 X179.813 Y136.058 E338.27328
G1 X180.076 Y135.952 E338.30864
G1 X136.567 Y92.444 E345.98304
G1 X136.813 Y91.923 E346.0549
G1 X136.958 Y91.66 E346.09236
G1 X137.107 Y91.428 E346.12675
G1 X137.166 Y91.346 E346.13935
G1 X181.168 Y135.348 E353.9008
G1 X181.432 Y135.164 E353.94093
G1 X181.625 Y135.011 E353.97165
G1 X181.917 Y134.75 E354.0205
G1 X182.048 Y134.622 E354.04334
G1 X182.094 Y134.576 E354.05146
G1 X137.988 Y90.47 E361.83125
G1 X138.119 Y90.361 E361.8525
G1 X138.239 Y90.27 E361.87129
G1 X138.962 Y89.747 E361.98259
G1 X182.863 Y133.648 E369.72622
G1 X182.876 Y133.63 E369.72899
G1 X183.117 Y133.246 E369.78553
G1 X183.285 Y132.941 E369.82896
G1 X183.39 Y132.724 E369.85903
G1 X183.463 Y132.551 E369.88245
G1 X139.962 Y89.05 E377.55553
G1 X139.968 Y89.045 E377.5565
G1 X140.216 Y88.91 E377.59172
G1 X140.489 Y88.781 E377.62938
G1 X140.632 Y88.724 E377.64858
G1 X141.108 Y88.5 E377.71419
G1 X183.864 Y131.255 E385.25577
G1 X183.914 Y130.968 E385.29211
G1 X183.963 Y130.565 E385.34274
G1 X183.995 Y130.06 E385.40585
G1 X183.996 Y129.69 E385.452
G1 X142.124 Y87.818 E392.83774
G1 X142.367 Y87.616 E392.87716
G1 X142.841 Y87.108 E392.96381
G1 X142.954 Y86.951 E392.98794
G1 X183.996 Y127.993 E400.22728
G1 X183.996 Y126.296 E400.43894
G1 X143.606 Y85.906 E407.56327
G1 X143.639 Y85.847 E407.5717
G1 X143.783 Y85.62 E407.60523
G1 X143.971 Y85.368 E407.64444
G1 X144.261 Y85.031 E407.6999
G1 X144.341 Y84.944 E407.71464
G1 X183.996 Y124.599 E414.70932
G1 X183.996 Y122.902 E414.92098
G1 X145.278 Y84.184 E421.75039
G1 X145.497 Y84.055 E421.78209
G1 X145.736 Y83.932 E421.81562
G1 X146.013 Y83.814 E421.85317
G1 X146.257 Y83.726 E421.88552
G1 X146.46 Y83.669 E421.91182
G1 X183.996 Y121.205 E428.53274
G1 X183.996 Y119.508 E428.7444
G1 X147.988 Y83.5 E435.0958
G1 X149.686 Y83.5 E435.30758
G1 X183.996 Y117.811 E441.35956
G1 X183.996 Y116.114 E441.57122
G1 X151.383 Y83.5 E447.32386
G1 X153.08 Y83.501 E447.53552
G1 X183.996 Y114.417 E452.98875
G1 X183.996 Y112.72 E453.20041
G1 X154.777 Y83.501 E458.35431
G1 X156.474 Y83.501 E458.56597
G1 X183.996 Y111.023 E463.42053
G1 X183.997 Y109.327 E463.63206
G1 X158.172 Y83.502 E468.1873
G1 X159.869 Y83.502 E468.39896
G1 X183.997 Y107.63 E472.65486
G1 X183.997 Y105.933 E472.86652
G1 X161.566 Y83.502 E476.82309
G1 X163.264 Y83.502 E477.03487
G1 X183.997 Y104.236 E480.69202
G1 X183.997 Y102.538 E480.90381
G1 X164.961 Y83.502 E484.26154
G1 X166.658 Y83.502 E484.4732
G1 X183.997 Y100.841 E487.5316
G1 X183.998 Y99.145 E487.74313
G1 X168.356 Y83.503 E490.5022
G1 X170.053 Y83.503 E490.71386
G1 X183.998 Y97.448 E493.1736
G1 X183.998 Y95.751 E493.38526
G1 X171.75 Y83.503 E495.54566
G1 X173.448 Y83.504 E495.75745
G1 X183.998 Y94.054 E497.61835
G1 X183.998 Y92.357 E497.83001
G1 X175.145 Y83.504 E499.39157
G1 X176.842 Y83.504 E499.60323
G1 X183.998 Y90.66 E500.86547
G1 X183.998 Y90.074 E500.93856
G1 X183.969 Y89.518 E501.008
G1 X183.955 Y89.357 E501.02816
G1 X183.924 Y89.099 E501.06057
G1 X183.884 Y88.849 E501.09214
G1 X178.651 Y83.616 E502.01519
G1 X178.873 Y83.654 E502.04328
G1 X179.114 Y83.711 E502.07416
G1 X179.434 Y83.807 E502.11583
G1 X179.873 Y83.962 E502.1739
