;FLAVOR:Marlin
;TIME:14868
;Filament used: 11.7438m
;Layer height: 0.2
;MINX:54.446
;MINY:75.171
;MINZ:0.24
;MAXX:185.164
;MAXY:137.663
;MAXZ:33.09
;Generated with Cura_SteamEngine 4.5.0
M82 ;absolute extrusion mode
M201 X500.00 Y500.00 Z100.00 E5000.00 ;Setup machine max acceleration
M203 X500.00 Y500.00 Z10.00 E50.00 ;Setup machine max feedrate
M204 P500.00 R1000.00 T500.00 ;Setup Print/Retract/Travel acceleration
M205 X8.00 Y8.00 Z0.40 E5.00 ;Setup Jerk
M220 S100 ;Reset Feedrate
M221 S100 ;Reset Flowrate

G28 ;Home

G92 E0 ;Reset Extruder
M117 Getting the bed & Extruder up to temp!
M140 S60   ; Set Heat Bed temperature
M104 S220.0 ; Set Extruder temperature
M190 S60 ; Wait for Heat Bed temperature
M109 S220.0 ; Wait for Extruder temperature
M117 Bed & Extruder up to temp!

G1 Z2.0 F3000 ;Move Z Axis up
G1 X10.1 Y20 Z0.28 F5000.0 ;Move to start position
G1 X10.1 Y200.0 Z0.28 F1500.0 E15 ;Draw the first line
G1 X10.4 Y200.0 Z0.28 F5000.0 ;Move to side a little
G1 X10.4 Y20 Z0.28 F1500.0 E30 ;Draw the second line
G92 E0 ;Reset Extruder
G1 Z2.0 F3000 ;Move Z Axis up
G92 E0
G92 E0
G1 F1500 E-6.5
;LAYER_COUNT:160
;LAYER:-6
M107
G0 F9000 X62.18 Y97.318 Z0.24
;TYPE:SUPPORT-INTERFACE
G1 F1500 E0
G1 F1125 X62.363 Y97.212 E0.01688
G1 X64.104 Y96.281 E0.17448
G1 X64.504 Y96.097 E0.20962
G1 X64.718 Y96.013 E0.22798
G1 X64.975 Y95.928 E0.24958
G1 X66.834 Y95.364 E0.40466
G1 X67.246 Y95.266 E0.43846
G1 X67.474 Y95.224 E0.45697
G1 X67.753 Y95.19 E0.4794
G1 X69.684 Y95.001 E0.63428
G1 X70.17 Y94.98 E0.67311
G1 X70.342 Y94.98 E0.68684
G1 X71.01 Y94.938 E0.74027
G1 X71.681 Y94.809 E0.79481
G1 X72.33 Y94.596 E0.84934
G1 X72.947 Y94.304 E0.90383
G1 X73.522 Y93.936 E0.95832
G1 X74.046 Y93.498 E1.01284
G1 X74.51 Y92.998 E1.06729
G1 X74.909 Y92.442 E1.12191
G1 X75.234 Y91.84 E1.17652
G1 X75.349 Y91.533 E1.20269
G1 X75.368 Y91.538 E1.20426
G1 X75.999 Y89.598 E1.36711
G1 X76.068 Y89.408 E1.38324
G1 X76.202 Y89.069 E1.41234
G1 X76.314 Y88.834 E1.43312
G1 X76.462 Y88.565 E1.45763
G1 X76.61 Y88.333 E1.47959
G1 X76.783 Y88.096 E1.50302
G1 X76.974 Y87.866 E1.52688
G1 X77.172 Y87.656 E1.54992
G1 X77.396 Y87.448 E1.57432
G1 X77.649 Y87.239 E1.60052
G1 X77.761 Y87.153 E1.61179
G1 X79.181 Y86.124 E1.75177
G1 X79.519 Y85.909 E1.78375
G1 X79.76 Y85.776 E1.80572
G1 X80.028 Y85.651 E1.82933
G1 X80.304 Y85.542 E1.85301
G1 X80.568 Y85.456 E1.87518
G1 X80.861 Y85.381 E1.89932
G1 X81.133 Y85.33 E1.92141
G1 X81.478 Y85.287 E1.94916
G1 X82.138 Y85.163 E2.00277
G1 X82.787 Y84.954 E2.05719
G1 X83.405 Y84.663 E2.11172
G1 X83.979 Y84.3 E2.16593
G1 X84.185 Y84.136 E2.18695
G1 X84.539 Y83.861 E2.22273
G1 X84.768 Y83.706 E2.24481
G1 X85.036 Y83.548 E2.26964
G1 X85.293 Y83.418 E2.29263
G1 X85.563 Y83.302 E2.31609
G1 X85.819 Y83.21 E2.3378
G1 X86.111 Y83.126 E2.36206
G1 X86.372 Y83.07 E2.38337
G1 X86.692 Y83.022 E2.4092
G1 X87.16 Y82.986 E2.44666
G1 X87.352 Y82.979 E2.462
G1 X93.473 Y82.979 E2.95061
G1 X94.141 Y82.937 E3.00403
G1 X94.812 Y82.808 E3.05858
G1 X95.461 Y82.595 E3.1131
G1 X96.078 Y82.303 E3.16759
G1 X96.653 Y81.935 E3.22208
G1 X97.177 Y81.497 E3.2766
G1 X97.641 Y80.997 E3.33105
G1 X98.043 Y80.437 E3.38608
G1 X98.153 Y80.22 E3.4055
G1 X98.177 Y80.232 E3.40764
G1 X98.551 Y79.441 E3.47748
G1 X98.691 Y79.187 E3.50063
G1 X98.839 Y78.955 E3.5226
G1 X99.012 Y78.718 E3.54602
G1 X99.207 Y78.484 E3.57034
G1 X99.401 Y78.278 E3.59293
G1 X99.625 Y78.07 E3.61733
G1 X99.878 Y77.861 E3.64352
G1 X99.99 Y77.775 E3.65479
G1 X101.405 Y76.749 E3.79431
G1 X101.748 Y76.531 E3.82675
G1 X101.989 Y76.398 E3.84873
G1 X102.257 Y76.273 E3.87233
G1 X102.533 Y76.164 E3.89602
G1 X102.797 Y76.078 E3.91818
G1 X103.09 Y76.003 E3.94233
G1 X103.371 Y75.95 E3.96515
G1 X103.662 Y75.914 E3.98856
G1 X104.161 Y75.888 E4.02844
G1 X105.908 Y75.892 E4.1679
G1 X106.285 Y75.916 E4.19805
G1 X106.583 Y75.953 E4.22202
G1 X106.867 Y76.008 E4.24511
G1 X107.158 Y76.084 E4.26912
G1 X107.416 Y76.168 E4.29078
G1 X107.695 Y76.279 E4.31475
G1 X107.953 Y76.401 E4.33753
G1 X108.209 Y76.543 E4.3609
G1 X108.632 Y76.817 E4.40113
G1 X110.043 Y77.849 E4.54067
G1 X110.347 Y78.101 E4.57219
G1 X110.55 Y78.294 E4.59455
G1 X110.742 Y78.499 E4.61697
G1 X110.934 Y78.731 E4.64101
G1 X111.093 Y78.95 E4.66261
G1 X111.259 Y79.213 E4.68744
G1 X111.41 Y79.491 E4.71269
G1 X111.591 Y79.878 E4.7468
G1 X111.912 Y80.466 E4.80027
G1 X112.313 Y81.018 E4.85473
G1 X112.781 Y81.516 E4.90929
G1 X113.307 Y81.951 E4.96377
G1 X113.884 Y82.317 E5.01832
G1 X114.503 Y82.606 E5.07285
G1 X115.153 Y82.815 E5.12735
G1 X115.823 Y82.94 E5.18175
G1 X116.465 Y82.979 E5.2331
G1 X117.151 Y82.983 E5.28786
G1 X117.536 Y83.004 E5.31863
G1 X118.084 Y83.067 E5.36267
G1 X118.465 Y83.133 E5.39353
G1 X118.738 Y83.196 E5.4159
G1 X119.096 Y83.305 E5.44577
G1 X119.348 Y83.391 E5.46702
G1 X119.495 Y83.447 E5.47958
G1 X119.867 Y83.601 E5.51172
G1 X120.092 Y83.709 E5.53164
G1 X120.421 Y83.896 E5.56185
G1 X120.795 Y84.133 E5.59719
G1 X121.12 Y84.363 E5.62898
G1 X121.329 Y84.53 E5.65033
G1 X121.571 Y84.75 E5.67644
G1 X121.853 Y85.029 E5.7081
G1 X122.346 Y85.484 E5.76166
G1 X122.902 Y85.88 E5.81614
G1 X123.504 Y86.203 E5.87068
G1 X124.142 Y86.448 E5.92523
G1 X124.805 Y86.61 E5.97971
G1 X125.483 Y86.686 E6.03417
G1 X126.166 Y86.677 E6.0887
G1 X126.84 Y86.582 E6.14303
G1 X127.402 Y86.434 E6.18942
G1 X127.603 Y86.368 E6.20631
G1 X127.915 Y86.289 E6.232
G1 X128.185 Y86.238 E6.25393
G1 X128.476 Y86.202 E6.27734
G1 X128.975 Y86.176 E6.31723
G1 X130.722 Y86.18 E6.45668
G1 X131.099 Y86.204 E6.48683
G1 X131.397 Y86.241 E6.5108
G1 X131.681 Y86.296 E6.5339
G1 X131.972 Y86.372 E6.5579
G1 X132.23 Y86.456 E6.57956
G1 X132.509 Y86.567 E6.60353
G1 X133.235 Y86.911 E6.66766
G1 X133.233 Y86.918 E6.66824
G1 X133.3 Y86.942 E6.67392
G1 X134.053 Y87.187 E6.73713
G1 X134.325 Y87.295 E6.76049
G1 X134.583 Y87.417 E6.78327
G1 X134.839 Y87.559 E6.80664
G1 X135.261 Y87.833 E6.84681
G1 X135.439 Y87.963 E6.8644
G1 X136.005 Y88.321 E6.91786
G1 X136.623 Y88.612 E6.97239
G1 X137.273 Y88.821 E7.02689
G1 X137.944 Y88.948 E7.0814
G1 X138.625 Y88.989 E7.13586
G1 X139.307 Y88.943 E7.19042
G1 X139.977 Y88.812 E7.24492
G1 X140.625 Y88.597 E7.29942
G1 X141.241 Y88.302 E7.35394
G1 X141.814 Y87.931 E7.40843
G1 X142.337 Y87.492 E7.46293
G1 X142.799 Y86.991 E7.51733
G1 X143.112 Y86.55 E7.5605
G1 X143.13 Y86.561 E7.56219
G1 X143.556 Y85.793 E7.63229
G1 X143.698 Y85.571 E7.65333
G1 X143.894 Y85.307 E7.67957
G1 X144.198 Y84.953 E7.71682
G1 X144.331 Y84.809 E7.73247
G1 X144.438 Y84.709 E7.74416
G1 X144.733 Y84.45 E7.77549
G1 X144.948 Y84.283 E7.79723
G1 X145.179 Y84.127 E7.81948
G1 X145.447 Y83.969 E7.84431
G1 X145.704 Y83.839 E7.8673
G1 X145.974 Y83.723 E7.89076
G1 X146.23 Y83.631 E7.91247
G1 X146.522 Y83.547 E7.93673
G1 X146.783 Y83.491 E7.95804
G1 X147.103 Y83.443 E7.98386
G1 X147.571 Y83.407 E8.02133
G1 X147.763 Y83.4 E8.03667
G1 X177.562 Y83.404 E10.41535
G1 X177.947 Y83.425 E10.44613
G1 X178.358 Y83.468 E10.47912
G1 X178.495 Y83.488 E10.49017
G1 X178.898 Y83.558 E10.52282
G1 X179.122 Y83.61 E10.54118
G1 X179.467 Y83.712 E10.5699
G1 X179.897 Y83.864 E10.6063
G1 X180.287 Y84.027 E10.64004
G1 X180.488 Y84.124 E10.65786
G1 X180.806 Y84.301 E10.68691
G1 X181.198 Y84.549 E10.72394
G1 X181.521 Y84.777 E10.7555
G1 X181.71 Y84.928 E10.77481
G1 X182.015 Y85.203 E10.80759
G1 X182.319 Y85.509 E10.84202
G1 X182.58 Y85.8 E10.87322
G1 X182.755 Y86.02 E10.89566
G1 X182.977 Y86.339 E10.92669
G1 X183.21 Y86.716 E10.96206
G1 X183.401 Y87.065 E10.99382
G1 X183.504 Y87.28 E11.01285
G1 X183.651 Y87.645 E11.04426
G1 X183.739 Y87.89 E11.06504
G1 X183.795 Y88.063 E11.07956
G1 X183.895 Y88.406 E11.10808
G1 X183.962 Y88.695 E11.13176
G1 X184.024 Y89.087 E11.16344
G1 X184.055 Y89.348 E11.18442
G1 X184.07 Y89.522 E11.19836
G1 X184.099 Y90.075 E11.24256
G1 X184.096 Y130.062 E14.4345
G1 X184.063 Y130.577 E14.47569
G1 X184.014 Y130.986 E14.50857
G1 X183.942 Y131.398 E14.54196
G1 X183.89 Y131.622 E14.56032
G1 X183.788 Y131.967 E14.58903
G1 X183.64 Y132.386 E14.6245
G1 X183.474 Y132.785 E14.659
G1 X183.379 Y132.983 E14.67653
G1 X183.205 Y133.295 E14.70505
G1 X183.028 Y133.583 E14.73203
G1 X182.951 Y133.698 E14.74308
G1 X182.723 Y134.021 E14.77464
G1 X182.572 Y134.21 E14.79395
G1 X182.294 Y134.518 E14.82707
G1 X181.982 Y134.827 E14.86212
G1 X181.694 Y135.085 E14.89299
G1 X181.483 Y135.253 E14.91452
G1 X181.153 Y135.482 E14.94658
G1 X180.929 Y135.624 E14.96775
G1 X180.772 Y135.716 E14.98228
G1 X180.445 Y135.896 E15.01207
G1 X180.224 Y136.002 E15.03164
G1 X179.848 Y136.153 E15.06398
G1 X179.61 Y136.239 E15.08418
G1 X179.437 Y136.295 E15.0987
G1 X179.094 Y136.395 E15.12722
G1 X178.804 Y136.462 E15.15098
G1 X178.413 Y136.524 E15.18258
G1 X178.152 Y136.555 E15.20356
G1 X177.978 Y136.57 E15.2175
G1 X177.591 Y136.594 E15.24845
G1 X177.414 Y136.599 E15.26258
G1 X138.708 Y136.597 E18.35226
G1 X138.334 Y136.578 E18.38216
G1 X138.176 Y136.564 E18.39482
G1 X136.878 Y136.423 E18.49904
G1 X136.486 Y136.357 E18.53077
G1 X136.244 Y136.302 E18.55058
G1 X135.912 Y136.206 E18.57817
G1 X134.683 Y135.788 E18.68179
G1 X134.275 Y135.62 E18.71701
G1 X134.085 Y135.53 E18.7338
G1 X133.768 Y135.356 E18.76266
G1 X132.669 Y134.692 E18.86516
G1 X132.319 Y134.451 E18.89908
G1 X132.143 Y134.314 E18.91688
G1 X131.858 Y134.064 E18.94714
G1 X130.894 Y133.143 E19.05357
G1 X130.675 Y132.913 E19.07892
G1 X130.183 Y132.458 E19.13241
G1 X129.628 Y132.061 E19.18688
G1 X129.026 Y131.737 E19.24146
G1 X128.389 Y131.491 E19.29596
G1 X127.726 Y131.329 E19.35044
G1 X127.048 Y131.252 E19.40491
G1 X126.365 Y131.259 E19.45944
G1 X125.689 Y131.354 E19.51393
G1 X125.03 Y131.533 E19.56844
G1 X124.399 Y131.794 E19.62295
G1 X123.806 Y132.132 E19.67743
G1 X123.26 Y132.542 E19.73194
G1 X122.771 Y133.017 E19.78635
G1 X122.374 Y133.511 E19.83694
G1 X122.305 Y133.609 E19.84651
G1 X122.152 Y133.8 E19.86604
G1 X121.884 Y134.096 E19.89792
G1 X121.571 Y134.406 E19.93308
G1 X121.283 Y134.664 E19.96395
G1 X121.075 Y134.829 E19.98514
G1 X120.74 Y135.063 E20.01776
G1 X120.518 Y135.203 E20.03871
G1 X120.361 Y135.295 E20.05324
G1 X120.034 Y135.475 E20.08303
G1 X119.801 Y135.586 E20.10363
G1 X119.586 Y135.676 E20.12224
G1 X119.199 Y135.818 E20.15515
G1 X119.026 Y135.874 E20.16966
G1 X118.683 Y135.974 E20.19818
G1 X118.393 Y136.041 E20.22194
G1 X118.002 Y136.103 E20.25354
G1 X117.741 Y136.134 E20.27452
G1 X117.567 Y136.149 E20.28846
G1 X117.18 Y136.173 E20.31941
G1 X117.003 Y136.178 E20.33355
G1 X78.297 Y136.176 E23.42323
G1 X77.923 Y136.157 E23.45312
G1 X77.765 Y136.143 E23.46578
G1 X76.467 Y136.002 E23.57
G1 X76.076 Y135.936 E23.60166
G1 X75.834 Y135.881 E23.62147
G1 X75.502 Y135.785 E23.64905
G1 X74.273 Y135.367 E23.75268
G1 X73.865 Y135.199 E23.7879
G1 X73.675 Y135.109 E23.80468
G1 X73.37 Y134.942 E23.83244
G1 X72.268 Y134.277 E23.93518
G1 X71.912 Y134.031 E23.96972
G1 X71.723 Y133.884 E23.98883
G1 X71.462 Y133.657 E24.01645
G1 X70.496 Y132.735 E24.12304
G1 X70.07 Y132.271 E24.17332
G1 X58.869 Y118.916 E25.56469
G1 X58.607 Y118.568 E25.59946
G1 X57.74 Y117.328 E25.72024
G1 X57.62 Y117.141 E25.73798
G1 X57.314 Y116.612 E25.78676
G1 X57.222 Y116.435 E25.80268
G1 X56.586 Y115.077 E25.92238
G1 X56.5 Y114.868 E25.94043
G1 X56.284 Y114.279 E25.9905
G1 X56.217 Y114.068 E26.00818
G1 X55.838 Y112.658 E26.12472
G1 X55.786 Y112.422 E26.14401
G1 X55.677 Y111.809 E26.19371
G1 X55.65 Y111.612 E26.20959
G1 X55.519 Y110.125 E26.32874
G1 X55.51 Y109.898 E26.34688
G1 X55.513 Y109.219 E26.40108
G1 X55.523 Y109.025 E26.41659
G1 X55.712 Y107.139 E26.56789
G1 X55.781 Y106.713 E26.60234
G1 X55.823 Y106.513 E26.61865
G1 X55.889 Y106.268 E26.6389
G1 X56.465 Y104.376 E26.79678
G1 X56.614 Y103.978 E26.8307
G1 X56.699 Y103.779 E26.84797
G1 X56.803 Y103.57 E26.86661
G1 X57.744 Y101.816 E27.0255
G1 X57.956 Y101.472 E27.05775
G1 X58.079 Y101.292 E27.07515
G1 X58.232 Y101.093 E27.09519
G1 X59.476 Y99.578 E27.25167
G1 X59.788 Y99.244 E27.28815
G1 X59.934 Y99.103 E27.30436
G1 X60.1 Y98.956 E27.32206
G1 X61.527 Y97.782 E27.46956
G1 X61.659 Y97.681 E27.48283
G1 X61.992 Y97.441 E27.51559
G1 X62.18 Y97.318 E27.53353
G0 F9000 X62.4 Y97.192
G1 F1125 X62.4 Y123.126 E29.60369
G0 F9000 X64 Y125.033
G1 F1125 X64 Y96.336 E31.89441
G0 F9000 X65.6 Y95.738
G1 F1125 X65.6 Y126.941 E34.38517
G0 F9000 X67.2 Y128.849
G1 F1125 X67.2 Y95.276 E37.06511
G0 F9000 X68.8 Y95.087
G1 F1125 X68.8 Y130.756 E39.91236
G0 F9000 X70.4 Y132.63
G1 F1125 X70.4 Y94.976 E42.91807
G0 F9000 X72 Y94.704
G1 F1125 X72 Y134.091 E46.06211
G0 F9000 X73.6 Y135.067
G1 F1125 X73.6 Y93.87 E49.35063
G0 F9000 X75.2 Y91.902
G1 F1125 X75.2 Y135.682 E52.84534
G0 F9000 X76.8 Y136.038
G1 F1125 X76.8 Y88.075 E56.67396
G0 F9000 X78.4 Y86.689
G1 F1125 X78.4 Y136.176 E60.62422
G0 F9000 X80 Y136.176
G1 F1125 X80 Y85.664 E64.65631
G0 F9000 X81.6 Y85.264
G1 F1125 X81.6 Y136.176 E68.72032
G0 F9000 X83.2 Y136.176
G1 F1125 X83.2 Y84.759 E72.82465
G0 F9000 X84.8 Y83.687
G1 F1125 X84.8 Y136.176 E77.01455
G0 F9000 X86.4 Y136.176
G1 F1125 X86.4 Y83.065 E81.2541
G0 F9000 X88 Y82.979
G1 F1125 X88 Y136.176 E85.50051
G0 F9000 X89.6 Y136.176
G1 F1125 X89.6 Y82.979 E89.74693
G0 F9000 X91.2 Y82.979
G1 F1125 X91.2 Y136.176 E93.99334
G0 F9000 X92.8 Y136.176
G1 F1125 X92.8 Y82.979 E98.23976
G0 F9000 X94.4 Y82.887
G1 F1125 X94.4 Y136.176 E102.49352
G0 F9000 X96 Y136.176
G1 F1125 X96 Y82.339 E106.79102
G0 F9000 X97.6 Y81.041
G1 F1125 X97.6 Y136.176 E111.19213
G0 F9000 X99.2 Y136.177
G1 F1125 X99.2 Y78.492 E115.7968
G0 F9000 X100.8 Y77.187
G1 F1125 X100.8 Y136.177 E120.50564
G0 F9000 X102.4 Y136.177
G1 F1125 X102.4 Y76.216 E125.29198
G0 F9000 X104 Y75.896
G1 F1125 X104 Y136.177 E130.10387
G0 F9000 X105.6 Y136.177
G1 F1125 X105.6 Y75.892 E134.91608
G0 F9000 X107.2 Y76.098
G1 F1125 X107.2 Y136.177 E139.71185
G0 F9000 X108.8 Y136.177
G1 F1125 X108.8 Y76.94 E144.4404
G0 F9000 X110.4 Y78.152
G1 F1125 X110.4 Y136.177 E149.07221
G0 F9000 X112 Y136.177
G1 F1125 X112 Y80.588 E153.50956
G0 F9000 X113.6 Y82.137
G1 F1125 X113.6 Y136.177 E157.82327
G0 F9000 X115.2 Y136.177
G1 F1125 X115.2 Y82.824 E162.08214
G0 F9000 X116.8 Y82.981
G1 F1125 X116.8 Y136.177 E166.32847
G0 F9000 X118.4 Y136.04
G1 F1125 X118.4 Y83.122 E170.55261
G0 F9000 X120 Y83.665
G1 F1125 X120 Y135.492 E174.68967
G0 F9000 X121.6 Y134.378
G1 F1125 X121.6 Y84.779 E178.64888
G0 F9000 X123.2 Y86.04
G1 F1125 X123.2 Y132.601 E182.36558
G0 F9000 X124.8 Y131.629
G1 F1125 X124.8 Y86.609 E185.95927
G0 F9000 X126.4 Y86.644
G1 F1125 X126.4 Y131.259 E189.52063
G0 F9000 X128 Y131.395
G1 F1125 X128 Y86.272 E193.12254
G0 F9000 X129.6 Y86.178
G1 F1125 X129.6 Y132.045 E196.78384
G0 F9000 X131.2 Y133.435
G1 F1125 X131.2 Y86.217 E200.55299
G0 F9000 X132.8 Y86.705
G1 F1125 X132.8 Y134.771 E204.38983
G0 F9000 X134.4 Y135.671
G1 F1125 X134.4 Y87.331 E208.24853
G0 F9000 X136 Y88.318
G1 F1125 X136 Y136.231 E212.07316
G0 F9000 X137.6 Y136.501
G1 F1125 X137.6 Y88.883 E215.87423
G0 F9000 X139.2 Y88.95
G1 F1125 X139.2 Y136.597 E219.67762
G0 F9000 X140.8 Y136.597
G1 F1125 X140.8 Y88.513 E223.51589
G0 F9000 X142.4 Y87.423
G1 F1125 X142.4 Y136.597 E227.44117
G0 F9000 X144 Y136.597
G1 F1125 X144 Y85.183 E231.54526
G0 F9000 X145.6 Y83.891
G1 F1125 X145.6 Y136.597 E235.75248
G0 F9000 X147.2 Y136.597
G1 F1125 X147.2 Y83.435 E239.9961
G0 F9000 X148.8 Y83.401
G1 F1125 X148.8 Y136.597 E244.24244
G0 F9000 X150.4 Y136.597
G1 F1125 X150.4 Y83.401 E248.48877
G0 F9000 X152 Y83.401
G1 F1125 X152 Y136.597 E252.73511
G0 F9000 X153.6 Y136.597
G1 F1125 X153.6 Y83.401 E256.98144
G0 F9000 X155.2 Y83.401
G1 F1125 X155.2 Y136.597 E261.22778
G0 F9000 X156.8 Y136.597
G1 F1125 X156.8 Y83.402 E265.47403
G0 F9000 X158.4 Y83.402
G1 F1125 X158.4 Y136.598 E269.72037
G0 F9000 X160 Y136.598
G1 F1125 X160 Y83.402 E273.9667
G0 F9000 X161.6 Y83.402
G1 F1125 X161.6 Y136.598 E278.21304
G0 F9000 X163.2 Y136.598
G1 F1125 X163.2 Y83.403 E282.45929
G0 F9000 X164.8 Y83.403
G1 F1125 X164.8 Y136.598 E286.70555
G0 F9000 X166.4 Y136.598
G1 F1125 X166.4 Y83.403 E290.9518
G0 F9000 X168 Y83.403
G1 F1125 X168 Y136.598 E295.19806
G0 F9000 X169.6 Y136.598
G1 F1125 X169.6 Y83.403 E299.44431
G0 F9000 X171.2 Y83.404
G1 F1125 X171.2 Y136.598 E303.69049
G0 F9000 X172.8 Y136.598
G1 F1125 X172.8 Y83.404 E307.93666
G0 F9000 X174.4 Y83.404
