;FLAVOR:Marlin
;TIME:16109
;Filament used: 13.3681m
;Layer height: 0.2
;MINX:114.857
;MINY:82.336
;MINZ:0.24
;MAXX:185.164
;MAXY:189.664
;MAXZ:33.09
;Generated with Cura_SteamEngine 4.5.0
M82 ;absolute extrusion mode
M201 X500.00 Y500.00 Z100.00 E5000.00 ;Setup machine max acceleration
M203 X500.00 Y500.00 Z10.00 E50.00 ;Setup machine max feedrate
M204 P500.00 R1000.00 T500.00 ;Setup Print/Retract/Travel acceleration
M205 X8.00 Y8.00 Z0.40 E5.00 ;Setup Jerk
M220 S100 ;Reset Feedrate
M221 S100 ;Reset Flowrate

G28 ;Home

G92 E0 ;Reset Extruder
M117 Getting the bed & Extruder up to temp!
M140 S60   ; Set Heat Bed temperature
M104 S220.0 ; Set Extruder temperature
M190 S60 ; Wait for Heat Bed temperature
M109 S220.0 ; Wait for Extruder temperature
M117 Bed & Extruder up to temp!

G1 Z2.0 F3000 ;Move Z Axis up
G1 X10.1 Y20 Z0.28 F5000.0 ;Move to start position
G1 X10.1 Y200.0 Z0.28 F1500.0 E15 ;Draw the first line
G1 X10.4 Y200.0 Z0.28 F5000.0 ;Move to side a little
G1 X10.4 Y20 Z0.28 F1500.0 E30 ;Draw the second line
G92 E0 ;Reset Extruder
G1 Z2.0 F3000 ;Move Z Axis up
G92 E0
G92 E0
G1 F1500 E-6.5
;LAYER_COUNT:160
;LAYER:-6
M107
G0 F9000 X119.904 Y99.983 Z0.24
;TYPE:SUPPORT-INTERFACE
G1 F1500 E0
G1 F1125 X120.202 Y99.663 E0.0349
G1 X120.342 Y99.526 E0.05054
G1 X120.532 Y99.36 E0.07068
G1 X121.936 Y98.203 E0.21591
G1 X122.052 Y98.114 E0.22758
G1 X122.394 Y97.866 E0.2613
G1 X122.59 Y97.739 E0.27994
G1 X122.828 Y97.604 E0.30178
G1 X124.531 Y96.694 E0.45591
G1 X124.931 Y96.512 E0.49099
G1 X125.133 Y96.431 E0.50837
G1 X125.383 Y96.348 E0.52939
G1 X127.245 Y95.784 E0.6847
G1 X127.658 Y95.686 E0.71858
G1 X127.874 Y95.647 E0.7361
G1 X128.161 Y95.611 E0.75919
G1 X130.095 Y95.422 E0.9143
G1 X130.581 Y95.401 E0.95313
G1 X131.655 Y95.401 E1.03887
G1 X132.323 Y95.359 E1.09229
G1 X132.994 Y95.23 E1.14684
G1 X133.643 Y95.017 E1.20136
G1 X134.26 Y94.725 E1.25585
G1 X134.835 Y94.357 E1.31034
G1 X135.359 Y93.919 E1.36486
G1 X135.823 Y93.419 E1.41931
G1 X136.225 Y92.859 E1.47434
G1 X136.335 Y92.642 E1.49376
G1 X136.359 Y92.654 E1.4959
G1 X136.733 Y91.863 E1.56574
G1 X136.873 Y91.609 E1.58889
G1 X137.021 Y91.377 E1.61086
G1 X137.194 Y91.14 E1.63428
G1 X137.385 Y90.91 E1.65815
G1 X137.583 Y90.7 E1.68119
G1 X137.807 Y90.492 E1.70559
G1 X138.06 Y90.283 E1.73178
G1 X138.179 Y90.192 E1.74374
G1 X139.587 Y89.171 E1.88257
G1 X139.93 Y88.953 E1.91502
G1 X140.177 Y88.817 E1.93752
G1 X140.442 Y88.693 E1.96088
G1 X140.593 Y88.633 E1.97385
G1 X141.199 Y88.347 E2.02734
G1 X141.774 Y87.98 E2.08179
G1 X142.299 Y87.543 E2.13632
G1 X142.765 Y87.044 E2.19082
G1 X143.136 Y86.529 E2.24148
G1 X143.145 Y86.534 E2.2423
G1 X143.559 Y85.788 E2.31041
G1 X143.696 Y85.573 E2.33076
G1 X143.894 Y85.307 E2.35723
G1 X144.198 Y84.953 E2.39448
G1 X144.331 Y84.809 E2.41012
G1 X144.438 Y84.709 E2.42181
G1 X144.733 Y84.45 E2.45315
G1 X144.948 Y84.283 E2.47488
G1 X145.179 Y84.127 E2.49713
G1 X145.447 Y83.969 E2.52197
G1 X145.704 Y83.839 E2.54496
G1 X145.974 Y83.723 E2.56841
G1 X146.23 Y83.631 E2.59013
G1 X146.522 Y83.547 E2.61438
G1 X146.783 Y83.491 E2.63569
G1 X147.103 Y83.443 E2.66152
G1 X147.571 Y83.407 E2.69899
G1 X147.763 Y83.4 E2.71432
G1 X177.562 Y83.404 E5.09301
G1 X177.947 Y83.425 E5.12379
G1 X178.358 Y83.468 E5.15677
G1 X178.495 Y83.488 E5.16783
G1 X178.898 Y83.558 E5.20048
G1 X179.122 Y83.61 E5.21883
G1 X179.467 Y83.712 E5.24755
G1 X179.897 Y83.864 E5.28396
G1 X180.287 Y84.027 E5.3177
G1 X180.488 Y84.124 E5.33551
G1 X180.806 Y84.301 E5.36457
G1 X181.198 Y84.549 E5.40159
G1 X181.521 Y84.777 E5.43315
G1 X181.71 Y84.928 E5.45246
G1 X182.015 Y85.203 E5.48524
G1 X182.319 Y85.509 E5.51968
G1 X182.585 Y85.806 E5.5515
G1 X182.739 Y85.999 E5.57121
G1 X182.977 Y86.339 E5.60434
G1 X183.21 Y86.716 E5.63972
G1 X183.399 Y87.061 E5.67112
G1 X183.504 Y87.28 E5.69051
G1 X183.651 Y87.645 E5.72192
G1 X183.739 Y87.89 E5.7427
G1 X183.795 Y88.063 E5.75721
G1 X183.895 Y88.406 E5.78573
G1 X183.962 Y88.695 E5.80941
G1 X184.023 Y89.076 E5.84021
G1 X184.055 Y89.348 E5.86207
G1 X184.07 Y89.522 E5.87602
G1 X184.094 Y89.909 E5.90697
G1 X184.099 Y90.075 E5.92022
G1 X184.096 Y130.062 E9.11216
G1 X184.063 Y130.577 E9.15335
G1 X184.014 Y130.986 E9.18623
G1 X183.942 Y131.398 E9.21962
G1 X183.89 Y131.622 E9.23798
G1 X183.788 Y131.967 E9.26669
G1 X183.636 Y132.397 E9.3031
G1 X183.474 Y132.785 E9.33666
G1 X183.379 Y132.983 E9.35419
G1 X183.2 Y133.304 E9.38353
G1 X182.901 Y133.904 E9.43704
G1 X182.676 Y134.549 E9.49157
G1 X182.534 Y135.217 E9.54609
G1 X182.478 Y135.897 E9.60055
G1 X182.509 Y136.58 E9.65513
G1 X182.624 Y137.253 E9.70963
G1 X182.825 Y137.908 E9.76432
G1 X182.989 Y138.257 E9.7951
G1 X182.964 Y138.269 E9.79731
G1 X183.403 Y139.069 E9.87016
G1 X183.508 Y139.289 E9.88962
G1 X183.651 Y139.645 E9.92024
G1 X183.739 Y139.89 E9.94102
G1 X183.795 Y140.063 E9.95554
G1 X183.895 Y140.406 E9.98405
G1 X183.962 Y140.695 E10.00774
G1 X184.021 Y141.065 E10.03764
G1 X184.055 Y141.348 E10.0604
G1 X184.07 Y141.522 E10.07434
G1 X184.094 Y141.909 E10.10529
G1 X184.099 Y142.075 E10.11855
G1 X184.096 Y182.062 E13.31048
G1 X184.063 Y182.577 E13.35168
G1 X184.014 Y182.986 E13.38456
G1 X183.942 Y183.398 E13.41794
G1 X183.89 Y183.622 E13.4363
G1 X183.788 Y183.967 E13.46502
G1 X183.636 Y184.397 E13.50142
G1 X183.474 Y184.785 E13.53499
G1 X183.379 Y184.983 E13.55252
G1 X183.205 Y185.295 E13.58103
G1 X183.028 Y185.583 E13.60802
G1 X182.951 Y185.698 E13.61906
G1 X182.723 Y186.021 E13.65062
G1 X182.572 Y186.21 E13.66993
G1 X182.294 Y186.518 E13.70305
G1 X181.982 Y186.827 E13.73811
G1 X181.694 Y187.085 E13.76897
G1 X181.483 Y187.253 E13.7905
G1 X181.278 Y187.398 E13.81054
G1 X181.151 Y187.484 E13.82279
G1 X180.929 Y187.624 E13.84374
G1 X180.772 Y187.716 E13.85826
G1 X180.445 Y187.896 E13.88806
G1 X180.212 Y188.007 E13.90866
G1 X179.997 Y188.097 E13.92727
G1 X179.61 Y188.239 E13.96017
G1 X179.437 Y188.295 E13.97469
G1 X179.094 Y188.395 E14.00321
G1 X178.804 Y188.462 E14.02697
G1 X178.413 Y188.524 E14.05857
G1 X178.152 Y188.555 E14.07955
G1 X177.978 Y188.57 E14.09349
G1 X177.591 Y188.594 E14.12444
G1 X177.414 Y188.599 E14.13858
G1 X138.708 Y188.597 E17.22826
G1 X138.334 Y188.578 E17.25815
G1 X138.176 Y188.564 E17.27081
G1 X136.878 Y188.423 E17.37503
G1 X136.486 Y188.357 E17.40676
G1 X136.244 Y188.302 E17.42657
G1 X135.912 Y188.206 E17.45416
G1 X134.683 Y187.788 E17.55778
G1 X134.275 Y187.62 E17.593
G1 X134.085 Y187.53 E17.60979
G1 X133.78 Y187.363 E17.63754
G1 X132.669 Y186.692 E17.74115
G1 X132.319 Y186.451 E17.77507
G1 X132.143 Y186.314 E17.79287
G1 X131.858 Y186.064 E17.82314
G1 X130.902 Y185.151 E17.92866
G1 X130.481 Y184.692 E17.97838
G1 X119.28 Y171.337 E19.36974
G1 X119.019 Y170.989 E19.40447
G1 X118.154 Y169.754 E19.52483
G1 X118.039 Y169.574 E19.54188
G1 X117.718 Y169.02 E19.59299
G1 X117.635 Y168.861 E19.6073
G1 X116.993 Y167.49 E19.72815
G1 X116.907 Y167.282 E19.74611
G1 X116.693 Y166.693 E19.79614
G1 X116.63 Y166.495 E19.81272
G1 X116.25 Y165.082 E19.92952
G1 X116.196 Y164.837 E19.94955
G1 X116.092 Y164.254 E19.99682
G1 X116.061 Y164.012 E20.0163
G1 X115.931 Y162.549 E20.13354
G1 X115.921 Y162.322 E20.15168
G1 X115.925 Y161.655 E20.20492
G1 X115.936 Y161.428 E20.22306
G1 X116.123 Y159.56 E20.37292
G1 X116.193 Y159.129 E20.40778
G1 X116.233 Y158.939 E20.42327
G1 X116.301 Y158.684 E20.44434
G1 X116.873 Y156.803 E20.60128
G1 X117.016 Y156.421 E20.63384
G1 X117.112 Y156.197 E20.65329
G1 X117.235 Y155.95 E20.67532
G1 X118.145 Y154.251 E20.82917
G1 X118.368 Y153.89 E20.86304
G1 X118.491 Y153.712 E20.88031
G1 X118.662 Y153.49 E20.90268
G1 X119.904 Y151.983 E21.05856
G1 X120.202 Y151.663 E21.09347
G1 X120.342 Y151.526 E21.10911
G1 X120.532 Y151.36 E21.12924
G1 X121.936 Y150.203 E21.27447
G1 X122.052 Y150.114 E21.28614
G1 X122.394 Y149.866 E21.31986
G1 X122.59 Y149.739 E21.33851
G1 X122.828 Y149.604 E21.36035
G1 X124.531 Y148.694 E21.51448
G1 X124.931 Y148.512 E21.54956
G1 X125.133 Y148.431 E21.56693
G1 X125.383 Y148.348 E21.58796
G1 X127.245 Y147.784 E21.74326
G1 X127.658 Y147.686 E21.77714
G1 X127.874 Y147.647 E21.79466
G1 X128.161 Y147.611 E21.81775
G1 X130.095 Y147.422 E21.97287
G1 X130.581 Y147.401 E22.0117
G1 X131.889 Y147.401 E22.11611
G1 X132.557 Y147.359 E22.16954
G1 X133.228 Y147.23 E22.22408
G1 X133.877 Y147.017 E22.2786
G1 X134.494 Y146.725 E22.33309
G1 X135.069 Y146.357 E22.38759
G1 X135.593 Y145.919 E22.4421
G1 X136.057 Y145.419 E22.49655
G1 X136.456 Y144.863 E22.55118
G1 X136.78 Y144.263 E22.60561
G1 X137.026 Y143.627 E22.66005
G1 X137.19 Y142.963 E22.71464
G1 X137.269 Y142.285 E22.76913
G1 X137.262 Y141.602 E22.82365
G1 X137.169 Y140.926 E22.87812
G1 X137.013 Y140.35 E22.92576
G1 X137.026 Y140.344 E22.9269
G1 X136.709 Y139.538 E22.99604
G1 X136.649 Y139.37 E23.01028
G1 X136.342 Y138.43 E23.08921
G1 X136.095 Y137.808 E23.14263
G1 X135.765 Y137.209 E23.19722
G1 X135.362 Y136.658 E23.25172
G1 X134.892 Y136.163 E23.3062
G1 X134.366 Y135.731 E23.36054
G1 X133.889 Y135.425 E23.40577
G1 X133.755 Y135.348 E23.41811
G1 X132.669 Y134.692 E23.51939
G1 X132.319 Y134.451 E23.55331
G1 X132.143 Y134.314 E23.57111
G1 X131.858 Y134.064 E23.60138
G1 X130.902 Y133.151 E23.7069
G1 X130.481 Y132.692 E23.75662
G1 X119.28 Y119.337 E25.14798
G1 X119.019 Y118.989 E25.18271
G1 X118.154 Y117.754 E25.30307
G1 X118.039 Y117.574 E25.32012
G1 X117.718 Y117.02 E25.37123
G1 X117.635 Y116.861 E25.38554
G1 X116.993 Y115.49 E25.50639
G1 X116.907 Y115.282 E25.52435
G1 X116.693 Y114.693 E25.57438
G1 X116.63 Y114.495 E25.59096
G1 X116.25 Y113.082 E25.70776
G1 X116.196 Y112.837 E25.72779
G1 X116.092 Y112.254 E25.77506
G1 X116.061 Y112.012 E25.79454
G1 X115.931 Y110.549 E25.91178
G1 X115.921 Y110.322 E25.92992
G1 X115.925 Y109.655 E25.98316
G1 X115.936 Y109.428 E26.0013
G1 X116.123 Y107.56 E26.15116
G1 X116.193 Y107.129 E26.18602
G1 X116.233 Y106.939 E26.20152
G1 X116.301 Y106.684 E26.22258
G1 X116.873 Y104.803 E26.37952
G1 X117.016 Y104.421 E26.41208
G1 X117.112 Y104.197 E26.43153
G1 X117.235 Y103.95 E26.45356
G1 X118.145 Y102.251 E26.60741
G1 X118.368 Y101.89 E26.64128
G1 X118.491 Y101.712 E26.65855
G1 X118.662 Y101.49 E26.68092
G1 X119.904 Y99.983 E26.8368
G0 F9000 X120 Y99.879
G1 F1125 X120 Y120.195 E28.45852
G0 F9000 X121.6 Y122.103
G1 F1125 X121.6 Y98.479 E30.34429
G0 F9000 X123.2 Y97.405
G1 F1125 X123.2 Y124.01 E32.46801
G0 F9000 X124.8 Y125.918
G1 F1125 X124.8 Y96.571 E34.81062
G0 F9000 X126.4 Y96.039
G1 F1125 X126.4 Y127.826 E37.34799
G0 F9000 X128 Y129.733
G1 F1125 X128 Y95.631 E40.07016
G0 F9000 X129.6 Y95.47
G1 F1125 X129.6 Y131.641 E42.95749
G0 F9000 X131.2 Y133.435
G1 F1125 X131.2 Y95.401 E45.99352
G0 F9000 X132.8 Y95.267
G1 F1125 X132.8 Y134.771 E49.1469
G0 F9000 X134.4 Y135.758
G1 F1125 X134.4 Y94.635 E52.42952
G0 F9000 X136 Y93.172
G1 F1125 X136 Y137.635 E55.97875
G1 F1500 E49.47875
G0 F9000 X135.129 Y138.261
G0 X135.232 Y144.744
G0 X136 Y145.48
G1 F1500 E55.97875
G1 F1125 X136 Y188.231 E59.39132
G0 F9000 X137.6 Y188.501
G1 F1125 X137.6 Y90.684 E67.1995
G0 F9000 X139.2 Y89.451
G1 F1125 X139.2 Y188.597 E75.11376
G0 F9000 X140.8 Y188.597
G1 F1125 X140.8 Y88.535 E83.10114
G0 F9000 X142.4 Y87.434
G1 F1125 X142.4 Y188.597 E91.17641
G0 F9000 X144 Y188.597
G1 F1125 X144 Y85.183 E99.43136
G0 F9000 X145.6 Y83.891
G1 F1125 X145.6 Y188.597 E107.78945
G0 F9000 X147.2 Y188.597
G1 F1125 X147.2 Y83.435 E116.18393
G0 F9000 X148.8 Y83.401
G1 F1125 X148.8 Y188.597 E124.58113
G0 F9000 X150.4 Y188.597
G1 F1125 X150.4 Y83.401 E132.97833
G0 F9000 X152 Y83.401
G1 F1125 X152 Y188.597 E141.37553
G0 F9000 X153.6 Y188.597
G1 F1125 X153.6 Y83.401 E149.77273
G0 F9000 X155.2 Y83.401
G1 F1125 X155.2 Y188.597 E158.16993
G0 F9000 X156.8 Y188.597
G1 F1125 X156.8 Y83.402 E166.56705
G0 F9000 X158.4 Y83.402
G1 F1125 X158.4 Y188.598 E174.96425
G0 F9000 X160 Y188.598
G1 F1125 X160 Y83.402 E183.36145
G0 F9000 X161.6 Y83.402
G1 F1125 X161.6 Y188.598 E191.75865
G0 F9000 X163.2 Y188.598
G1 F1125 X163.2 Y83.403 E200.15577
G0 F9000 X164.8 Y83.403
G1 F1125 X164.8 Y188.598 E208.55289
G0 F9000 X166.4 Y188.598
G1 F1125 X166.4 Y83.403 E216.95001
G0 F9000 X168 Y83.403
G1 F1125 X168 Y188.598 E225.34713
G0 F9000 X169.6 Y188.598
G1 F1125 X169.6 Y83.403 E233.74425
G0 F9000 X171.2 Y83.404
G1 F1125 X171.2 Y188.598 E242.14129
G0 F9000 X172.8 Y188.598
G1 F1125 X172.8 Y83.404 E250.53833
G0 F9000 X174.4 Y83.404
G1 F1125 X174.4 Y188.598 E258.93537
G0 F9000 X176 Y188.598
G1 F1125 X176 Y83.404 E267.33241
G0 F9000 X177.6 Y83.407
G1 F1125 X177.6 Y188.594 E275.72889
G0 F9000 X179.2 Y188.365
G1 F1125 X179.2 Y83.634 E284.08897
G0 F9000 X180.8 Y84.298
G1 F1125 X180.8 Y187.7 E292.34296
G0 F9000 X182.4 Y186.401
G1 F1125 X182.4 Y85.6 E300.38934
G0 F9000 X184 Y88.933
G1 F1125 X184 Y131.067 E303.75265
G1 F1500 E297.25265
G0 F9000 X184.988 Y131.601
G0 X184.928 Y140.148
G0 X184 Y140.934
G1 F1500 E303.75265
G1 F1125 X184 Y183.067 E307.11589
G1 F1500 E300.61589
G0 F9000 X185.049 Y183.247
G0 X184.798 Y184.306
G0 X184.32 Y185.481
G0 X183.57 Y186.665
G0 X182.711 Y187.604
G0 X181.739 Y188.371
G0 X180.384 Y189.089
G0 X179.025 Y189.504
G0 X177.434 Y189.663
G0 X138.257 Y189.639
G0 X136.274 Y189.4
G0 X134.43 Y188.83
G0 X134.4 Y187.671
G1 F1500 E307.11589
G1 F1125 X134.4 Y146.769 E310.38087
G0 F9000 X132.8 Y147.312
G1 F1125 X132.8 Y186.771 E313.53065
G0 F9000 X131.2 Y185.435
G1 F1125 X131.2 Y147.401 E316.56669
G0 F9000 X129.6 Y147.47
G1 F1125 X129.6 Y183.641 E319.45402
G0 F9000 X128 Y181.733
G1 F1125 X128 Y147.631 E322.17619
G0 F9000 X126.4 Y148.039
G1 F1125 X126.4 Y179.826 E324.71356
G0 F9000 X124.8 Y177.918
G1 F1125 X124.8 Y148.571 E327.05617
G0 F9000 X123.2 Y149.405
G1 F1125 X123.2 Y176.01 E329.17989
G0 F9000 X121.6 Y174.103
G1 F1125 X121.6 Y150.479 E331.06566
G0 F9000 X120 Y151.879
G1 F1125 X120 Y172.195 E332.68737
G0 F9000 X118.4 Y170.105
G1 F1125 X118.4 Y153.843 E333.98548
G0 F9000 X116.8 Y157.043
G1 F1125 X116.8 Y166.987 E334.77925
G1 F1500 E328.27925
G0 F9000 X115.611 Y166.803
G0 X115.153 Y165.052
G0 X115.004 Y164.136
G0 X114.857 Y162.352
G0 X114.861 Y162.072
G0 X117.529 Y118.715
G0 X118.4 Y118.105
G1 F1500 E334.77925
G1 F1125 X118.4 Y101.843 E336.07735
G0 F9000 X116.8 Y105.043
M104 S220
G1 F1125 X116.8 Y114.987 E336.87113
G1 F1500 E330.37113
G0 F300 X116.8 Y114.987 Z0.54
G0 F9000 X116.015 Y115.911
G0 X116.79 Y117.542
G0 X117.274 Y118.353
G0 X118.285 Y119.764
G0 X127.731 Y131.07
G0 X128.623 Y130.32
;TIME_ELAPSED:241.377100
;LAYER:-5
M140 S60
;TYPE:SUPPORT
G1 F1500 E336.87113
G1 F1125 X133.195 Y134.892 E337.67758
G1 X132.734 Y134.614 E337.74472
G1 X132.375 Y134.366 E337.79914
G1 X132.209 Y134.237 E337.82536
G1 X131.926 Y133.989 E337.87229
G1 X130.973 Y133.078 E338.03673
G1 X130.559 Y132.628 E338.113
G1 F1500 E331.613
G0 F9000 X129.871 Y133.611
G0 X131.689 Y135.309
G0 X133.204 Y136.259
G0 X133.803 Y135.26
G1 F1500 E338.113
G1 F1125 X133.94 Y135.338 E338.13266
G1 X134.424 Y135.649 E338.20441
G1 X134.959 Y136.088 E338.29073
G1 X135.439 Y136.593 E338.37763
G1 X135.848 Y137.153 E338.46412
G1 X136.185 Y137.764 E338.55115
G1 X136.263 Y137.96 E338.57746
G1 X183.271 Y184.968 E346.86913
G1 X183.287 Y184.94 E346.87316
G1 X183.39 Y184.723 E346.90312
G1 X183.537 Y184.373 E346.95046
G1 X183.692 Y183.934 E347.00853
G1 X183.748 Y183.748 E347.03276
G1 X119.791 Y119.791 E358.31404
G1 X119.357 Y119.274 E358.39823
G1 X119.099 Y118.931 E358.45176
G1 X118.235 Y117.696 E358.63975
G1 X118.125 Y117.523 E358.66532
G1 X117.803 Y116.969 E358.74524
G1 X117.724 Y116.816 E358.76672
G1 X117.075 Y115.43 E358.9576
G1 X117.038 Y115.341 E358.96962
G1 X183.981 Y182.284 E370.7776
G1 X183.994 Y182.06 E370.80559
G1 X183.995 Y180.601 E370.98756
G1 X116.315 Y112.921 E382.92553
G1 X116.292 Y112.814 E382.93918
G1 X116.19 Y112.24 E383.0119
G1 X116.159 Y112 E383.04208
G1 X116.068 Y110.977 E383.17018
G1 X183.995 Y178.904 E395.15172
G1 X183.995 Y177.207 E395.36338
G1 X116.051 Y109.263 E407.34792
G1 X116.206 Y107.721 E407.54122
G1 X183.995 Y175.51 E419.49842
G1 X183.996 Y173.813 E419.71008
G1 X116.511 Y106.329 E431.61357
G1 X116.904 Y105.025 E431.78343
G1 X183.996 Y172.116 E443.6176
G1 X183.996 Y170.419 E443.82926
G1 X117.409 Y103.832 E455.57444
G1 X118.001 Y102.728 E455.73069
G1 X183.996 Y168.722 E467.37136
